P2
# Processed image
400 400
255
31 31 30 30 31 31 31 32 32 32 33 33 33 32 31 31 35 35 35 35 35 35 35 35 40 40 41 41 40 39 38 37 36 37 38 39 39 39 39 39 40 39 38 38 37 34 29 25 28 25 23 24 23 21 18 15 12 11 9 8 7 6 7 7 4 4 4 3 3 2 2 2 3 2 2 2 2 3 4 5 4 7 10 11 13 14 17 20 22 24 26 27 26 25 25 26 27 32 38 42 47 52 56 59 67 69 73 75 77 83 93 100 109 108 105 103 103 107 114 119 127 127 130 135 141 143 140 136 131 130 129 128 128 128 128 129 128 124 118 115 116 119 123 125 122 117 114 116 122 128 130 130 133 136 141 146 148 148 147 146 149 144 136 132 132 135 138 139 142 141 140 141 141 137 129 123 130 133 136 134 129 124 123 123 129 128 129 132 138 141 142 141 150 150 149 148 146 143 142 141 145 143 142 143 146 150 152 153 169 164 159 157 156 153 147 142 145 145 142 137 134 127 107 86 58 47 48 66 83 83 78 78 68 71 75 76 74 78 94 112 103 84 75 89 105 110 111 113 125 123 119 114 109 108 110 113 102 103 104 107 112 118 124 127 114 96 65 33 10 3 5 12 7 8 8 7 5 6 11 14 8 9 8 5 2 1 3 6 3 3 3 2 1 1 1 1 2 1 1 3 5 6 4 2 4 5 5 6 6 5 5 4 3 2 2 2 4 7 11 14 20 24 31 37 42 49 56 59 64 63 64 66 66 66 65 65 63 64 67 71 75 79 82 83 83 82 81 81 82 84 85 87 85 88 90 92 95 99 104 108 116 120 126 130 133 135 138 140 144 146 149 150 150 149 146 144 143 141 139 137 134 131 126 122 120 115 109 105 104 103 101 100 101 104 107 109 110 108 107 105 
29 29 28 28 29 30 30 30 31 32 32 32 32 32 31 31 32 32 32 33 34 34 35 35 38 38 38 38 38 37 36 35 35 36 37 38 39 39 39 38 41 40 38 38 37 34 30 26 25 23 22 23 23 20 16 12 11 9 8 7 6 6 6 6 4 4 4 3 3 2 2 2 3 2 2 2 2 3 4 5 4 7 10 12 12 14 17 20 23 24 25 25 25 26 28 30 31 34 38 42 44 48 52 55 63 69 75 80 82 84 90 94 96 99 100 101 102 106 110 114 125 127 132 138 143 146 146 145 141 139 135 132 130 129 130 130 129 127 126 125 125 125 125 124 122 119 118 120 125 130 134 136 136 139 144 148 150 149 146 144 149 143 136 132 134 139 143 146 150 148 147 148 148 145 140 136 137 139 141 141 139 137 135 135 134 132 132 133 137 140 141 142 145 144 143 143 143 143 141 139 136 136 137 140 145 150 154 156 168 165 163 164 167 167 163 160 157 154 149 145 147 146 133 118 92 84 85 99 105 102 98 100 100 100 101 100 96 98 111 125 122 110 104 111 117 115 116 122 133 129 124 120 118 118 119 120 113 115 116 115 116 118 123 126 152 136 109 78 50 30 18 12 2 3 5 8 10 9 6 4 9 9 8 5 2 1 2 3 8 8 8 7 7 6 5 5 4 2 1 2 4 5 4 3 4 5 5 6 6 5 5 4 2 2 2 2 3 6 9 12 21 25 32 39 44 51 57 60 63 63 64 66 66 66 66 65 63 65 68 71 75 79 81 83 81 80 80 79 80 82 83 85 86 87 89 91 93 98 104 109 117 120 126 130 133 136 138 140 143 145 148 149 149 148 145 143 144 142 139 137 134 130 125 121 119 114 108 106 104 103 103 103 105 106 108 108 108 106 104 103 
27 27 27 27 28 29 29 30 31 31 32 32 32 32 32 32 32 32 33 34 34 35 35 35 36 37 37 37 37 37 36 36 36 37 38 39 39 39 40 39 39 38 37 35 33 30 28 25 24 23 21 20 18 15 13 12 11 9 9 7 7 6 6 6 5 5 4 4 3 3 3 3 2 2 2 2 2 3 4 5 5 7 10 12 12 14 17 19 22 24 25 25 26 26 26 30 32 35 38 41 44 48 54 58 63 70 75 83 89 92 94 97 99 101 103 105 107 110 114 119 126 128 134 140 142 145 146 148 149 147 142 138 134 132 130 129 128 127 126 125 125 124 123 123 123 123 125 128 131 134 136 140 144 147 149 151 154 154 152 151 149 149 146 143 142 145 146 146 146 148 148 148 148 150 152 152 148 148 148 149 148 146 143 142 138 135 134 134 135 135 138 139 139 139 136 136 138 139 139 140 141 142 145 148 154 159 164 165 164 164 164 159 159 158 156 153 153 153 153 153 153 152 150 146 133 133 133 131 131 129 129 128 128 128 125 123 123 125 131 137 139 139 139 136 133 133 133 133 129 128 127 127 126 126 126 126 126 126 125 120 121 123 123 124 127 129 137 136 111 87 57 34 18 12 9 9 9 9 9 9 8 8 8 8 8 8 10 10 8 8 8 9 9 10 10 7 5 3 3 3 3 4 4 4 4 4 5 5 5 5 5 4 4 3 3 3 6 8 11 14 21 26 34 40 45 51 57 59 63 63 64 66 66 66 66 66 66 67 69 72 75 78 80 80 80 80 79 79 80 81 83 85 85 86 87 89 92 97 104 110 117 120 126 130 133 136 140 142 143 144 145 146 146 145 145 144 143 142 141 138 134 129 124 120 118 114 108 106 105 105 104 104 105 105 106 107 107 107 105 105 
27 26 27 27 27 28 29 29 30 30 31 31 31 32 32 32 32 32 32 33 34 34 35 35 36 37 37 37 37 37 37 36 37 38 39 39 39 40 40 39 39 38 36 34 30 28 26 25 23 21 20 18 14 12 12 11 11 9 9 7 7 6 6 6 5 5 4 4 4 3 3 3 3 2 2 2 2 3 4 5 5 8 10 12 12 14 16 19 21 23 25 25 26 26 28 30 33 35 39 41 44 48 54 59 64 71 81 84 90 94 96 98 100 101 104 107 110 113 117 123 128 133 138 140 144 146 149 152 152 153 150 147 140 134 132 130 130 129 126 126 126 125 124 124 125 126 130 133 137 140 143 145 149 151 151 155 158 160 160 159 158 155 152 146 146 146 148 148 148 148 149 150 152 153 154 155 153 151 151 151 151 148 145 143 141 138 136 134 134 134 135 135 135 134 131 129 129 135 137 138 139 141 146 154 160 164 166 166 165 164 163 159 158 158 153 153 153 154 155 155 155 155 155 155 155 156 156 152 151 150 145 143 142 140 136 136 136 142 143 145 150 150 146 141 137 137 136 134 133 129 128 128 127 127 128 129 129 130 129 127 124 125 125 127 134 139 143 143 144 139 120 91 62 34 17 11 11 10 10 9 8 8 8 8 9 12 13 12 11 11 9 9 9 10 10 9 7 5 3 3 4 4 4 4 4 4 5 5 5 5 5 5 4 4 3 5 7 9 12 15 21 26 34 41 45 51 56 59 63 63 64 66 66 67 67 67 67 68 70 72 75 78 80 80 80 79 79 79 79 81 82 83 85 86 86 89 91 96 104 110 117 120 125 129 133 136 140 142 143 144 145 145 145 145 145 144 143 143 142 138 134 129 123 119 118 114 108 107 106 106 106 106 106 106 106 107 107 108 109 110 
27 27 26 26 26 27 28 28 29 29 30 30 31 31 32 32 32 32 32 33 34 35 35 36 36 37 37 37 37 37 37 38 38 39 40 40 40 40 40 39 39 37 35 31 29 26 25 24 22 20 17 14 11 10 11 11 10 9 8 7 7 6 6 5 5 5 5 4 4 3 3 3 3 2 2 2 2 3 4 5 6 8 11 12 12 13 16 18 21 23 24 25 26 26 28 31 34 37 39 43 46 52 58 62 66 72 83 89 94 97 101 105 108 110 110 112 116 118 123 128 133 136 140 142 144 149 152 154 156 157 155 150 145 138 134 132 130 130 129 128 128 126 125 127 130 133 137 139 143 145 148 149 151 152 154 157 161 163 166 166 165 162 159 157 155 151 151 150 149 150 152 154 155 156 158 158 158 154 152 151 151 148 146 143 142 141 138 134 132 131 131 131 133 133 130 128 126 128 131 137 139 143 152 159 164 166 167 167 165 163 159 156 148 147 147 147 149 153 155 155 156 157 157 158 159 159 159 161 159 159 154 153 153 150 145 144 144 150 151 151 151 151 150 146 142 139 137 136 135 133 129 129 128 128 129 129 130 132 132 132 130 127 127 130 137 143 147 148 148 147 144 136 111 87 62 35 24 14 13 11 11 9 9 10 15 20 20 20 13 12 11 11 11 10 10 9 8 6 5 4 4 4 4 4 4 4 4 5 5 5 5 5 5 4 5 7 9 11 13 15 22 27 34 41 45 52 55 58 63 63 64 66 67 67 68 68 69 69 71 73 76 78 79 79 79 79 78 79 79 80 81 82 84 85 86 87 90 96 104 110 116 119 123 127 131 135 140 143 143 144 145 145 145 145 145 144 144 143 143 139 135 129 123 119 118 114 109 108 107 107 107 107 106 106 107 107 108 108 110 112 
26 26 26 26 26 26 27 28 28 28 28 29 29 31 31 32 32 32 33 33 35 35 36 36 37 37 38 38 38 38 38 38 40 40 41 41 41 41 41 39 39 35 32 29 27 26 25 24 22 17 14 13 11 10 10 10 9 9 8 7 7 6 5 5 5 5 5 4 4 3 3 3 3 2 2 2 2 3 4 5 6 9 11 12 12 13 15 18 21 23 24 25 26 26 28 32 35 39 43 46 52 58 62 64 67 78 85 94 97 101 107 112 119 119 119 120 122 126 129 133 137 140 142 144 146 152 154 157 157 157 156 152 147 140 137 133 130 130 129 129 129 128 129 133 138 141 144 145 149 152 151 152 154 155 156 160 163 166 167 168 168 166 162 159 157 153 151 148 148 148 150 153 156 157 159 161 161 159 155 152 151 148 145 144 143 142 140 133 130 128 128 130 130 131 130 128 125 124 128 131 137 146 155 163 165 169 169 169 167 160 156 150 148 147 147 147 149 152 155 155 158 160 160 163 165 168 168 168 168 162 161 161 161 160 156 155 154 154 154 154 154 154 151 150 146 143 141 137 136 134 130 129 129 128 129 130 132 133 134 134 134 134 134 137 141 145 148 148 148 148 147 144 142 134 109 78 62 35 28 25 17 14 15 19 21 21 21 21 20 12 11 9 9 9 9 8 7 6 5 5 5 5 5 4 4 4 4 5 5 5 5 5 5 5 6 8 10 12 13 15 22 27 34 41 46 52 55 57 63 63 64 67 67 68 69 69 69 70 71 73 76 78 79 79 79 78 78 78 78 79 80 81 83 84 86 87 90 96 104 109 115 118 122 126 129 134 140 142 144 144 145 145 145 145 145 145 144 143 143 139 135 130 123 120 117 114 111 109 108 107 107 107 107 107 108 109 110 110 108 108 
24 24 24 24 24 25 26 27 28 28 28 28 28 29 31 31 32 33 33 34 35 39 40 42 44 45 46 47 47 47 47 47 48 48 48 48 46 45 43 40 39 37 34 29 28 27 25 24 22 17 14 13 11 10 10 9 8 7 7 6 5 5 5 5 5 5 5 4 4 3 3 3 3 2 2 2 3 4 5 6 8 9 11 12 12 15 16 18 21 22 24 25 26 28 31 34 40 46 49 54 58 63 64 67 73 83 92 97 104 110 118 120 124 129 129 130 130 133 137 140 143 144 144 146 149 153 157 157 158 157 157 154 148 140 137 135 134 132 130 130 130 130 134 141 146 150 151 152 154 156 155 155 155 156 157 161 164 166 167 168 168 166 162 159 157 153 151 148 148 148 149 153 156 156 159 161 164 163 158 154 151 146 144 143 142 142 141 136 132 128 128 130 133 135 136 128 128 126 126 128 136 141 152 161 165 169 169 168 165 160 150 148 147 145 146 147 149 152 154 156 160 164 165 165 167 168 168 170 170 168 166 164 164 164 163 160 155 156 156 156 156 156 154 150 149 146 142 140 136 136 134 131 130 129 129 129 130 132 134 134 135 135 139 142 143 147 148 151 150 150 148 147 145 144 141 125 107 78 67 67 51 40 28 28 28 27 27 27 22 20 11 9 8 8 7 6 6 6 5 6 6 6 5 5 4 4 4 5 5 5 5 5 5 6 7 9 11 13 15 16 22 28 36 42 47 52 55 57 63 63 66 67 68 69 69 69 70 70 71 73 76 78 79 79 79 78 77 77 78 78 79 81 81 83 85 86 90 96 103 108 113 116 119 123 128 133 139 143 144 144 145 145 145 145 145 146 146 145 143 139 135 130 123 120 116 113 111 109 108 107 107 107 107 108 109 110 110 110 108 106 
23 22 24 23 22 23 24 25 26 27 27 27 28 29 31 32 33 33 35 39 41 45 48 50 53 54 55 56 56 56 56 56 57 57 57 56 54 52 50 47 43 40 37 32 29 27 26 25 22 17 14 13 11 10 9 8 7 6 5 5 4 3 4 4 5 5 4 4 3 3 3 3 3 3 2 2 3 4 5 6 8 9 11 12 12 15 17 19 22 23 24 26 28 32 38 46 54 58 61 63 63 66 67 78 85 94 101 107 113 119 126 130 135 137 137 138 138 140 145 147 147 147 149 152 154 158 158 158 158 158 156 151 146 142 140 138 136 135 138 135 138 144 148 151 151 153 154 156 158 157 157 157 156 156 157 159 161 164 166 168 168 165 159 155 152 148 144 144 144 146 149 153 156 156 159 163 164 163 161 156 151 146 143 142 142 142 142 143 140 132 131 138 140 142 144 144 140 135 128 128 133 137 146 159 165 167 168 167 164 161 154 149 148 148 147 148 148 149 153 157 162 165 165 165 167 168 169 172 172 171 168 166 164 164 164 164 160 157 156 156 156 157 156 153 151 149 146 146 145 145 139 135 133 131 129 129 129 131 133 134 135 139 142 147 148 150 152 153 153 150 148 148 147 147 148 147 138 125 110 107 102 83 59 44 37 31 31 31 29 26 20 11 9 8 7 6 6 6 6 6 7 7 7 5 4 4 4 5 5 5 5 5 5 6 7 9 12 13 15 16 22 28 36 43 48 53 56 58 63 64 66 67 69 69 69 70 70 71 71 74 76 78 79 79 79 77 77 77 77 77 78 78 80 81 84 86 90 96 102 107 112 115 119 122 126 132 138 143 144 145 145 145 145 145 147 147 146 146 143 139 135 130 123 120 116 113 111 109 108 106 106 106 107 108 109 109 109 108 111 109 
25 24 22 22 21 22 22 24 25 26 26 27 27 29 32 33 35 38 41 45 48 51 55 59 61 62 64 67 68 70 70 70 70 68 67 66 65 62 58 54 50 47 41 37 32 30 28 27 23 17 14 13 13 10 9 7 6 5 5 4 3 3 3 3 3 4 4 3 3 3 3 3 3 3 3 3 3 4 5 7 9 10 11 12 12 15 17 22 23 24 25 30 38 41 54 59 68 77 88 93 93 94 94 96 105 107 113 118 125 128 133 135 137 138 138 140 148 150 151 151 152 152 154 158 162 162 162 160 158 157 155 150 146 144 142 142 142 142 143 144 148 153 153 153 154 156 159 161 167 162 161 159 158 157 157 158 158 161 161 163 158 155 152 149 146 144 142 139 140 142 143 149 153 155 159 161 163 163 160 156 152 148 145 143 143 144 144 144 144 144 144 144 144 144 145 147 145 144 136 128 130 133 137 152 159 165 167 165 164 161 160 152 149 148 148 148 148 149 151 153 158 165 166 166 166 167 168 172 172 170 169 167 166 164 164 164 160 157 156 156 156 156 156 154 154 153 152 152 152 150 146 139 134 133 130 129 129 131 133 135 137 142 148 152 153 154 154 155 155 153 149 148 147 148 150 151 151 147 139 138 125 113 103 87 69 55 49 49 41 37 36 21 11 9 8 8 8 8 7 9 9 9 8 7 5 5 5 5 5 5 5 5 5 6 7 9 11 13 15 18 23 28 36 43 48 54 56 60 63 65 66 67 69 69 69 70 70 70 71 74 78 78 79 79 78 77 76 76 76 77 77 77 78 80 82 87 90 93 99 107 112 115 117 120 125 130 137 143 145 145 146 148 149 148 148 148 148 146 144 139 134 130 124 116 115 112 111 109 106 105 104 104 105 106 108 108 108 108 107 108 
24 23 21 20 21 21 22 23 24 25 26 27 27 30 33 36 39 43 48 52 57 60 63 67 70 71 73 75 76 77 78 78 78 77 75 74 73 70 66 62 58 54 48 43 40 36 32 29 27 19 15 14 13 11 9 6 6 5 4 3 3 3 3 3 3 3 3 3 3 3 3 3 3 3 4 4 5 5 5 7 9 10 11 12 15 18 22 24 26 34 40 41 54 62 71 78 93 102 112 117 117 117 118 120 124 124 126 130 133 135 135 137 138 138 140 148 152 158 158 158 158 159 160 164 166 166 165 162 161 157 154 149 146 146 144 143 143 146 146 149 155 156 157 157 157 159 161 167 170 170 168 164 161 159 158 158 156 155 155 155 152 151 148 146 146 142 141 139 139 140 142 143 149 151 154 159 161 161 156 154 152 150 149 146 144 146 148 152 153 156 151 149 147 147 148 149 152 148 145 136 136 132 132 140 152 159 161 164 164 163 161 158 152 150 148 148 148 148 149 149 153 158 163 165 166 167 167 169 169 168 168 166 164 164 163 160 155 155 155 155 155 156 155 155 155 156 156 156 154 150 146 143 137 134 133 132 131 133 134 137 144 152 154 157 157 156 158 158 158 157 153 150 149 150 151 152 155 154 152 147 140 139 132 124 105 91 78 74 69 61 50 37 25 17 11 11 11 11 13 14 13 11 11 10 8 6 6 6 5 5 5 5 6 7 7 9 11 13 15 18 23 29 37 43 49 54 58 60 64 65 66 67 69 69 69 69 69 70 71 74 78 79 79 79 79 77 76 76 76 77 77 77 77 78 81 87 90 93 99 107 112 115 117 120 125 130 137 142 145 146 148 149 149 149 149 149 148 147 144 138 133 130 124 116 114 112 110 107 105 104 103 102 102 103 106 106 107 107 106 107 
22 21 20 20 20 20 21 22 24 25 26 27 29 32 36 43 47 51 57 61 64 68 73 76 83 83 85 86 87 88 88 88 88 87 86 85 82 79 75 72 66 62 58 53 48 43 38 33 29 23 17 14 13 12 9 6 5 5 4 3 3 3 3 3 3 2 2 3 3 4 4 4 4 5 5 5 5 6 6 8 9 10 12 17 22 27 40 49 77 86 93 97 103 112 118 124 124 129 131 139 141 142 141 141 141 139 137 135 136 137 137 138 139 140 144 151 155 159 160 161 162 166 168 170 172 174 174 170 163 158 155 149 149 146 146 146 147 148 151 155 157 159 162 160 160 161 163 169 172 173 173 170 168 164 160 158 155 148 140 139 146 148 146 146 146 142 141 139 139 140 142 143 146 149 151 154 154 152 152 149 149 150 150 148 148 151 153 154 157 158 156 151 151 149 150 151 152 152 152 145 138 136 132 136 144 148 157 161 163 163 164 164 157 150 148 147 147 147 148 149 149 154 160 163 165 166 167 167 168 167 166 164 163 158 154 153 151 152 151 151 152 152 153 154 156 156 156 156 155 150 145 139 137 134 134 133 135 136 137 144 152 155 156 158 159 160 164 164 164 163 158 155 152 152 153 155 158 158 159 152 150 147 146 139 132 122 111 107 103 88 74 57 44 36 26 26 29 29 29 29 19 15 14 13 11 8 8 7 6 6 6 6 7 7 7 8 9 14 16 19 23 29 37 43 49 54 58 60 65 65 66 67 68 69 69 69 69 69 70 74 78 79 80 80 79 77 76 76 76 77 77 77 77 78 80 87 90 93 99 107 113 116 117 120 125 130 137 142 146 147 149 149 149 149 149 149 148 147 144 137 132 130 124 116 114 111 107 105 104 102 100 100 100 102 103 105 105 104 104 104 
18 18 17 18 19 20 21 22 24 25 26 28 32 38 43 49 56 61 67 70 74 78 83 86 91 93 95 95 95 96 96 96 96 96 94 92 88 85 82 79 75 71 65 60 54 49 43 38 33 28 20 15 13 12 9 6 5 5 4 3 3 3 3 3 3 2 2 3 3 4 6 7 6 6 6 6 7 7 8 11 11 12 17 27 43 65 82 95 99 104 108 111 115 118 121 124 129 130 137 141 143 146 148 148 146 144 142 140 139 139 139 139 140 142 147 151 158 160 162 164 168 169 174 176 176 177 179 177 171 163 157 149 149 149 148 148 149 151 151 155 159 163 166 166 163 161 163 169 173 174 174 174 171 168 161 156 150 140 136 134 136 143 146 146 146 143 142 141 140 142 143 144 146 147 148 149 148 142 139 144 148 148 149 150 150 153 156 158 158 158 157 156 154 151 151 151 152 152 152 152 147 144 136 136 140 144 148 156 160 161 165 165 164 157 148 147 147 147 147 148 149 151 154 161 165 166 167 166 166 166 164 161 155 151 144 136 132 132 142 146 147 148 150 152 154 156 156 152 150 145 139 137 134 133 133 134 137 138 143 151 155 155 156 159 160 166 167 167 167 167 167 164 156 153 154 156 159 162 162 163 154 152 150 147 145 135 132 125 121 107 95 74 61 56 50 50 54 67 67 67 51 29 19 14 14 14 13 10 7 7 7 7 7 7 8 9 9 14 16 19 24 30 38 44 49 54 58 59 65 65 66 67 68 69 69 69 69 69 70 74 79 79 80 80 79 77 76 76 76 77 77 77 77 78 81 87 91 94 100 107 114 117 119 123 126 130 137 141 145 146 148 149 149 149 149 149 147 145 143 135 131 129 124 117 114 110 106 105 102 100 99 98 98 99 100 102 102 101 101 101 
14 13 14 16 17 19 20 22 24 25 27 32 37 44 51 58 63 68 74 78 82 86 91 93 98 100 100 102 102 102 102 101 101 99 97 97 95 92 88 84 80 76 72 66 60 55 49 43 38 33 23 18 14 12 9 6 5 5 4 3 3 3 3 3 3 2 2 3 4 5 8 10 9 9 9 11 12 12 12 12 17 22 42 65 80 88 95 99 107 108 111 113 118 120 121 124 129 131 138 142 143 146 148 148 146 145 145 145 145 146 146 146 146 147 149 151 153 159 162 166 169 172 175 177 177 179 180 180 179 169 161 155 150 150 150 151 151 154 154 156 160 166 169 169 169 167 169 170 173 173 174 174 172 170 168 159 148 138 129 129 131 136 142 143 143 142 142 142 142 143 143 144 146 146 146 147 141 135 134 134 135 139 148 150 150 155 156 158 158 158 156 157 157 157 153 153 154 155 155 156 156 155 147 147 146 140 147 148 156 161 165 168 170 168 157 148 147 147 149 149 149 151 154 156 165 166 166 165 165 164 161 155 150 143 137 131 125 119 131 138 142 143 146 147 150 152 150 148 145 140 137 134 128 128 128 132 138 143 144 153 156 156 158 161 166 171 171 171 171 171 171 169 165 156 155 156 159 162 163 163 163 162 161 157 152 148 142 137 129 124 108 95 81 68 67 67 72 79 86 92 88 68 51 32 24 18 18 18 14 13 8 7 7 8 8 9 10 13 16 19 25 31 38 44 49 54 58 59 65 65 66 67 68 69 69 69 69 70 70 75 79 80 80 80 80 77 76 76 76 77 77 78 78 79 81 88 92 95 100 107 115 117 120 123 126 130 135 139 142 145 146 148 149 149 148 147 145 144 141 134 130 129 124 118 113 110 105 104 100 98 97 96 96 96 97 98 98 98 97 98 
10 10 12 14 15 17 19 21 24 26 30 36 44 51 58 63 68 75 82 86 89 93 97 100 102 104 106 106 108 108 108 108 106 105 104 103 102 98 96 92 88 83 78 72 66 60 55 49 42 35 28 22 17 12 9 6 5 4 4 3 3 3 3 3 3 3 3 3 4 8 13 13 15 15 15 17 17 17 19 20 36 43 65 82 88 92 96 104 109 113 114 118 121 123 126 128 129 130 134 139 142 146 148 148 146 145 145 146 148 149 152 151 149 149 150 151 151 153 161 167 169 174 176 177 177 179 180 180 179 175 167 160 155 153 154 154 154 156 159 160 161 165 170 173 173 171 171 172 173 172 173 172 171 170 169 164 153 139 129 129 131 136 140 142 142 142 142 143 143 143 144 146 146 146 146 144 138 135 134 131 130 129 129 144 150 156 156 158 156 154 153 157 159 159 162 157 157 156 156 157 158 160 161 159 147 146 146 147 150 158 166 170 173 173 168 157 150 150 150 150 150 154 155 155 156 160 165 164 162 161 159 150 143 139 135 131 119 114 119 130 136 138 139 142 143 146 143 142 141 139 136 128 126 120 116 121 137 143 146 155 157 158 159 161 169 171 172 173 174 173 173 171 168 165 159 156 159 162 163 164 165 165 164 165 163 157 154 150 138 133 127 108 95 84 79 81 86 95 99 100 103 105 88 66 51 32 31 27 22 19 17 15 12 10 9 10 12 13 16 19 26 31 39 45 49 54 58 59 65 65 66 67 68 69 69 69 69 70 71 75 79 80 80 80 80 77 76 76 76 77 77 78 78 79 82 89 93 95 101 109 115 117 120 123 126 129 134 137 140 142 145 146 146 146 145 145 143 143 139 132 129 128 125 119 113 109 105 102 99 97 94 93 93 93 94 95 95 95 94 95 
7 8 10 12 14 16 19 21 25 30 36 43 51 56 63 68 75 82 86 89 93 98 101 104 107 109 110 111 113 114 114 114 112 111 111 111 110 109 104 100 95 92 85 78 72 66 60 55 47 40 33 26 22 16 9 6 5 5 4 4 3 3 3 4 4 4 4 5 10 13 15 28 33 33 27 27 27 28 33 41 56 67 82 89 92 96 104 108 113 113 115 118 122 125 126 128 129 130 134 138 140 141 142 142 142 144 144 145 148 151 152 152 152 151 151 151 151 152 153 162 169 175 177 177 178 179 181 180 179 176 167 161 157 155 155 157 157 157 157 160 161 163 168 172 173 174 173 173 173 172 172 171 170 170 170 167 161 151 141 134 134 136 140 140 142 142 143 143 146 146 146 146 146 146 146 144 139 137 135 130 128 127 125 125 137 150 155 158 156 154 153 157 159 162 163 164 162 159 159 159 160 161 163 161 161 159 148 148 148 155 158 170 174 175 171 168 155 153 151 151 154 155 156 156 155 155 159 160 159 158 155 148 143 141 137 131 115 113 114 119 130 135 136 136 137 138 139 140 139 138 136 126 120 114 113 111 121 138 151 156 157 159 161 165 168 172 173 175 177 177 176 174 172 168 162 159 157 160 163 166 168 170 170 171 170 165 162 159 154 144 141 127 108 99 94 94 99 100 103 105 107 112 113 112 80 65 51 41 38 31 26 19 16 12 12 12 12 14 16 19 27 32 40 45 49 54 58 59 65 65 66 67 68 69 69 69 69 70 71 75 79 80 80 80 79 77 76 75 76 77 77 78 78 80 83 89 93 95 101 109 115 117 120 123 125 128 132 135 137 140 141 142 142 142 143 143 141 140 136 130 128 125 121 118 112 109 104 100 97 94 92 90 90 90 93 93 93 93 92 93 
6 6 9 10 12 14 19 21 26 33 39 46 53 60 67 74 80 86 89 93 98 101 105 108 110 112 113 115 117 119 119 119 118 117 117 116 116 113 110 106 102 97 93 85 78 70 63 57 50 42 35 29 24 18 12 8 6 5 5 4 3 3 4 4 5 5 5 6 13 21 28 35 43 50 45 41 41 41 56 67 80 87 89 92 96 102 110 113 130 131 137 139 138 137 137 132 130 134 138 139 139 139 139 137 137 138 138 143 148 151 152 152 152 152 151 151 151 151 151 153 162 171 176 177 177 179 180 180 179 176 169 161 160 156 156 157 157 157 158 159 160 162 163 169 173 177 177 177 173 172 170 170 170 168 168 167 164 154 149 141 139 138 140 140 140 141 143 144 147 147 147 148 147 146 146 143 140 137 137 135 128 125 123 123 128 138 150 153 158 153 151 156 160 162 163 164 163 162 161 159 159 161 161 165 166 165 159 155 152 152 155 162 170 173 171 169 164 157 155 154 156 157 158 158 156 155 155 156 155 151 149 144 143 142 141 139 129 115 118 122 129 133 136 136 135 135 137 139 138 138 135 124 116 111 100 99 100 121 144 153 157 159 160 164 165 171 173 178 179 180 180 177 174 169 165 158 157 157 162 166 170 170 171 172 171 170 168 163 162 159 151 141 124 115 108 105 105 107 108 111 115 122 124 128 122 100 80 66 52 51 42 31 26 17 15 14 14 16 18 22 27 32 40 45 50 54 58 62 65 66 67 68 68 68 68 68 69 70 71 75 79 79 80 79 79 76 75 75 75 76 77 78 79 80 84 89 93 95 102 109 115 117 121 123 125 128 131 135 136 137 139 140 140 140 141 141 140 138 134 129 128 124 120 118 112 108 103 99 95 93 90 89 89 88 89 91 91 91 91 91 
9 10 8 9 11 14 19 24 30 37 45 51 58 65 68 78 83 88 93 97 101 105 108 111 113 115 119 122 123 123 123 123 123 123 121 120 118 116 113 111 106 102 97 93 84 75 68 60 55 47 39 33 26 22 16 9 8 5 5 4 3 3 4 4 5 6 10 13 18 28 37 50 56 62 81 82 82 82 85 87 89 91 96 104 114 124 129 131 133 139 140 140 140 140 140 140 142 142 142 140 140 138 137 136 135 135 138 138 141 143 151 151 151 151 151 149 149 149 147 149 152 162 171 176 177 178 178 177 176 172 168 161 160 157 155 155 156 156 157 157 159 161 162 167 172 177 177 177 174 172 170 169 168 168 165 164 161 158 153 149 141 140 140 140 141 142 148 150 160 162 160 153 149 147 146 143 140 139 137 136 135 128 123 123 129 137 145 149 158 155 153 155 156 161 162 164 163 162 161 160 156 154 151 159 165 166 166 163 158 155 157 160 163 169 169 169 167 162 158 157 157 158 159 159 158 155 155 154 149 149 147 142 143 144 146 144 139 131 129 129 132 135 136 136 135 132 135 138 137 135 126 123 119 100 98 91 88 99 124 145 155 159 160 163 165 169 173 179 181 182 183 182 177 171 166 159 157 157 157 164 169 170 171 173 174 173 171 169 165 162 161 151 139 127 123 118 115 112 111 115 122 128 130 142 144 133 116 100 90 83 72 51 42 30 21 16 16 18 22 24 27 32 40 45 50 56 59 63 66 66 67 68 68 68 68 68 68 69 71 75 78 79 79 79 77 76 75 75 75 76 77 78 78 80 84 89 93 97 102 107 116 118 121 123 125 128 131 135 136 137 139 140 140 140 140 140 139 137 133 128 127 123 120 116 112 107 100 97 94 92 90 89 88 88 88 88 88 88 85 83 
9 9 8 9 9 14 21 25 33 39 46 53 60 67 73 80 86 92 96 101 105 108 112 115 119 122 124 127 127 127 128 128 128 127 125 124 121 120 117 114 111 106 102 96 88 79 70 63 57 49 41 34 29 24 17 12 9 7 6 4 4 4 4 5 10 13 15 17 23 37 54 61 77 83 86 91 95 91 91 95 102 104 114 124 128 129 131 134 139 140 144 145 145 145 144 144 144 144 144 142 140 137 136 134 133 133 134 137 138 139 141 142 149 149 149 147 143 139 139 137 139 146 158 169 174 175 175 175 173 169 165 160 157 155 148 147 147 148 148 156 157 160 161 162 167 175 177 177 175 173 170 168 166 164 163 161 158 156 154 152 149 147 142 143 148 150 155 162 167 168 168 164 158 150 148 145 140 139 137 137 137 137 129 132 133 137 138 147 153 156 156 156 156 156 161 161 162 161 161 159 150 148 148 149 158 163 166 166 163 163 159 160 160 160 165 167 167 165 162 158 157 159 159 163 164 161 158 154 149 147 141 141 142 146 147 146 146 139 136 136 136 138 139 139 136 135 132 134 132 129 126 123 119 100 88 71 65 78 103 129 148 155 159 160 164 168 173 180 183 184 185 183 181 175 169 159 157 157 157 164 166 169 171 173 175 175 175 171 168 164 163 160 146 141 135 127 127 127 123 127 130 141 144 146 149 151 136 121 114 100 95 83 72 55 50 30 28 27 27 27 30 32 39 45 51 56 62 64 66 67 67 68 68 68 68 67 67 68 71 75 78 79 79 79 77 76 75 75 75 76 77 78 79 81 85 89 93 97 103 107 117 119 121 124 125 128 131 135 136 138 139 140 140 140 140 140 139 136 133 130 126 123 119 116 111 106 100 96 94 92 90 89 88 87 87 87 86 85 84 82 
6 7 7 8 9 14 22 27 37 40 47 54 61 68 77 81 88 95 100 104 108 112 116 119 123 127 130 133 133 133 134 134 134 134 132 130 125 124 121 117 113 109 104 99 93 84 75 67 59 53 43 37 32 27 21 17 12 9 8 7 6 7 12 13 15 17 19 23 37 54 61 78 85 89 98 106 109 106 106 106 111 119 124 129 131 131 134 137 142 146 148 149 152 151 149 149 149 149 147 145 142 140 137 134 132 130 133 134 137 138 138 138 138 137 140 136 135 131 131 130 130 134 137 148 159 169 172 171 169 168 161 157 149 147 142 142 142 144 142 144 147 147 149 160 162 164 174 175 174 173 169 166 164 163 159 158 157 155 154 152 151 149 149 152 153 154 161 167 170 172 172 171 166 160 152 146 140 139 137 137 138 141 143 145 138 138 138 138 147 156 158 158 156 156 159 160 160 161 160 150 147 147 147 149 155 163 166 166 166 165 160 160 159 157 157 164 165 166 165 162 155 155 158 163 166 171 165 157 149 147 141 138 141 146 147 148 148 144 141 139 141 142 143 143 143 139 135 132 129 126 124 122 119 100 72 64 61 56 78 103 130 148 153 157 160 164 171 179 183 184 185 184 182 180 175 167 158 157 157 161 166 167 170 170 173 175 175 174 170 165 163 161 153 147 146 143 143 143 138 134 141 144 148 151 154 155 151 140 130 121 114 105 95 82 68 55 52 46 37 35 35 37 42 47 52 58 63 64 66 67 67 68 68 68 67 67 67 68 71 75 78 78 78 78 77 76 76 75 76 76 77 78 79 81 85 89 93 98 103 107 117 119 121 124 126 129 133 135 137 138 140 141 142 142 142 140 139 138 134 130 126 121 119 115 109 105 99 95 94 92 91 89 88 87 86 86 84 83 81 79 
4 5 6 7 9 15 23 29 38 41 48 54 61 70 79 84 92 97 101 108 112 116 120 124 128 133 136 139 140 140 141 141 141 140 138 135 132 129 125 121 117 111 107 102 96 88 77 70 60 55 47 41 36 30 26 21 17 13 12 12 12 16 17 17 18 22 37 41 54 61 78 86 98 111 115 117 119 122 122 122 124 129 134 137 137 137 140 143 147 150 152 152 152 152 151 152 153 155 153 149 146 141 135 134 129 127 122 127 128 133 134 134 132 130 130 130 129 128 128 126 126 124 118 122 135 148 159 168 168 167 165 159 149 143 140 135 132 136 137 137 137 137 137 137 148 160 168 172 170 169 167 166 163 162 159 158 157 155 154 153 152 152 152 153 153 156 162 168 170 172 173 173 172 168 160 152 143 140 140 140 141 144 145 148 145 145 138 136 136 147 155 155 155 156 159 159 159 159 159 149 146 146 147 149 155 163 166 169 170 167 166 160 159 155 154 155 164 166 167 167 163 155 155 163 165 175 175 168 152 141 135 135 135 146 148 149 150 149 143 142 142 143 145 147 148 148 139 135 129 126 124 122 113 105 85 61 45 45 54 80 113 130 137 148 153 160 164 176 182 184 185 185 182 179 177 171 159 157 155 159 165 166 168 169 170 172 175 174 171 170 165 162 153 150 150 150 150 152 151 147 147 148 154 154 155 156 159 154 145 135 130 124 114 105 95 82 75 68 61 55 40 43 44 52 54 60 63 64 66 67 68 68 68 68 68 68 68 68 71 75 78 78 78 78 77 76 76 76 76 77 77 78 79 82 86 90 94 99 104 108 117 119 122 124 126 130 135 136 138 141 142 143 144 144 144 142 141 138 136 132 127 123 119 115 108 105 99 96 94 93 91 88 87 86 85 84 82 81 78 76 
3 4 6 6 10 16 24 29 39 41 48 54 61 70 81 86 95 100 105 111 116 120 125 130 134 139 142 145 146 146 148 148 148 147 145 140 137 133 129 125 121 114 109 103 98 90 79 71 61 57 52 46 40 36 31 27 21 21 21 22 30 37 40 41 41 42 55 69 80 97 109 111 115 118 124 125 126 128 132 133 137 141 144 144 144 144 146 147 150 152 153 154 153 152 152 153 155 157 155 154 149 145 138 130 126 121 120 118 117 117 123 127 127 127 128 128 128 128 128 126 125 119 117 118 122 131 141 157 160 163 160 159 149 143 140 132 129 129 131 124 126 127 127 127 130 136 148 161 166 166 166 163 162 159 158 158 157 156 155 153 153 152 152 153 153 155 161 167 170 173 174 175 174 172 169 162 153 143 143 143 146 148 151 159 156 149 142 136 126 131 146 155 155 157 159 159 158 158 155 149 146 145 146 148 152 163 167 171 171 171 170 165 160 154 153 153 153 164 168 171 168 164 157 162 165 171 176 176 169 147 130 129 129 137 147 150 150 151 146 144 144 145 146 148 150 151 148 139 134 127 126 123 113 106 90 61 44 43 43 71 94 113 122 132 144 150 160 173 182 184 185 184 182 179 177 175 170 159 158 159 161 165 166 166 168 170 174 174 172 171 165 160 153 152 151 150 152 157 158 157 154 154 154 155 156 159 160 159 154 145 137 134 128 124 113 105 96 90 84 79 63 55 52 55 58 62 64 64 66 67 68 69 69 69 68 68 68 68 72 75 78 78 78 78 77 77 77 77 77 77 78 79 80 83 87 91 95 99 105 109 117 119 122 124 127 131 135 138 141 143 144 144 145 145 145 144 143 139 136 133 130 126 119 115 108 105 99 96 95 93 91 88 86 85 83 82 80 78 75 72 
3 4 5 6 10 16 24 29 39 41 48 54 61 70 82 88 97 101 108 114 120 125 130 136 142 145 147 151 152 153 155 155 155 153 151 147 143 137 133 129 124 118 110 105 100 93 81 71 61 59 55 50 46 43 37 36 36 36 37 45 55 66 73 75 83 86 90 99 109 124 130 131 131 130 131 132 133 138 143 144 147 149 149 149 149 148 149 151 152 153 154 154 152 150 149 153 155 157 155 154 148 141 138 132 122 120 117 115 114 114 115 117 122 126 126 127 128 128 128 126 125 119 117 118 122 130 133 139 151 157 159 159 152 145 139 132 125 120 117 119 120 124 126 126 127 127 131 135 147 159 159 159 159 159 158 157 156 156 155 154 153 152 152 153 153 154 159 167 169 171 173 175 175 173 169 169 165 159 153 153 153 155 162 164 164 162 160 143 131 128 142 150 155 159 159 159 158 157 155 150 145 144 145 148 152 163 168 171 172 172 172 171 165 153 149 144 147 153 164 171 171 168 164 162 163 169 176 176 176 160 135 129 125 132 142 150 153 156 154 151 146 146 146 150 151 154 154 148 142 135 127 126 113 108 102 72 44 42 43 45 78 94 106 114 121 132 144 160 174 182 184 181 179 177 176 176 175 170 159 159 159 162 165 166 168 169 173 174 173 172 165 160 154 152 152 152 157 161 162 162 160 156 156 156 157 159 161 162 161 154 145 140 136 130 124 119 113 108 105 101 90 79 63 62 63 64 64 65 66 67 68 69 69 69 69 68 68 69 72 75 77 78 78 77 77 77 77 77 77 77 78 79 80 83 87 91 95 100 106 110 118 119 123 125 128 131 136 139 143 144 144 145 146 146 146 146 144 140 138 135 131 126 119 114 108 105 100 97 95 93 90 87 85 83 82 80 78 76 72 70 
4 5 5 6 10 16 24 29 39 41 47 53 61 70 82 89 99 105 111 117 123 128 134 140 145 149 152 155 159 160 161 161 161 160 156 152 148 142 137 131 126 121 113 109 103 96 83 73 61 60 57 53 50 47 47 47 49 53 64 73 86 97 106 112 122 129 131 131 131 131 131 132 133 135 137 139 143 148 153 157 158 159 158 156 153 150 151 152 154 154 154 153 150 149 148 148 150 155 155 148 145 140 137 130 126 120 115 112 110 108 110 114 117 121 122 126 128 133 136 136 133 130 125 122 126 132 134 139 143 151 157 155 152 146 139 132 125 120 117 119 120 124 124 127 124 118 117 117 118 129 142 154 155 158 158 157 157 156 156 155 153 153 153 152 151 151 154 161 167 170 171 173 174 173 170 169 169 165 159 163 165 165 165 169 171 170 170 160 152 142 142 150 151 158 159 159 159 158 157 154 145 143 139 139 148 163 168 172 175 175 175 175 170 157 147 142 142 142 153 168 170 170 168 162 162 163 169 176 176 174 152 129 125 125 132 147 154 159 159 156 151 150 150 150 150 158 158 153 153 150 140 130 115 109 104 84 59 43 42 43 61 82 93 101 103 111 121 139 161 176 177 177 176 176 176 176 177 173 169 161 159 159 163 164 166 169 173 175 174 173 168 160 154 152 152 152 161 164 165 166 165 160 157 157 159 159 163 165 165 161 154 145 140 136 134 126 124 120 119 118 115 101 90 74 68 68 66 66 67 67 68 69 69 69 69 69 69 70 72 75 77 78 78 77 77 77 77 77 77 78 79 80 81 84 88 92 95 101 106 110 118 121 124 126 129 134 138 141 144 144 145 146 146 147 147 147 146 142 139 136 132 126 119 115 109 106 102 98 96 93 89 86 84 82 80 78 76 73 69 66 
4 5 5 6 9 16 23 29 39 41 46 53 61 70 82 89 101 106 114 120 125 132 138 142 147 155 158 160 163 164 164 164 163 161 158 156 150 146 139 133 128 121 113 110 105 97 85 74 68 61 59 58 55 52 51 55 62 73 86 97 106 118 124 130 131 132 132 132 131 131 131 134 135 138 142 148 153 158 162 164 164 165 160 159 155 153 151 152 153 154 153 151 150 146 145 144 144 146 146 143 140 138 131 127 126 121 119 112 108 105 106 108 110 115 119 126 130 139 140 141 142 142 144 140 137 137 137 141 143 148 151 149 147 145 144 137 132 127 122 120 122 124 128 129 129 124 117 115 109 109 115 127 141 151 155 156 156 156 156 155 153 153 153 151 151 150 151 159 167 167 169 171 173 173 170 169 169 169 167 167 167 169 169 173 175 173 173 171 170 155 151 150 150 155 159 159 159 159 158 157 153 144 135 131 127 146 164 172 175 175 176 178 176 170 157 142 141 139 142 155 168 170 168 162 159 159 163 169 174 173 166 138 129 124 125 132 149 156 163 165 165 151 150 146 146 151 153 153 154 153 153 145 131 113 106 85 63 44 43 43 52 71 80 82 88 93 103 111 139 163 174 174 174 174 173 173 175 178 173 168 160 159 159 162 166 169 175 175 175 173 168 163 154 152 152 152 161 165 166 166 166 163 160 159 159 161 165 167 168 167 160 151 144 140 138 136 129 126 126 128 128 125 115 98 80 72 69 67 68 68 69 70 70 70 70 69 70 71 72 75 77 78 78 77 77 77 77 77 78 79 80 81 83 84 88 92 96 101 106 111 119 122 125 127 131 135 139 143 144 145 146 147 147 148 148 148 148 144 140 136 132 126 119 115 110 107 103 100 96 93 89 86 83 81 79 77 74 71 68 65 
3 4 5 6 9 15 22 27 37 40 45 52 61 70 82 92 101 108 117 123 129 134 140 145 151 157 159 163 165 167 166 165 164 162 158 156 150 145 139 134 129 121 113 110 103 97 87 83 73 68 61 60 58 58 62 70 76 87 99 109 118 122 124 130 131 132 132 132 132 131 133 135 137 142 149 154 160 162 163 164 164 165 162 159 155 153 152 152 152 153 153 153 151 149 144 142 141 136 133 133 130 125 124 124 123 121 120 112 111 110 110 110 114 115 117 126 130 139 140 142 145 146 148 148 145 148 148 148 148 149 149 148 146 145 144 136 132 128 124 122 122 124 128 129 129 124 117 115 109 107 104 104 112 129 141 151 154 154 155 154 152 154 154 152 151 150 151 154 160 167 168 170 171 171 170 170 169 167 165 169 169 171 173 176 178 178 176 173 171 170 169 152 150 150 155 157 161 162 162 162 159 155 132 127 121 127 138 163 174 175 176 178 176 175 170 157 153 139 139 151 160 169 168 162 162 159 157 163 166 168 166 156 137 124 121 123 132 149 165 167 168 168 151 146 141 141 151 153 154 154 154 154 153 131 113 104 79 60 56 43 43 53 71 78 80 82 82 90 109 137 163 170 170 170 170 170 173 173 173 173 167 159 159 159 164 168 175 176 176 175 169 165 157 152 152 152 160 165 166 166 166 163 161 160 160 162 166 171 171 171 167 159 150 144 140 139 137 136 136 137 142 142 132 120 101 83 75 70 69 70 70 70 71 71 70 70 70 72 73 76 77 78 78 78 77 77 77 77 78 79 81 82 84 86 90 93 96 101 107 111 120 124 125 129 132 137 141 144 144 146 147 147 149 149 149 148 148 146 141 137 132 126 119 115 112 109 105 101 98 95 90 86 83 81 78 76 73 69 66 65 
3 4 4 6 9 15 22 27 36 40 45 52 61 70 85 93 102 109 118 124 129 134 141 145 153 157 160 163 165 167 166 165 164 161 156 151 148 142 137 131 126 117 113 110 102 95 89 87 83 74 68 69 69 70 76 87 96 105 109 112 119 122 124 130 131 131 131 131 131 131 133 136 143 150 155 161 162 163 163 164 164 165 162 156 151 151 151 151 152 153 153 154 153 151 146 141 138 133 129 126 123 119 115 107 111 112 113 113 113 114 114 115 115 115 116 117 124 133 140 142 145 146 150 151 152 152 151 150 149 149 149 147 145 144 137 135 132 128 126 124 116 122 124 128 124 119 117 115 112 109 104 99 104 109 113 134 137 137 140 140 141 148 152 152 152 151 151 152 157 161 168 170 171 171 170 169 169 163 162 167 169 171 175 178 179 180 178 175 172 171 170 166 165 151 151 155 162 163 167 168 168 168 153 127 118 112 118 137 157 163 174 176 174 174 170 163 157 155 142 142 155 162 163 162 162 157 156 156 160 165 166 161 148 129 119 118 119 132 149 165 174 174 168 151 145 138 138 146 153 154 157 161 161 153 131 108 90 78 60 53 42 42 53 69 75 78 79 81 87 106 136 163 168 168 166 166 169 172 173 173 172 165 160 159 161 168 176 176 176 175 170 168 158 153 151 151 157 164 165 166 165 163 160 159 160 161 165 171 171 173 173 167 158 147 142 140 140 140 142 146 150 154 148 144 125 101 85 75 71 71 71 71 72 73 72 72 72 73 75 77 78 78 78 78 77 77 77 77 78 80 81 84 86 87 90 93 96 101 107 111 120 124 125 130 134 139 142 144 145 147 148 149 150 150 150 149 148 146 141 137 133 127 120 115 113 109 106 102 99 96 91 87 83 81 78 75 72 68 65 64 
2 4 4 6 9 15 22 27 36 40 45 52 60 70 85 93 102 109 118 124 129 134 140 145 149 156 159 162 165 166 165 162 160 154 151 148 144 139 135 129 121 115 110 105 99 89 88 87 87 87 89 91 91 91 96 102 109 109 110 114 119 121 122 122 123 124 126 129 130 131 137 143 150 155 158 161 162 163 163 162 161 161 156 149 147 148 149 150 151 153 153 154 154 154 151 141 136 132 129 126 123 119 110 101 101 101 106 108 112 114 116 119 123 123 117 117 124 126 133 140 142 146 150 151 153 156 156 151 151 149 145 142 140 139 137 134 131 126 124 122 118 119 120 121 120 119 119 118 116 113 113 104 99 99 109 112 122 122 122 122 122 139 147 151 153 151 151 150 153 159 163 167 169 170 169 169 163 158 156 160 167 169 171 178 180 180 180 175 172 171 170 169 166 159 151 151 152 158 167 168 169 172 169 152 127 118 124 131 137 138 154 157 158 161 161 161 157 152 142 142 151 157 162 162 159 156 155 154 155 161 165 163 161 145 124 118 115 118 132 149 167 174 176 176 165 141 134 134 141 153 157 163 164 163 153 125 102 85 77 58 52 36 41 52 65 70 76 78 79 84 106 136 160 160 160 160 163 163 168 172 172 169 167 161 161 164 168 175 173 170 168 166 158 151 150 150 154 161 163 163 163 161 159 158 159 161 163 170 171 173 175 172 165 158 147 143 143 143 145 148 155 160 163 161 145 125 101 85 75 71 72 72 73 75 75 74 74 75 76 78 78 79 79 79 78 77 77 78 79 81 83 85 86 88 90 94 97 102 108 112 120 124 126 130 135 139 143 145 147 148 149 150 150 151 150 150 148 146 142 137 133 127 121 116 113 110 107 104 101 97 92 89 84 82 81 77 72 68 66 64 
2 4 4 6 9 15 22 27 35 39 46 52 60 70 84 93 102 109 117 123 126 131 136 141 145 151 155 157 161 161 160 154 153 151 147 144 139 135 129 121 117 111 107 100 90 89 88 88 89 91 99 104 107 107 107 109 110 111 112 115 118 119 120 121 121 122 125 129 132 140 146 148 150 155 157 161 162 162 162 161 161 159 151 144 142 143 146 148 149 151 152 153 154 154 151 146 138 133 130 129 123 119 110 101 97 97 98 106 111 119 123 124 124 124 123 123 126 126 131 136 140 145 149 150 151 156 157 157 157 154 151 146 141 140 137 132 126 122 117 114 111 109 118 119 118 117 117 117 117 116 115 112 104 99 99 102 112 112 114 115 114 121 137 147 150 150 152 150 152 153 159 164 168 169 169 169 163 156 153 153 155 165 171 177 180 180 180 177 175 172 170 169 166 160 151 147 147 151 158 168 169 175 173 168 153 133 131 133 136 137 138 138 138 151 152 155 155 151 141 141 142 154 158 159 159 156 154 153 153 155 156 157 157 154 145 121 115 110 116 123 145 167 169 180 176 165 140 134 133 134 144 161 166 166 160 151 120 100 86 82 58 52 41 41 44 53 70 75 76 77 81 109 145 156 156 158 158 158 163 166 168 169 169 165 165 166 166 167 168 168 167 165 158 152 150 150 150 157 160 161 160 157 156 154 153 159 161 168 173 176 177 177 172 165 153 147 145 145 147 153 158 163 166 169 165 146 125 105 85 76 75 75 75 76 76 75 76 76 77 78 79 79 79 79 79 78 78 79 81 82 84 86 87 89 93 96 99 103 108 113 120 122 126 130 136 140 143 145 147 148 149 150 151 152 151 150 148 146 142 138 134 128 122 117 113 111 107 104 101 98 93 90 87 84 81 78 74 71 66 65 
2 4 4 6 9 15 22 27 35 39 46 52 60 69 81 88 97 106 112 119 125 130 134 137 141 145 149 152 153 153 153 151 147 144 141 139 135 129 121 117 111 107 100 93 88 87 88 89 93 100 103 106 107 108 110 111 112 114 115 117 118 118 118 119 119 121 124 131 140 146 148 149 151 154 157 160 161 161 161 161 160 153 146 142 139 139 139 143 147 149 151 152 154 152 150 147 143 139 137 134 133 133 122 111 97 97 98 108 119 127 128 129 130 130 131 133 134 133 134 136 140 141 145 145 149 150 150 150 151 151 151 149 145 141 135 131 126 118 111 108 107 107 117 118 117 113 114 114 115 115 115 112 107 99 91 91 93 102 102 102 102 102 114 125 139 148 150 150 150 149 152 157 166 169 169 168 162 154 144 140 140 152 161 173 178 180 180 179 176 175 171 169 166 159 151 147 143 143 151 157 167 172 173 173 173 163 144 138 138 137 132 131 129 132 139 141 141 141 141 139 142 147 154 157 158 156 154 151 151 153 153 154 154 154 148 145 121 113 110 110 116 145 165 169 175 168 165 141 133 127 136 144 160 164 163 156 149 120 100 90 83 63 52 41 34 41 51 63 67 70 75 81 112 140 148 150 152 153 153 159 165 165 168 166 165 166 166 166 168 168 166 165 163 157 150 150 150 150 157 157 157 155 154 152 151 153 159 164 171 176 177 177 175 170 162 152 150 147 150 153 158 166 172 177 177 165 147 125 106 85 80 77 76 76 76 75 76 76 77 78 79 79 79 79 79 79 79 81 82 84 86 87 88 91 94 97 102 105 110 115 120 123 126 132 137 141 144 145 148 149 150 151 151 152 152 151 148 145 142 138 134 129 122 117 114 111 107 105 102 98 95 92 90 87 84 81 77 72 68 66 
3 4 4 5 8 13 21 25 32 39 46 52 58 65 77 85 96 102 109 116 121 126 130 131 136 138 141 143 144 144 144 144 141 139 135 131 127 122 117 113 109 104 95 87 84 86 88 93 98 101 104 106 108 110 111 113 115 116 118 118 118 118 118 119 121 124 131 140 146 147 148 150 151 153 155 157 160 160 161 160 159 153 143 139 138 138 139 139 142 145 150 150 152 152 150 148 146 140 139 137 137 137 137 137 132 115 115 115 123 128 130 130 134 136 138 142 143 142 139 141 141 141 141 141 139 135 144 144 144 144 144 142 142 141 139 134 126 118 115 111 111 118 120 121 118 117 114 113 113 114 114 112 111 99 89 84 84 90 93 95 94 94 95 106 121 137 146 148 148 148 148 151 153 165 166 165 161 153 140 137 132 129 145 159 171 176 177 177 175 175 171 167 165 158 152 147 142 142 142 144 156 158 163 171 173 173 171 163 144 138 131 127 125 124 125 132 134 132 134 137 141 142 147 155 156 155 153 150 150 150 151 151 153 153 148 145 140 121 113 106 110 116 143 165 169 165 165 161 144 133 132 135 138 151 156 156 151 141 120 102 95 83 58 52 34 33 34 39 51 53 66 75 88 122 140 145 146 146 146 152 153 156 165 166 166 168 166 166 166 166 165 165 163 157 150 150 148 149 152 155 154 153 152 149 149 149 153 159 165 171 175 175 173 169 165 156 152 151 151 153 156 163 170 177 178 174 163 147 125 105 84 81 77 76 75 75 76 76 77 79 79 79 81 81 82 82 82 82 84 86 87 88 91 93 96 99 103 107 112 117 121 125 129 134 139 142 144 145 148 149 150 151 151 152 152 151 148 145 142 138 134 129 123 119 115 112 110 106 104 101 97 95 93 90 87 84 81 77 71 68 
3 4 4 4 6 11 16 22 27 37 43 49 56 64 75 83 91 98 106 112 116 121 125 127 131 131 132 134 135 136 136 136 133 131 128 125 121 118 115 110 107 100 89 83 83 84 89 94 99 100 102 103 107 110 113 115 121 121 118 118 118 118 118 121 124 130 134 142 146 148 149 151 153 153 154 156 157 159 160 159 156 153 146 140 139 139 139 139 142 145 147 148 150 151 150 149 148 146 142 140 139 140 140 140 144 140 137 137 131 130 130 130 138 143 144 145 148 149 149 146 145 142 142 140 136 129 128 128 128 130 138 138 139 140 139 135 130 119 115 115 115 119 123 123 120 118 115 113 111 111 111 107 104 93 84 80 79 80 82 87 88 88 87 94 100 111 129 144 146 146 145 145 146 153 159 161 157 153 144 132 127 125 126 134 154 161 173 174 174 174 173 167 165 159 152 147 142 139 136 139 142 143 156 158 163 171 173 171 165 150 139 125 123 117 117 123 124 128 132 133 134 141 142 146 149 149 149 149 149 147 146 146 147 146 146 145 141 140 121 110 106 107 112 138 146 161 161 161 147 140 137 136 137 141 151 151 151 149 143 129 114 97 82 58 34 34 34 34 43 48 53 56 68 96 127 137 140 140 140 140 143 143 151 161 166 168 167 167 167 166 164 164 163 159 152 150 147 146 148 154 153 152 149 148 148 148 149 152 159 167 170 172 170 167 163 160 156 153 153 154 158 161 169 176 177 175 172 163 145 125 103 84 78 76 75 75 76 76 77 79 79 79 81 81 82 82 83 83 86 87 89 91 93 94 97 100 104 110 115 119 123 126 131 134 139 143 145 145 148 149 150 151 151 152 152 151 148 145 142 138 135 130 123 119 117 114 111 108 105 102 99 97 95 93 90 88 84 79 75 72 
3 4 4 4 5 9 15 20 26 35 40 47 55 64 75 82 88 96 102 109 112 116 120 123 126 127 128 129 130 131 131 131 128 126 125 121 118 115 111 110 104 95 90 86 84 89 94 99 101 101 101 101 106 110 115 116 121 121 118 118 116 116 118 121 126 131 139 146 146 148 152 153 153 153 154 155 156 156 158 156 155 150 146 142 140 140 139 139 143 145 148 148 149 150 151 152 150 149 146 144 144 148 148 149 148 146 137 140 142 142 146 146 146 149 150 151 151 152 156 161 151 146 144 140 135 129 128 126 125 117 113 113 130 135 135 134 130 121 115 109 109 112 117 120 117 115 113 111 107 107 107 98 93 84 80 79 74 74 78 79 84 85 84 84 85 92 102 123 143 143 142 142 142 142 152 156 156 154 147 139 126 117 116 123 134 155 158 159 171 174 173 166 166 164 156 151 139 131 126 122 124 128 128 142 158 163 171 171 171 165 152 139 124 117 116 111 111 120 124 129 132 132 134 134 131 140 142 144 145 144 144 144 139 139 139 141 140 136 136 121 110 106 106 107 124 139 144 147 154 148 147 148 142 141 143 148 151 151 151 143 129 116 97 73 53 36 34 36 38 43 48 52 56 84 111 127 132 136 136 135 134 134 136 143 165 168 168 168 170 167 164 164 163 159 155 150 146 142 142 144 149 149 148 147 146 146 146 149 152 160 166 167 167 166 161 161 159 156 156 157 159 160 164 172 175 174 172 168 160 145 124 103 87 78 75 75 76 76 77 78 79 81 81 81 82 83 83 84 87 89 92 93 93 95 98 102 106 111 117 121 125 128 131 136 140 143 145 147 148 150 151 151 151 151 151 151 148 146 142 139 135 130 124 121 118 115 112 110 107 104 101 99 97 95 93 90 85 81 77 74 
4 4 4 4 5 6 12 18 22 31 37 43 50 59 70 80 84 91 97 103 109 112 115 119 120 121 122 124 125 126 126 126 125 122 121 118 115 111 110 107 103 99 93 90 89 94 103 104 104 103 102 101 104 107 113 115 121 121 118 112 114 116 118 121 128 132 140 146 147 151 153 153 153 153 155 156 156 156 156 156 155 149 147 144 143 141 140 140 141 144 146 148 148 151 153 154 155 156 156 150 149 149 150 150 150 150 148 142 142 142 152 152 152 152 152 152 153 155 160 163 164 163 153 144 138 134 129 126 125 117 113 113 124 131 134 134 126 121 115 109 109 109 111 114 113 113 111 106 100 96 95 87 84 80 74 71 71 71 71 78 79 79 79 79 79 79 83 94 110 129 132 132 132 132 134 142 153 153 147 146 132 116 109 108 116 134 151 155 158 158 166 165 165 164 158 154 145 129 115 114 103 101 101 104 128 146 158 165 171 171 165 159 140 124 117 111 108 108 111 116 123 126 126 123 123 126 129 138 139 139 138 138 132 124 124 124 129 129 136 125 118 110 104 102 102 107 130 140 147 148 148 148 146 142 142 142 143 149 154 151 149 137 116 93 67 40 37 37 38 42 43 48 53 67 96 118 124 129 132 129 127 125 127 128 143 166 168 171 172 170 166 166 162 160 155 150 142 138 136 136 143 148 146 144 144 144 144 146 149 152 160 164 164 161 161 160 159 160 160 159 160 160 161 169 172 172 172 168 163 156 140 120 102 87 78 76 76 77 77 79 79 81 82 83 83 84 84 86 89 92 93 93 94 95 99 102 106 112 119 123 126 130 133 136 141 144 145 148 149 150 151 151 151 151 151 151 149 146 143 141 137 132 125 121 119 116 114 111 108 106 103 101 99 97 95 93 89 83 81 79 
4 4 3 3 4 6 10 16 21 27 36 43 48 56 67 76 83 88 94 98 103 107 111 113 115 119 120 121 121 121 121 120 120 118 116 113 111 110 107 103 102 101 99 95 100 106 111 111 109 107 107 107 107 107 108 113 113 112 107 107 112 114 119 123 130 133 141 146 151 153 153 154 154 155 156 156 156 156 156 156 153 150 148 146 143 143 141 141 141 141 145 148 149 152 154 156 157 158 158 158 158 155 155 154 152 152 152 142 142 142 152 152 152 152 152 152 153 155 160 163 164 163 160 152 144 140 138 135 134 117 113 113 122 124 124 124 122 117 113 104 100 100 104 107 111 108 107 105 96 89 86 82 79 78 74 69 69 66 70 73 74 75 72 62 62 62 63 76 84 101 120 120 120 116 116 116 136 146 146 146 139 123 109 107 107 110 134 140 151 151 152 158 162 162 158 154 147 131 115 106 98 92 82 82 92 104 123 146 158 161 159 150 149 141 124 111 108 108 108 109 109 114 110 110 113 113 113 117 129 130 130 123 121 121 116 112 119 122 129 127 125 118 107 99 96 98 102 124 139 142 146 148 146 142 141 140 140 141 151 154 157 150 137 111 82 57 38 38 38 42 43 45 52 60 84 109 121 123 127 125 124 122 116 115 128 156 167 171 173 171 167 166 162 159 155 149 144 136 135 135 136 144 144 143 143 143 143 144 145 149 150 158 158 159 159 159 159 159 160 160 160 160 161 165 168 170 169 167 162 157 149 134 117 101 87 82 78 77 78 79 79 81 82 83 84 86 86 89 92 93 93 94 94 97 100 103 107 113 121 125 128 133 134 138 141 144 147 148 151 151 151 151 151 151 151 151 151 147 144 142 138 133 127 122 121 118 115 112 110 108 104 102 101 99 97 93 89 84 81 78 
3 3 2 2 3 5 8 13 20 27 34 40 45 53 63 71 80 84 91 94 98 102 105 107 111 113 114 114 114 113 113 111 111 110 109 108 107 107 103 101 100 100 100 102 107 109 112 113 113 112 111 109 108 108 108 108 106 105 107 107 112 114 123 128 132 137 143 150 153 154 155 155 157 157 157 157 156 156 156 155 153 150 149 147 145 143 143 143 142 143 144 147 148 151 154 157 158 159 160 160 160 162 163 164 162 154 152 142 140 134 134 140 152 152 152 152 152 154 155 160 160 160 160 156 153 146 140 138 136 135 127 117 117 121 122 124 122 118 114 104 95 95 96 104 106 107 106 100 93 87 84 82 80 79 76 71 71 70 71 72 73 72 61 59 59 59 59 62 67 76 97 101 108 107 102 102 107 121 141 141 134 129 113 108 101 103 108 132 136 137 139 146 152 156 156 153 147 143 115 103 95 86 72 69 69 73 92 106 130 141 145 145 145 141 125 117 115 115 114 109 109 114 110 110 110 110 109 110 111 116 121 116 110 109 109 105 110 113 122 125 125 122 111 102 98 98 99 107 124 134 142 148 146 142 142 140 139 139 143 154 159 156 154 137 94 67 51 44 42 42 42 44 47 56 80 98 117 121 123 123 123 117 112 112 112 137 161 171 173 173 173 167 161 158 155 149 148 136 130 132 134 139 142 142 142 143 142 143 143 145 148 150 154 156 158 158 158 159 160 160 160 160 161 162 165 166 167 164 161 157 152 146 134 116 100 88 84 81 79 79 81 82 83 86 86 87 92 94 94 94 94 94 96 97 100 104 108 115 122 126 129 133 135 139 142 146 148 151 152 152 152 152 152 152 152 152 151 148 146 143 139 134 128 124 121 118 115 112 111 108 105 103 102 100 98 94 89 84 80 78 
1 2 2 2 3 3 6 10 17 22 30 37 44 51 60 67 76 80 86 91 94 97 99 101 104 105 106 106 106 106 106 104 104 103 101 99 98 98 98 98 98 99 100 102 107 109 112 113 113 113 113 112 112 111 108 108 106 105 107 108 114 123 128 133 137 141 147 151 154 156 157 158 158 158 158 157 156 156 156 154 151 150 149 146 145 144 142 141 140 139 140 142 144 149 152 155 157 159 160 161 162 162 163 164 164 164 162 142 140 134 134 137 140 144 152 152 152 152 154 154 152 154 156 155 153 153 145 140 139 138 134 131 124 124 124 124 122 118 115 105 95 95 96 104 105 107 105 100 93 86 82 81 81 82 82 79 73 72 71 72 72 68 59 57 54 54 54 54 59 62 72 80 92 88 84 84 87 92 118 129 129 124 121 111 107 101 101 103 108 119 127 135 139 145 146 146 144 141 132 115 97 81 69 65 58 58 71 81 105 115 123 137 137 137 125 117 116 116 116 114 114 114 110 110 110 110 110 110 111 116 116 116 110 107 105 102 102 105 111 118 119 112 111 104 102 99 99 107 117 122 134 142 143 142 141 140 139 132 140 149 157 157 157 154 130 94 68 57 44 39 39 38 38 48 73 92 108 117 121 122 122 117 112 109 109 120 148 171 173 176 176 173 162 157 154 149 148 139 134 132 132 134 139 141 141 142 141 141 143 144 145 147 150 152 154 156 157 157 159 159 160 160 160 161 162 164 163 162 159 155 151 147 142 128 110 100 92 87 84 84 84 85 86 89 94 95 95 95 96 96 96 96 98 98 102 105 109 116 123 128 131 134 136 140 144 147 150 152 153 153 154 154 154 154 153 152 152 149 147 143 140 136 130 126 121 118 115 113 111 109 106 103 102 101 98 94 89 84 80 78 
1 2 2 2 3 3 5 8 15 20 27 34 42 49 56 63 70 76 81 86 91 93 94 97 99 101 104 104 104 104 103 103 101 99 95 94 91 91 94 97 98 101 102 103 107 109 110 113 113 113 113 113 112 112 111 108 106 108 115 121 130 136 137 137 143 147 151 156 157 161 161 161 160 159 158 157 156 155 154 151 150 149 148 146 145 142 140 138 137 136 137 138 140 144 149 153 156 158 158 159 160 161 163 164 164 164 162 154 148 142 137 133 133 139 142 143 145 145 145 145 145 145 146 146 146 146 145 140 139 138 134 131 127 127 127 126 126 125 118 117 115 105 104 105 108 111 108 108 94 88 83 83 83 83 84 84 80 76 73 72 71 67 59 54 52 46 46 46 49 53 59 64 73 80 77 77 77 77 87 109 118 119 112 110 104 100 95 95 94 92 104 118 127 132 140 140 140 133 132 115 112 89 68 58 55 54 57 69 81 103 105 115 117 117 117 116 116 116 116 114 102 110 110 110 111 111 111 111 111 116 116 116 116 110 106 104 102 96 96 102 111 111 104 104 102 99 102 106 117 119 128 134 139 140 140 140 136 132 132 137 154 156 157 156 148 126 94 82 59 45 39 31 31 32 59 81 98 111 117 117 117 117 111 108 108 114 129 161 173 175 177 174 172 162 155 150 148 144 138 134 132 132 133 135 140 140 140 140 141 141 142 144 147 148 150 152 153 153 154 158 159 160 160 160 161 162 161 159 156 152 149 146 143 136 123 110 100 94 88 86 86 87 88 92 94 97 102 103 102 99 98 98 98 100 103 106 110 116 123 128 132 134 136 141 145 148 151 153 154 155 156 157 157 156 155 154 152 151 147 143 140 136 130 127 120 118 115 113 112 110 107 104 102 101 98 95 89 84 81 79 
1 3 2 3 3 4 5 7 14 17 23 30 38 44 51 59 65 71 77 82 86 89 91 93 96 97 99 100 102 102 100 99 95 94 91 90 90 90 91 97 98 102 102 105 107 108 109 110 113 113 114 114 115 115 115 115 116 121 130 137 140 144 146 147 150 155 157 162 162 162 162 162 160 159 158 155 153 150 150 149 149 149 146 145 141 139 137 137 137 136 137 138 139 141 144 148 152 155 157 158 158 159 159 159 162 162 159 153 151 146 142 137 132 132 132 140 142 143 143 143 143 143 143 142 145 145 142 139 135 131 125 122 122 125 127 130 130 130 130 125 122 122 117 116 120 117 116 114 108 93 88 86 85 85 85 85 83 79 78 75 73 71 61 58 47 41 38 38 38 41 49 53 62 69 72 72 72 72 72 77 92 109 110 109 104 101 95 94 89 82 83 92 102 118 120 128 130 132 123 115 113 106 87 67 55 47 47 55 69 79 82 96 100 95 91 91 91 105 105 105 102 102 109 110 110 111 111 111 119 119 120 120 118 116 116 106 102 96 96 89 89 98 99 99 102 99 102 106 112 119 128 132 134 134 138 137 132 129 128 128 144 154 155 155 150 145 126 101 82 62 42 31 22 31 51 73 85 100 111 114 114 117 114 108 108 112 114 144 165 175 177 177 175 167 158 155 150 148 144 134 133 132 132 132 133 133 134 135 140 140 140 142 143 145 145 146 146 147 152 153 157 159 160 160 161 161 159 157 154 150 147 145 143 138 131 121 110 101 95 88 87 87 89 92 95 98 103 103 104 103 99 99 100 100 103 106 110 116 123 128 132 134 136 141 145 148 151 153 155 156 157 158 158 157 156 155 153 151 147 143 140 136 130 127 120 118 115 113 112 110 107 105 102 100 98 95 90 86 82 80 
2 3 3 3 4 4 5 7 12 16 20 25 34 39 47 53 59 65 71 77 82 85 86 89 90 93 94 96 97 97 95 94 91 90 89 89 90 90 91 97 102 102 103 107 107 108 109 110 113 114 116 116 116 117 117 120 127 133 139 142 144 147 148 152 155 158 161 162 162 162 162 161 159 157 154 152 148 144 143 142 142 139 137 139 139 137 137 139 138 138 139 139 139 139 140 143 147 148 152 152 152 149 152 155 155 156 156 153 153 149 144 139 132 130 130 130 136 141 141 136 136 136 136 136 134 130 125 123 121 119 118 117 118 120 126 130 130 130 130 125 122 122 117 114 117 117 117 119 112 111 94 88 87 87 86 84 82 79 78 77 74 71 65 61 58 41 38 36 36 36 36 41 51 59 64 67 68 71 71 74 77 82 96 100 101 101 98 93 86 78 73 70 76 92 98 100 100 114 119 114 113 107 94 72 65 51 40 41 51 65 73 79 82 78 76 75 73 69 73 90 96 97 102 109 110 111 111 111 119 119 120 120 120 121 123 123 123 111 96 89 89 91 91 95 95 96 102 105 112 119 126 131 133 134 135 136 131 116 117 127 128 150 153 152 150 146 131 123 104 82 62 31 22 25 32 53 73 88 103 108 111 114 114 108 108 108 107 118 161 176 179 179 179 175 167 158 153 150 144 138 134 130 129 123 121 121 122 123 131 132 133 133 135 135 135 136 136 139 146 148 153 159 160 160 160 159 159 154 150 147 144 143 140 137 134 123 119 110 101 95 89 89 89 89 92 97 103 104 105 105 104 100 100 103 106 107 110 116 123 128 132 134 136 141 145 148 150 154 155 156 157 158 158 157 156 155 152 151 146 141 138 134 130 127 120 118 115 113 112 110 107 105 102 100 98 95 90 86 83 82 
2 4 3 4 4 4 5 7 11 15 17 23 30 35 43 47 53 59 64 70 75 78 82 85 86 87 90 90 90 90 87 87 87 87 89 90 92 97 104 108 111 110 110 109 109 110 110 113 117 117 117 117 117 120 127 133 138 140 142 144 146 148 149 152 155 158 161 162 162 162 159 157 154 153 149 146 144 141 138 138 137 137 137 139 139 139 137 138 137 137 137 137 137 137 138 141 146 147 147 147 147 147 147 147 147 149 153 152 151 148 146 142 132 125 123 123 123 126 131 131 133 133 134 134 129 125 123 118 114 111 111 113 114 115 121 125 126 126 126 125 122 122 117 114 114 114 114 114 111 108 97 93 88 88 86 84 80 78 77 76 74 74 71 68 61 55 42 39 36 33 34 36 37 50 59 59 63 64 64 66 68 71 78 89 95 100 100 93 83 73 68 65 65 69 70 75 80 84 100 109 107 100 93 82 69 54 40 39 40 51 63 68 73 69 63 61 52 52 52 53 54 58 62 78 87 88 90 102 119 119 120 120 120 121 123 123 123 121 111 106 98 95 91 91 89 89 91 99 109 118 126 129 130 131 131 131 124 112 112 112 113 140 148 148 148 146 137 126 122 104 82 42 30 30 31 49 59 73 92 100 105 111 114 108 108 102 101 102 137 165 179 179 179 175 170 167 162 157 150 144 134 130 123 115 113 111 111 111 118 122 123 125 127 126 126 126 127 129 136 139 148 153 159 159 159 159 157 152 146 141 139 138 137 136 132 129 119 115 106 98 93 90 89 89 90 91 97 104 105 105 105 105 103 105 106 107 110 116 123 128 132 135 136 141 145 148 149 153 155 156 156 158 158 156 155 153 151 149 145 141 137 134 130 127 120 117 115 113 111 109 107 104 101 100 98 95 90 86 85 83 
1 3 4 4 4 4 6 8 11 14 16 20 25 32 37 43 47 53 58 63 68 72 74 75 75 78 81 81 81 82 83 86 87 87 91 97 104 110 118 120 119 118 114 114 114 115 120 124 126 126 127 128 131 135 138 141 141 142 143 144 147 148 149 152 155 157 159 159 159 156 154 154 152 149 146 146 144 141 138 138 137 137 137 139 139 141 139 139 137 137 137 137 137 137 138 138 142 146 146 147 147 146 144 144 144 145 146 147 146 146 142 138 132 125 123 121 121 118 118 119 129 130 130 128 125 123 121 118 111 106 103 103 101 106 108 109 109 109 109 108 100 98 98 100 102 104 108 108 108 102 97 93 88 86 83 81 78 77 77 77 74 75 75 71 68 61 49 43 39 36 34 36 37 41 48 56 61 61 63 63 64 64 64 67 78 90 93 90 83 70 65 62 60 60 63 62 65 72 81 93 94 93 91 83 75 67 41 38 37 38 50 63 63 63 54 47 44 42 40 37 37 39 41 42 43 54 62 63 73 91 101 102 112 119 123 123 123 121 121 111 110 106 91 89 80 77 75 75 99 109 119 128 128 128 128 124 114 108 95 93 104 128 141 142 146 144 137 135 129 122 104 62 40 40 45 51 53 63 71 92 99 106 119 108 108 102 96 95 107 142 175 177 177 175 172 167 165 164 158 151 144 126 119 113 111 107 107 107 107 111 115 119 119 119 119 119 119 118 126 129 138 148 156 160 160 159 155 149 140 137 133 135 135 134 132 129 119 115 110 103 96 93 90 90 90 90 92 97 105 105 105 105 105 106 107 109 113 120 126 129 133 135 139 142 145 148 149 152 155 155 156 156 155 153 152 151 151 147 143 140 136 132 127 123 118 115 113 112 111 108 106 102 100 100 98 93 88 85 83 83 
1 3 4 4 4 5 7 8 11 14 17 20 23 30 35 39 46 49 55 59 63 63 68 68 71 74 76 78 80 81 82 84 87 92 100 108 116 120 122 122 121 119 118 118 118 120 124 126 130 134 137 139 141 141 142 143 143 143 144 144 147 147 148 149 149 149 152 154 154 152 152 152 151 149 146 146 144 141 138 138 140 141 142 142 144 144 142 140 139 137 137 137 137 136 137 137 139 142 144 144 145 144 143 140 139 138 137 138 142 142 136 132 130 124 122 118 115 113 113 113 115 117 123 123 123 121 118 106 104 99 98 96 94 94 94 94 101 98 96 94 94 93 91 87 84 81 79 79 88 97 96 93 87 79 78 77 73 73 74 74 74 74 74 71 67 65 55 48 43 42 39 37 37 40 42 47 50 54 54 54 43 36 36 36 50 67 80 83 80 68 63 60 57 56 56 55 51 50 65 80 83 86 87 83 78 69 53 37 35 34 40 50 50 50 46 45 40 38 36 33 33 32 33 37 39 39 31 31 31 39 55 60 65 76 90 95 96 98 110 110 118 118 106 102 79 75 65 61 64 92 109 116 123 123 116 112 110 95 91 89 90 104 131 137 138 142 137 137 139 129 119 87 59 48 51 52 53 59 63 71 94 105 121 118 118 103 95 92 92 126 164 175 175 174 172 167 165 165 164 162 151 134 123 112 110 107 106 106 103 100 105 112 117 117 116 116 115 113 113 118 128 137 148 157 157 156 151 144 137 129 129 129 132 131 130 125 119 117 111 105 99 94 92 90 90 90 90 92 98 105 105 105 106 107 107 109 113 120 126 129 133 135 139 142 146 148 150 153 155 155 155 155 153 153 152 151 151 147 143 140 136 132 127 123 118 115 113 111 109 107 105 101 100 98 97 93 87 85 82 82 
2 4 4 4 4 5 7 9 12 16 19 21 24 27 33 38 45 49 53 56 60 63 66 68 70 73 75 77 79 81 82 87 92 100 107 114 119 121 122 122 121 119 119 119 120 123 127 130 134 137 139 141 142 142 142 144 143 143 144 144 147 147 148 148 147 145 145 146 147 150 151 151 151 151 148 148 148 148 149 151 152 152 152 149 145 145 144 140 137 135 132 133 135 135 135 136 137 138 142 143 143 142 140 137 134 133 129 127 133 134 132 127 124 120 114 111 111 109 109 109 108 108 108 114 114 114 110 106 100 95 94 94 86 76 74 70 76 80 80 80 82 82 81 78 77 76 74 70 67 67 70 72 74 74 69 65 66 66 66 69 69 69 66 66 64 61 57 50 48 44 44 43 41 40 40 41 42 42 42 40 34 21 22 31 35 46 61 75 70 65 62 58 55 51 51 50 46 44 46 51 66 81 83 83 78 72 58 38 35 32 34 40 44 45 45 44 40 37 33 30 24 20 20 25 26 26 26 28 28 29 30 30 32 36 40 43 50 63 86 98 106 113 113 106 102 75 61 45 45 61 92 109 112 114 112 108 96 93 84 75 70 84 121 130 136 140 137 137 139 132 126 119 87 65 59 59 63 63 63 63 71 94 106 118 118 106 100 91 90 93 137 165 172 172 165 164 164 165 167 164 162 146 126 114 111 107 106 103 97 95 95 101 111 113 112 111 110 108 102 108 113 124 137 149 151 150 149 144 133 126 124 124 124 126 125 119 118 113 108 104 101 97 93 92 90 90 90 92 95 104 105 105 106 107 107 109 114 120 126 129 133 135 139 143 147 149 151 153 155 155 155 154 153 153 152 151 150 147 143 140 136 132 126 122 116 113 111 109 108 106 102 101 100 98 95 92 87 87 82 82 
3 4 4 4 5 6 8 11 14 17 20 23 26 31 35 41 46 51 54 58 60 63 66 68 70 73 75 77 79 83 88 94 99 104 110 118 119 120 121 121 119 119 119 120 123 127 130 134 137 138 140 141 142 142 142 144 144 144 145 147 147 148 148 148 147 145 145 146 147 150 150 150 150 149 147 149 153 153 153 153 152 152 152 150 149 145 143 137 132 131 129 128 128 132 134 134 135 137 139 142 141 140 139 134 131 127 123 122 122 127 131 131 131 128 122 118 115 113 111 109 108 106 105 102 102 102 102 102 96 91 82 74 73 70 69 68 66 66 68 70 70 71 74 74 71 67 66 65 64 64 63 63 60 59 58 58 58 62 62 62 63 63 63 66 62 58 56 53 49 48 48 44 43 40 37 37 37 36 34 33 25 20 20 24 33 35 46 59 58 58 58 55 51 50 46 46 44 40 39 39 47 63 76 82 80 76 69 52 37 32 32 34 40 44 45 44 40 37 33 23 15 12 11 12 13 15 15 19 20 23 24 27 29 30 34 39 42 43 50 67 87 104 106 109 106 97 64 45 39 45 61 103 108 109 109 98 95 88 76 67 67 67 99 122 136 139 137 137 137 133 130 129 120 87 75 75 66 66 66 66 71 83 102 118 118 106 100 89 88 90 107 150 161 159 159 159 159 163 164 163 162 156 140 126 116 113 107 104 95 93 89 91 100 105 105 105 100 97 96 96 100 108 119 135 149 148 145 144 134 124 120 120 120 120 119 117 112 108 105 103 101 99 97 93 92 90 90 92 92 102 105 105 106 106 107 109 114 120 125 128 132 134 138 143 147 150 152 153 154 155 155 155 154 153 152 152 151 148 143 140 136 131 126 122 115 112 111 109 107 105 101 100 98 97 95 92 89 87 84 85 
4 5 5 5 5 7 10 13 16 20 23 26 29 33 36 42 48 53 56 59 62 63 66 70 72 75 79 82 86 90 95 99 103 107 113 119 119 119 119 118 117 118 119 121 125 130 134 136 137 139 140 141 142 142 142 144 144 145 147 147 148 148 148 148 147 145 145 146 147 150 150 150 150 149 149 153 154 154 154 154 152 152 152 150 149 145 139 132 129 128 127 127 125 125 128 132 133 134 135 137 138 138 134 130 127 122 120 120 119 125 131 132 132 131 130 128 121 118 117 113 109 108 106 102 102 102 102 102 99 91 82 74 73 70 68 64 63 63 62 62 62 61 61 61 61 61 61 61 60 59 59 59 59 56 56 56 52 52 52 58 58 58 58 58 57 56 55 53 49 48 48 47 45 42 40 37 34 32 30 26 23 20 20 24 25 33 37 53 55 55 54 51 47 45 44 40 38 35 34 33 33 38 51 72 80 80 71 59 44 32 32 32 34 40 44 43 40 37 25 17 12 11 11 11 11 12 13 13 15 19 23 24 24 25 26 30 36 39 43 50 67 86 102 104 102 97 84 46 39 37 46 81 99 101 101 97 92 84 75 67 62 62 70 101 134 136 137 137 137 133 132 132 129 120 101 86 86 83 83 79 79 92 101 107 112 107 103 89 85 85 90 127 151 154 154 154 155 156 159 162 157 156 148 131 126 122 114 109 96 89 86 86 90 98 99 98 96 91 91 91 94 98 104 116 134 139 140 138 134 126 120 116 113 110 108 108 108 104 103 102 99 98 97 97 93 92 91 92 92 98 103 105 105 106 106 109 114 119 124 127 131 133 137 142 147 150 152 153 154 155 155 155 154 154 153 152 151 148 144 140 136 131 125 121 113 111 110 108 107 104 100 99 98 97 95 92 90 89 88 89 
5 5 5 5 6 8 12 16 19 24 26 28 32 36 41 46 51 56 59 62 66 67 72 75 79 82 86 90 95 98 99 103 104 107 113 118 119 119 119 118 117 118 120 125 130 133 136 137 138 139 140 141 142 142 142 144 145 146 148 149 151 152 152 152 152 152 152 152 153 153 153 153 153 152 152 154 154 156 156 155 152 152 151 150 149 143 139 129 127 127 127 126 125 125 127 130 131 131 132 134 134 133 131 127 124 120 120 119 119 119 127 131 131 131 131 131 129 121 118 117 117 113 109 102 102 102 102 102 100 95 91 82 74 74 70 68 64 63 60 58 56 54 51 51 51 52 52 54 55 55 56 56 55 54 54 49 44 44 48 52 53 56 57 57 57 57 56 53 50 48 48 45 45 43 42 37 33 30 26 25 23 21 22 25 25 29 35 45 53 53 52 42 41 38 36 36 35 34 31 29 29 32 38 51 71 76 76 71 59 43 32 31 31 36 40 44 43 40 27 18 12 11 10 10 10 9 11 11 13 13 19 20 20 20 20 24 25 35 39 43 54 75 83 87 95 95 87 71 45 37 44 56 92 92 96 95 88 81 75 67 62 58 64 87 121 134 136 136 131 129 130 131 131 129 121 104 89 89 88 86 88 95 106 121 121 118 106 90 85 85 85 103 133 151 151 152 152 152 154 157 157 155 149 140 135 129 123 121 104 87 84 84 84 86 91 90 89 87 87 87 89 91 94 100 115 133 135 135 129 126 120 113 110 106 102 101 100 99 98 99 98 98 97 96 93 91 90 91 92 95 102 104 105 106 106 110 114 119 124 126 131 132 136 141 146 149 151 153 154 155 155 155 155 154 153 153 152 149 144 140 136 131 125 121 113 111 110 108 107 104 101 99 98 97 95 93 91 90 90 92 
5 6 5 6 6 8 13 17 23 26 28 32 36 39 45 49 55 59 62 66 70 74 79 83 87 90 94 97 99 100 101 103 104 107 113 116 118 119 119 119 119 122 127 132 137 141 141 141 139 140 141 142 142 143 146 147 151 151 152 152 153 154 154 156 157 158 158 158 158 157 155 154 154 153 152 154 156 156 156 154 151 150 150 149 148 141 133 128 127 126 126 126 125 125 127 127 127 128 128 128 130 130 130 128 126 122 122 122 122 127 128 128 128 128 128 128 121 121 118 117 109 109 108 102 93 93 92 89 89 91 91 91 89 89 83 76 68 64 58 55 51 51 49 47 47 47 46 46 46 51 54 54 54 51 44 40 39 38 40 43 48 52 53 55 56 57 57 55 53 50 45 43 43 42 42 37 33 30 26 25 23 23 25 26 26 27 34 39 46 50 46 41 36 32 29 34 34 32 24 24 26 29 32 43 59 70 71 74 71 59 44 34 32 34 36 42 43 42 29 23 12 11 11 10 10 9 9 9 10 11 13 16 18 18 18 18 20 30 35 38 43 58 77 83 85 87 84 73 56 44 42 55 74 87 90 88 84 79 75 67 62 58 58 64 101 121 123 123 121 115 124 131 132 133 132 122 107 101 95 95 97 101 121 125 125 123 121 91 85 83 83 90 110 136 146 151 152 152 152 153 153 149 148 146 141 137 130 126 115 97 86 85 84 84 85 84 83 79 74 74 81 82 82 91 96 114 127 128 127 121 116 110 103 102 96 94 95 97 97 98 98 98 97 95 93 91 89 89 91 93 101 102 104 105 106 109 114 119 123 126 130 132 136 140 145 148 151 151 154 154 155 155 155 154 154 153 152 149 144 140 136 130 125 121 113 111 110 108 107 104 102 100 99 97 95 95 92 91 90 91 
6 6 6 6 7 9 14 18 25 28 31 34 38 41 46 54 58 62 66 70 75 80 85 88 93 95 98 104 104 104 103 104 104 107 110 115 118 119 119 121 126 129 135 141 146 149 149 149 145 145 145 145 147 148 149 151 152 153 156 155 156 157 159 161 163 165 169 169 167 164 159 159 154 153 152 156 156 156 154 151 150 149 148 148 147 143 135 129 127 127 129 129 134 133 131 130 129 128 128 128 130 130 130 128 127 126 126 126 127 127 128 128 128 128 128 128 121 121 118 117 109 109 108 102 93 93 92 89 89 91 91 91 89 89 83 76 64 57 55 51 49 44 42 42 40 40 40 42 42 42 46 49 51 49 39 38 36 36 36 39 40 51 53 53 55 56 56 55 55 53 48 44 44 44 44 44 33 31 28 26 24 25 26 26 26 27 32 37 45 45 43 38 36 32 28 28 28 24 17 17 22 25 32 38 51 61 66 71 71 64 59 43 36 34 34 36 39 42 35 27 20 13 12 11 10 9 9 9 9 10 11 13 16 16 16 16 16 16 19 34 39 48 68 75 78 83 83 73 70 55 42 42 61 81 85 81 81 75 70 67 58 52 51 59 87 103 106 109 109 109 111 124 132 134 134 133 130 120 113 113 120 125 130 137 134 130 125 103 86 84 84 86 95 119 141 150 152 152 152 152 152 147 146 146 145 141 135 132 125 104 91 86 84 83 82 80 73 71 67 70 71 71 74 75 81 94 111 118 120 118 112 105 101 96 92 88 91 92 95 95 97 97 94 93 92 91 89 89 90 92 99 102 103 104 105 109 114 119 123 126 130 132 136 140 144 147 150 151 152 154 156 156 156 154 154 154 152 149 144 140 136 130 125 121 115 112 110 108 107 104 103 101 100 99 97 95 94 93 89 89 
4 5 6 6 7 10 15 18 26 29 32 36 39 45 49 55 60 65 70 75 80 85 88 93 95 98 102 105 104 104 103 104 104 106 110 115 118 119 121 126 130 135 143 146 148 149 149 149 149 149 149 148 148 148 149 151 153 156 156 156 157 159 162 165 169 170 172 173 171 169 165 164 161 159 157 157 156 156 153 152 149 147 147 147 148 144 139 133 128 128 129 133 135 135 133 132 130 129 128 128 130 131 136 139 137 132 130 129 127 126 124 118 112 106 99 99 98 93 85 84 84 84 84 88 89 89 89 89 89 91 91 91 89 89 83 76 64 55 51 44 42 38 38 37 37 38 39 39 38 35 34 34 38 38 38 35 35 35 36 36 38 40 44 53 55 57 61 65 68 56 53 45 46 49 49 51 53 50 32 28 26 26 27 27 26 27 32 38 46 53 54 43 37 34 29 26 24 17 14 14 15 24 29 37 50 51 60 64 70 70 61 58 37 36 28 29 33 36 35 33 26 21 19 17 16 14 13 12 10 10 11 13 13 16 16 15 15 14 14 15 26 41 58 64 68 68 71 70 66 56 46 46 46 73 81 81 79 70 68 65 58 53 55 55 64 91 97 99 97 97 99 111 128 133 134 139 137 133 132 132 132 132 138 146 144 140 134 112 90 86 85 86 88 95 123 146 150 151 150 151 149 146 143 146 146 144 141 135 132 115 97 86 85 83 81 73 72 65 63 60 60 63 65 67 70 75 89 105 111 110 105 101 96 94 87 87 87 88 91 94 95 94 94 93 93 91 89 89 89 92 97 101 103 105 105 106 110 115 122 126 130 132 136 140 144 147 150 151 152 154 156 156 156 155 154 154 152 149 144 138 135 130 125 122 117 113 111 109 107 106 103 102 101 100 99 97 95 95 93 93 
5 6 6 7 8 11 16 19 26 29 33 38 41 46 51 58 63 69 74 78 83 86 90 93 97 101 102 105 104 104 103 103 104 105 110 115 118 121 126 130 135 143 145 146 148 149 149 149 149 149 149 148 148 148 149 151 153 156 156 156 158 161 163 165 169 170 172 173 171 169 165 164 161 159 157 157 156 156 153 152 151 149 149 149 149 148 144 136 131 131 131 133 135 136 136 135 133 132 130 132 137 145 150 150 147 142 137 132 131 127 122 118 111 106 99 98 92 84 84 83 78 78 78 70 59 54 54 54 56 59 60 60 60 50 47 44 41 41 41 41 38 35 35 35 35 37 37 37 37 35 34 32 32 29 32 32 33 34 35 36 37 40 41 49 52 57 63 69 73 74 73 54 53 53 57 59 60 63 65 53 39 32 32 32 32 32 37 43 53 59 61 55 46 43 36 32 22 17 14 13 14 16 24 33 43 49 51 59 64 67 67 61 49 36 26 25 25 29 33 33 32 26 22 20 20 19 17 14 12 11 13 13 15 17 18 18 16 14 14 14 16 20 41 55 60 64 65 64 59 56 48 48 48 65 73 75 72 69 67 62 53 52 55 57 67 80 80 87 76 69 69 89 115 130 133 140 141 141 135 138 138 143 143 150 149 144 140 129 101 88 86 86 86 88 101 123 147 150 151 151 146 142 141 140 141 143 141 138 132 119 103 97 85 82 78 72 69 63 60 58 58 58 58 59 59 61 75 89 100 103 100 96 94 88 86 85 84 86 88 91 93 93 93 93 93 91 90 90 92 93 96 100 103 104 105 106 109 114 121 125 130 132 136 140 144 147 150 151 152 154 156 156 156 156 155 154 152 149 143 138 135 130 126 123 118 114 111 110 108 106 104 103 102 101 101 99 97 96 95 95 
5 6 7 7 9 12 17 21 26 29 34 38 43 49 55 59 65 70 75 80 84 86 90 93 97 98 101 103 103 101 101 101 103 105 110 116 120 126 129 134 142 145 146 147 147 147 148 148 149 149 149 148 147 145 146 148 150 153 156 156 158 161 162 164 168 170 172 173 171 167 164 162 160 159 157 153 152 152 152 152 152 151 149 150 150 149 148 137 135 131 127 127 131 133 133 133 132 132 130 132 137 145 150 150 147 142 140 139 132 129 124 118 111 106 99 98 92 84 84 83 78 78 78 70 59 54 54 54 56 59 60 60 50 41 41 41 40 40 39 38 34 26 24 27 30 35 35 35 35 35 34 32 32 29 32 31 32 33 34 36 37 39 44 46 50 53 59 66 74 81 83 80 68 63 68 69 71 72 74 74 67 53 44 41 39 39 43 45 53 60 64 62 55 48 47 46 35 21 15 14 15 17 19 26 40 46 49 51 52 61 63 63 61 48 25 23 21 21 29 33 33 32 27 24 24 24 23 21 16 14 14 16 18 20 21 21 20 16 15 15 16 17 20 41 52 57 60 60 54 52 46 48 48 60 66 72 72 65 64 61 52 48 55 59 66 80 80 72 67 57 56 64 81 115 132 140 141 141 140 140 140 143 150 151 151 146 144 132 105 90 89 88 87 87 93 104 135 147 152 151 146 141 140 139 139 142 140 135 126 119 108 102 91 84 75 72 65 60 58 55 55 54 54 52 45 52 59 72 88 94 94 94 88 86 84 83 83 84 84 88 91 93 94 95 96 95 92 92 93 94 96 99 100 103 105 106 109 113 120 125 130 133 136 140 144 148 150 151 152 154 156 156 156 156 155 154 152 148 143 138 135 131 127 124 119 116 112 110 109 107 105 104 103 101 101 100 99 97 97 97 
5 7 7 8 9 13 18 22 26 30 34 40 45 49 55 60 69 72 76 80 83 86 89 93 95 97 98 100 100 100 100 101 102 105 111 117 123 129 134 140 145 146 147 147 147 147 147 147 147 147 146 144 142 142 142 144 144 149 150 152 155 158 160 160 160 160 159 158 157 154 154 153 152 150 147 146 148 150 152 152 152 153 152 152 151 149 148 137 133 127 125 122 118 124 127 130 130 130 130 132 137 145 150 150 147 140 139 137 129 125 119 112 107 105 99 99 98 92 85 84 83 78 78 70 59 54 54 54 56 56 56 50 44 38 38 38 37 33 29 24 23 23 23 24 31 35 35 37 39 39 38 32 32 32 32 31 32 34 34 34 35 38 44 46 50 51 54 59 69 81 89 89 89 80 74 74 74 76 76 80 81 80 67 53 46 43 46 51 59 60 64 64 64 62 48 48 47 35 22 18 18 18 19 25 31 41 46 47 49 51 60 63 61 49 36 23 21 21 21 27 32 34 34 32 35 35 32 29 25 22 20 21 23 23 27 27 27 22 16 16 16 16 18 31 48 54 54 56 52 48 46 48 48 54 62 66 65 65 61 52 43 40 48 55 66 67 67 66 57 52 52 50 53 71 115 132 135 135 139 139 138 140 148 151 151 148 144 133 113 97 93 89 88 88 93 93 113 136 149 151 147 141 138 136 134 136 135 129 122 112 111 107 97 87 75 72 65 58 55 54 53 51 50 42 40 40 45 59 68 84 88 86 86 84 83 82 82 82 83 84 88 91 94 96 99 99 99 96 96 96 97 99 100 103 105 106 108 113 120 125 131 133 137 141 145 148 150 151 152 153 155 156 156 156 155 154 150 147 143 139 136 133 129 126 119 116 112 110 109 108 106 104 103 102 101 100 100 99 99 100 
5 6 7 8 9 13 18 22 26 30 36 42 46 52 56 60 68 72 75 78 82 85 86 90 94 94 95 97 97 97 99 100 102 105 112 120 126 133 139 144 146 147 147 147 147 147 146 145 145 144 141 139 136 136 136 138 138 138 138 139 141 143 146 147 147 147 145 143 141 140 140 140 140 140 141 143 144 148 151 152 153 153 154 153 151 149 145 133 125 122 118 118 117 116 116 116 116 119 123 123 125 126 126 129 137 137 137 129 124 118 118 116 115 112 106 106 106 106 106 108 108 108 102 94 85 74 62 59 59 56 56 50 44 33 33 31 31 29 25 24 23 23 23 24 31 35 35 39 42 42 42 40 38 38 37 37 34 37 34 34 37 39 44 48 49 50 51 57 59 74 88 89 89 89 84 80 78 81 83 84 86 88 84 75 66 60 52 59 62 64 65 66 65 64 62 58 58 54 47 32 29 28 28 28 31 39 41 46 47 50 50 50 49 48 41 25 22 21 22 27 29 32 34 35 36 41 41 40 37 35 29 29 31 35 40 42 42 36 27 20 17 16 18 23 41 52 54 54 49 44 44 46 46 50 59 65 65 63 60 48 40 38 38 53 66 67 67 64 54 43 48 46 43 43 78 115 127 132 139 140 140 140 141 146 148 148 144 135 121 105 96 93 89 88 88 91 93 114 140 148 147 142 138 133 130 125 126 122 112 111 109 107 101 92 80 72 65 58 54 54 50 46 42 34 32 34 37 45 52 66 75 79 79 79 79 79 77 79 81 83 85 90 95 97 100 101 101 101 99 98 99 99 100 102 104 105 108 113 120 125 131 133 137 141 145 148 151 151 152 153 154 156 156 156 156 154 150 147 143 140 137 134 129 126 119 116 112 110 109 108 106 104 104 102 101 100 100 100 101 101 
4 5 6 7 9 13 18 22 25 30 36 42 46 52 55 60 64 70 74 77 80 82 85 87 90 92 93 94 94 95 97 99 102 107 116 126 132 139 144 146 147 149 150 150 148 147 145 144 142 139 134 133 125 124 123 122 121 121 121 121 123 124 128 129 131 131 131 131 131 133 134 135 135 136 138 140 143 146 149 152 153 153 154 153 151 145 134 132 125 122 118 118 117 115 114 114 114 114 118 119 118 118 118 120 123 123 123 121 120 120 120 121 121 119 119 112 110 106 106 108 108 108 102 94 85 74 62 59 59 56 56 50 44 37 37 37 37 31 29 26 26 26 27 32 35 38 42 45 46 46 46 46 41 40 41 41 40 39 38 38 39 41 44 47 49 50 51 57 59 63 72 80 86 87 86 85 84 84 88 89 90 92 93 93 84 75 65 62 66 66 67 67 66 64 58 58 58 57 54 54 49 46 39 31 38 41 43 46 47 50 50 49 48 47 45 40 28 24 25 27 29 35 36 41 45 46 47 47 47 44 40 40 42 45 49 52 50 45 42 33 26 18 18 26 39 48 53 54 48 43 43 44 45 50 53 60 63 63 60 54 44 38 38 51 66 67 67 62 52 43 48 48 43 41 48 78 83 101 131 138 138 140 140 141 144 147 147 143 130 115 101 94 90 88 87 87 88 93 116 141 142 141 137 130 120 118 112 112 111 109 107 105 101 92 87 72 68 58 55 53 49 46 39 33 32 33 37 44 47 51 59 66 69 69 69 70 76 76 78 80 83 87 91 96 100 101 101 101 101 101 100 100 102 103 104 106 108 113 121 126 131 133 137 141 145 149 151 152 152 153 154 156 156 156 156 154 150 147 144 141 138 134 129 126 118 115 112 110 109 108 107 105 103 101 101 100 100 100 101 102 
2 4 5 7 8 13 17 22 25 30 36 41 45 48 54 59 63 68 71 74 77 80 82 85 87 90 91 92 93 93 95 99 103 111 119 131 138 144 146 147 149 149 150 150 148 147 145 141 139 134 129 124 119 109 107 106 103 103 103 104 107 110 113 115 116 116 118 118 124 128 129 130 131 134 136 136 139 143 146 149 153 153 153 145 142 140 134 132 129 124 124 122 118 115 113 111 111 111 111 111 111 107 108 108 110 110 110 107 107 110 114 116 119 119 114 111 106 106 106 108 108 108 102 94 85 74 62 55 42 40 40 41 41 37 37 37 37 33 31 29 29 32 36 38 38 40 50 54 68 77 84 85 53 47 47 46 46 46 46 41 41 46 47 47 48 50 51 57 59 63 64 69 73 85 85 85 86 86 88 89 90 92 98 99 99 98 88 71 69 68 68 67 67 65 62 58 58 58 57 56 56 56 55 46 41 44 49 50 51 51 51 47 47 45 42 41 38 35 28 29 36 37 42 47 50 54 54 61 61 54 50 50 52 56 57 58 58 57 52 44 39 33 28 33 44 44 44 44 44 43 41 43 44 49 50 54 59 62 63 60 44 38 37 45 62 62 59 50 46 43 48 48 46 41 43 58 68 78 101 130 131 133 137 137 141 147 148 148 144 125 109 97 93 89 87 86 86 88 93 116 137 137 131 121 118 110 95 95 100 105 105 101 95 92 89 80 70 58 55 52 50 48 45 38 33 35 39 45 50 51 54 59 59 59 60 61 67 72 76 78 81 85 87 92 97 100 101 102 102 102 102 102 102 104 105 107 110 114 120 126 131 133 137 141 145 149 151 152 152 153 154 156 156 156 156 154 151 148 145 141 138 134 128 124 118 115 112 111 109 109 107 106 104 102 101 101 101 101 101 102 
2 3 4 6 7 12 16 19 23 29 33 39 44 47 52 55 59 64 68 71 74 77 79 82 85 87 90 90 91 93 95 97 106 116 126 135 142 144 146 147 149 149 150 150 148 141 141 140 137 133 128 122 113 109 105 103 103 103 103 104 105 105 106 105 105 105 107 109 116 118 122 124 125 129 130 133 135 137 143 146 145 143 141 140 138 136 135 134 132 129 127 124 121 115 112 110 110 109 107 106 103 103 103 106 106 106 106 105 103 105 105 105 107 105 104 104 101 101 101 100 84 77 67 58 51 51 50 47 42 40 40 41 41 40 41 37 37 37 36 36 36 37 38 40 40 40 54 68 77 84 88 100 100 88 67 55 55 55 55 53 52 52 51 48 51 51 54 57 60 63 66 69 71 73 78 83 84 86 88 88 89 91 98 99 100 102 100 91 79 72 69 68 68 66 65 62 61 58 58 58 58 58 60 61 60 54 59 59 60 60 60 58 47 45 42 41 38 37 36 36 36 42 48 52 60 61 66 66 67 67 62 60 60 60 63 63 63 63 63 59 53 52 39 50 52 48 44 44 41 40 38 43 45 50 50 54 59 62 62 61 45 38 36 38 59 59 59 42 42 38 43 47 46 45 49 58 68 74 83 110 130 131 135 137 139 147 148 153 153 146 122 107 96 89 86 81 81 82 86 96 120 121 120 119 112 96 91 91 92 94 95 94 94 93 90 87 76 60 54 51 50 50 48 45 39 39 45 50 51 53 54 58 58 57 57 57 58 64 71 76 79 82 85 88 94 98 100 102 102 103 104 104 104 105 106 109 112 114 120 126 131 133 137 141 145 149 151 152 152 153 154 157 158 158 157 155 151 149 145 142 139 134 128 124 118 115 113 111 110 109 108 106 105 103 102 101 101 102 101 102 
2 2 3 5 7 11 14 17 22 27 32 36 41 44 48 52 56 60 64 68 70 73 75 77 81 84 87 89 90 93 95 103 112 123 133 135 142 144 144 144 142 141 140 141 141 141 141 141 137 134 129 124 113 109 105 103 103 103 103 104 104 104 105 105 104 104 105 105 108 112 114 116 119 119 119 125 130 132 132 131 133 133 135 136 136 136 135 134 132 129 127 124 121 113 111 110 110 109 107 102 102 102 102 102 102 102 102 102 102 105 105 105 107 105 96 93 93 90 81 75 67 65 58 53 51 51 50 47 42 40 40 41 42 49 54 54 52 50 47 43 43 42 43 43 42 43 54 68 77 86 100 108 109 109 105 93 76 76 76 76 76 74 65 54 54 54 60 63 66 69 69 71 71 71 73 80 83 86 88 88 88 88 88 87 98 100 100 91 88 79 72 71 69 67 67 67 61 61 58 61 61 62 65 65 66 64 60 60 60 60 60 58 47 45 43 41 39 39 40 41 42 48 52 58 61 64 66 67 69 71 74 76 75 73 72 72 72 72 74 71 68 66 62 62 66 52 45 43 41 41 38 43 45 52 53 56 59 62 62 61 54 44 38 42 59 59 59 38 38 37 38 43 45 45 49 58 68 74 77 93 118 130 130 137 138 147 152 157 160 161 151 122 101 86 81 73 68 68 73 82 103 116 120 114 104 94 88 86 88 89 91 93 93 93 92 88 79 61 56 51 51 51 52 54 59 66 72 72 72 67 60 59 58 57 57 55 56 58 64 71 77 81 84 87 92 97 100 102 102 103 104 105 106 106 108 111 114 116 120 122 131 133 136 140 143 147 150 152 153 153 155 158 158 158 158 156 152 149 145 142 139 134 128 124 119 116 113 112 111 110 109 107 106 105 104 103 103 103 103 103 
2 2 4 5 6 10 12 16 20 24 28 32 36 41 44 47 52 55 60 64 67 69 71 75 76 81 84 88 90 93 97 107 116 127 130 133 135 142 141 140 137 136 137 140 141 141 141 141 141 137 133 129 124 113 106 105 105 105 105 105 105 104 104 104 103 103 103 103 104 105 108 109 108 108 108 111 113 113 115 122 125 131 133 135 135 136 135 134 132 129 124 121 113 110 104 97 95 88 85 79 70 66 66 67 67 67 63 57 56 56 56 60 61 61 62 65 70 70 67 65 61 56 54 52 49 48 48 48 51 58 62 65 68 69 73 67 62 56 52 50 47 47 47 42 40 40 50 57 76 91 102 109 110 112 115 115 115 100 94 91 86 86 86 85 85 74 74 72 72 74 78 78 74 73 74 80 83 86 88 88 88 85 76 75 76 87 91 90 87 80 78 73 72 72 72 72 69 66 61 61 62 63 65 65 66 64 61 60 60 60 60 58 45 41 39 41 39 41 42 45 48 51 53 58 60 62 66 66 69 71 75 76 78 78 78 79 82 83 83 83 80 74 71 71 70 69 61 45 42 43 43 45 50 53 56 62 62 62 62 61 55 48 45 45 59 59 59 38 37 37 37 38 43 43 45 53 65 68 73 75 92 114 128 130 137 140 152 157 162 164 162 151 122 81 78 68 68 68 72 73 86 110 114 114 114 101 88 86 86 88 89 91 92 92 92 90 79 61 55 52 52 54 59 66 72 79 81 82 81 80 75 71 65 58 57 55 56 59 63 68 77 81 84 87 92 96 100 102 102 103 104 105 106 107 109 113 115 117 120 122 131 133 136 139 142 146 149 152 153 154 156 158 158 158 158 157 153 150 146 142 139 134 129 125 119 116 114 113 112 111 110 109 107 106 106 105 104 104 104 104 
3 3 5 6 7 9 11 15 18 20 24 28 32 36 41 44 47 50 53 57 62 64 68 70 73 76 81 85 89 94 103 115 123 126 128 130 133 132 132 132 132 134 136 139 140 141 143 145 145 145 142 138 133 128 125 125 124 124 124 120 110 106 105 104 103 102 102 101 102 103 104 103 99 99 98 98 99 100 110 113 115 123 130 131 135 135 135 129 124 121 112 104 104 104 100 97 94 88 85 79 70 66 66 67 67 67 63 57 56 56 54 54 51 50 48 48 54 59 62 61 60 56 55 53 51 51 52 57 61 65 66 69 73 76 79 79 74 64 62 54 52 50 48 43 40 40 50 57 69 80 94 105 109 112 119 122 122 122 105 97 97 94 94 97 97 97 88 86 86 85 84 84 82 78 76 75 76 83 86 86 86 85 76 75 73 75 77 87 82 82 80 78 76 76 76 74 74 69 67 65 63 63 65 65 64 62 61 59 54 52 58 48 43 36 36 37 38 39 41 42 45 48 52 55 60 61 62 65 67 71 76 78 80 84 86 87 88 89 89 91 91 91 85 83 82 82 70 58 45 45 45 47 50 53 63 63 63 60 61 60 59 55 47 47 59 51 51 42 37 35 35 37 38 39 43 53 56 66 69 69 69 91 103 116 130 137 147 157 161 164 165 164 146 111 83 73 68 68 73 78 90 107 110 116 119 116 103 96 91 88 88 89 90 90 90 89 79 65 56 55 55 57 60 67 75 81 83 83 83 84 88 88 88 83 72 64 63 63 66 70 77 80 84 87 93 95 99 102 102 103 104 105 106 108 111 114 117 119 120 123 131 133 136 139 141 144 147 150 153 154 156 158 158 158 158 157 153 150 146 143 139 135 129 126 120 117 115 114 113 112 111 110 109 108 107 107 107 106 106 106 
5 5 5 6 7 8 9 11 15 18 20 25 29 33 37 41 44 47 49 51 54 57 60 63 68 71 76 82 88 97 105 116 120 125 126 124 126 126 128 129 130 132 136 139 143 146 146 146 146 146 145 144 142 138 138 138 139 139 140 134 124 119 108 105 103 102 102 98 98 97 97 97 91 90 90 90 97 99 102 110 113 115 119 125 130 129 119 114 112 111 109 104 104 104 100 97 94 88 85 79 70 66 65 64 53 51 51 51 52 54 54 54 51 50 48 48 54 59 62 62 62 62 61 56 54 55 60 65 66 69 70 75 78 81 87 92 93 83 68 63 62 54 54 51 48 48 57 63 76 80 90 95 105 109 119 123 124 124 123 122 100 99 99 104 104 104 102 97 88 86 86 84 83 79 74 73 71 75 83 84 84 83 75 73 73 69 72 69 78 78 79 79 80 80 80 77 77 74 71 66 65 63 63 62 59 55 55 52 51 48 47 44 36 34 35 35 36 37 40 41 43 45 47 52 55 58 61 62 65 69 76 80 86 90 90 90 91 94 96 97 103 103 97 97 93 91 82 70 61 51 49 49 52 57 63 63 63 61 61 61 61 60 57 56 59 57 56 47 35 31 33 34 35 36 39 45 55 58 66 66 66 69 80 93 113 124 136 149 157 161 165 167 159 143 111 93 81 78 81 86 99 110 114 120 123 123 123 116 101 91 89 89 89 89 89 88 79 72 57 55 56 57 61 69 79 81 83 83 83 85 90 92 92 92 88 81 72 68 70 71 73 79 85 87 93 95 100 101 102 102 103 104 105 108 113 114 117 119 121 123 132 134 137 139 142 143 146 149 152 154 156 157 157 157 157 156 154 151 147 144 140 136 131 127 120 118 116 115 114 113 112 112 111 110 110 110 110 109 108 108 
7 7 5 6 6 7 8 9 11 15 18 22 25 30 34 38 41 44 45 47 49 51 54 56 61 68 72 79 88 102 113 117 119 121 123 123 124 125 127 129 130 132 139 147 149 149 148 148 148 146 146 146 145 142 141 141 141 141 145 141 136 126 119 108 104 102 101 98 97 93 90 89 89 89 89 89 91 97 99 102 105 112 114 117 117 112 112 109 109 109 108 109 104 104 104 103 97 95 91 83 74 67 59 54 51 51 51 51 52 62 62 62 51 50 48 48 54 59 62 67 67 67 67 61 56 60 64 65 69 72 75 79 84 87 92 93 94 93 79 77 79 79 79 78 63 63 65 76 80 90 92 94 101 107 108 122 123 124 123 122 112 110 110 110 109 109 107 106 98 91 88 86 84 79 74 68 68 68 71 72 73 73 73 72 69 67 66 65 66 68 76 78 78 76 76 75 74 74 72 68 65 63 62 59 52 49 51 49 46 46 46 41 36 34 35 35 39 42 45 44 44 45 45 49 53 57 61 62 65 70 76 85 91 93 93 94 96 103 106 109 112 114 113 111 109 101 97 86 72 62 56 51 57 63 64 64 63 62 62 61 61 61 59 58 59 58 57 54 36 30 31 33 33 34 35 43 49 55 56 58 58 67 73 80 91 98 116 136 149 153 160 160 160 153 143 133 115 113 113 113 111 119 124 125 127 128 130 128 123 112 96 92 85 81 88 80 80 79 67 57 58 59 64 67 74 80 82 83 83 85 90 93 94 94 92 88 81 72 71 71 73 77 84 87 91 94 99 100 101 101 102 103 105 107 111 114 117 119 122 125 132 135 138 139 142 144 147 148 152 153 155 157 157 157 157 156 154 152 148 144 141 136 131 127 123 119 117 116 115 114 114 114 113 113 113 113 113 112 111 110 
6 6 5 5 6 6 8 8 10 11 15 18 22 26 31 35 38 41 41 44 46 48 50 54 58 63 69 78 89 102 116 118 120 122 123 123 124 125 127 132 138 141 149 153 153 152 149 148 148 148 148 149 149 147 144 144 146 148 147 146 141 132 119 112 108 103 101 98 97 92 88 88 88 88 88 89 89 92 97 100 102 104 104 90 88 91 97 103 103 103 103 104 105 107 105 104 103 97 93 87 79 74 73 68 62 60 60 63 66 67 75 75 80 84 83 83 83 73 71 68 68 69 68 67 67 67 67 69 74 78 79 84 87 88 91 92 94 91 83 79 85 90 90 90 91 92 94 95 95 97 97 95 95 101 107 108 122 122 122 113 110 110 110 110 109 109 106 106 103 98 93 91 88 79 68 55 44 44 44 39 63 70 73 70 66 65 55 53 52 52 58 68 76 76 75 74 72 72 72 67 63 61 52 50 47 46 46 46 46 46 46 41 36 36 36 36 40 45 46 45 45 45 45 49 53 57 61 63 70 71 79 85 91 94 95 99 106 112 117 119 119 127 129 133 129 116 112 101 86 80 67 63 64 66 66 66 67 66 63 62 61 61 59 59 60 61 58 56 47 33 33 31 31 33 34 36 43 49 54 54 54 57 67 71 78 86 98 116 135 138 149 153 159 159 151 144 144 144 144 144 134 128 130 130 130 130 132 132 130 127 116 96 88 87 88 89 89 90 86 75 65 64 65 71 74 80 80 81 82 82 84 88 92 94 92 91 87 81 74 73 73 74 78 85 89 93 97 98 99 98 99 101 104 105 109 113 116 119 122 125 132 135 138 141 143 146 148 148 152 153 155 157 157 157 157 156 154 151 147 143 140 136 130 128 125 121 119 118 117 115 115 115 115 115 116 116 115 114 114 112 
2 3 3 4 5 6 6 8 9 11 13 14 18 22 25 31 35 36 41 41 42 45 47 53 56 62 69 80 92 102 115 118 119 121 123 123 126 129 138 141 149 151 153 155 155 153 152 148 148 149 149 150 150 150 148 148 151 151 151 148 141 128 124 119 112 109 104 101 97 89 88 87 86 85 87 88 88 91 94 95 95 88 77 77 78 85 88 94 97 99 101 104 105 107 105 104 103 97 94 93 88 80 78 78 77 77 77 77 77 86 86 86 85 85 83 83 83 83 78 75 75 74 73 71 72 73 74 77 81 83 84 87 87 88 91 92 94 92 91 90 90 91 95 95 96 97 99 99 103 105 99 99 104 95 95 104 107 110 110 110 110 110 110 110 109 109 98 97 97 95 93 88 79 75 68 55 44 44 44 39 55 55 60 65 55 55 53 52 50 49 52 53 60 64 71 72 72 72 70 63 59 51 49 47 46 46 47 48 46 46 46 44 40 39 40 41 42 46 46 45 45 45 45 55 69 72 72 72 78 80 85 89 93 95 100 106 116 119 121 127 128 133 137 140 145 138 129 116 101 85 80 76 69 69 68 69 75 70 66 64 63 63 60 59 61 61 61 63 63 37 35 33 33 33 34 34 38 45 49 49 50 53 55 60 69 77 86 98 113 129 135 139 144 152 152 152 152 152 152 153 154 154 153 142 135 134 135 135 135 137 137 120 98 89 90 93 99 101 105 101 86 75 74 74 80 80 81 81 82 82 82 82 85 91 91 88 86 82 81 77 74 76 82 84 86 89 91 95 97 97 98 98 104 105 107 111 114 116 121 125 129 135 139 142 144 146 148 148 152 153 155 156 157 157 156 156 154 151 147 143 141 137 132 129 126 124 121 119 118 117 117 117 116 117 117 118 117 117 115 114 
1 1 2 3 4 4 5 6 8 10 12 14 14 18 21 25 31 35 36 36 40 41 45 50 56 62 69 82 95 107 114 118 119 122 125 127 134 140 147 150 150 152 154 156 156 154 153 149 149 150 152 153 154 154 155 156 154 153 151 147 138 130 127 124 119 115 113 113 104 97 90 87 85 85 87 88 88 88 87 82 77 70 70 70 77 85 87 91 94 95 97 101 105 107 105 103 102 94 93 92 92 87 79 79 79 87 89 89 89 89 86 86 85 85 85 87 88 88 89 89 89 86 79 78 78 79 82 84 87 88 87 87 88 88 88 91 92 91 88 88 90 91 96 97 99 103 105 106 107 107 107 107 108 104 101 95 95 95 101 106 106 106 104 99 94 94 94 96 97 96 93 84 77 75 73 64 54 54 54 55 55 55 60 65 59 58 54 52 49 48 48 48 49 53 57 58 58 58 58 58 52 47 45 46 46 46 47 49 47 47 49 46 45 45 46 48 48 49 50 49 50 55 70 76 84 85 86 86 85 86 90 93 95 100 112 118 125 127 129 130 137 140 145 145 146 146 144 129 116 101 86 85 82 82 82 82 84 77 75 70 65 64 63 61 63 64 64 65 64 57 37 35 33 34 35 36 41 45 48 49 50 51 52 57 58 68 78 87 104 111 115 127 133 141 144 151 152 152 152 157 160 163 163 157 152 137 137 137 137 137 137 136 135 120 111 116 117 127 129 129 127 117 99 86 82 82 82 82 82 82 81 80 80 83 88 85 82 82 81 78 76 78 82 84 86 88 90 94 95 96 97 100 103 105 107 110 114 116 117 122 126 132 138 143 145 146 148 149 151 153 155 156 156 156 156 155 154 151 147 143 141 137 132 129 128 126 125 122 120 119 118 117 117 118 119 119 120 119 116 115 
1 1 2 2 3 4 4 5 8 10 11 13 14 16 18 22 27 30 33 35 36 40 42 46 58 63 74 88 99 107 114 118 120 125 126 134 143 147 149 150 151 153 154 156 156 156 154 153 151 153 153 154 156 157 161 158 158 154 150 146 138 136 128 127 127 127 127 121 114 101 95 88 86 85 88 88 87 87 83 80 77 70 70 70 77 85 86 87 87 91 93 97 99 101 99 97 94 92 89 92 92 95 100 102 99 99 97 96 95 90 89 89 93 93 93 95 95 91 93 95 95 95 98 98 98 96 96 96 96 94 89 89 89 88 88 90 90 89 88 88 90 91 96 99 103 106 107 109 110 110 110 109 105 104 101 96 95 95 95 95 85 85 83 83 86 91 93 94 96 96 94 84 77 76 76 75 70 66 61 60 60 60 60 62 61 59 58 54 52 49 49 48 49 53 55 56 57 57 55 54 50 45 45 46 46 47 49 51 50 49 50 50 49 50 51 51 51 54 58 64 69 72 81 85 88 91 93 95 99 100 99 100 106 112 121 128 129 133 135 138 139 144 146 148 152 152 149 144 129 116 102 100 93 93 89 88 87 86 84 81 75 70 65 64 66 71 75 73 73 73 58 46 38 36 38 38 44 47 49 49 50 52 52 53 57 60 67 79 92 106 112 115 121 131 139 141 148 151 152 158 161 165 165 165 161 147 138 137 137 136 137 136 135 134 134 134 135 137 138 135 132 129 129 127 126 126 112 100 85 82 82 80 80 83 85 83 82 81 80 78 78 81 83 84 86 87 89 90 94 95 97 99 101 105 106 109 113 116 117 120 125 129 135 141 145 147 148 149 151 153 154 155 156 156 155 154 153 149 146 143 141 137 133 130 129 127 126 125 122 120 118 118 118 118 120 120 121 120 119 118 
1 1 2 2 2 3 4 4 8 10 11 12 13 14 17 18 22 26 30 33 35 36 41 45 58 67 80 91 99 107 114 118 123 126 130 135 143 147 149 150 151 153 154 157 158 158 158 154 154 154 157 157 161 165 165 163 159 156 151 147 139 138 137 140 140 143 143 131 125 113 97 92 88 85 88 88 87 87 83 80 77 77 77 80 84 85 85 86 87 88 93 96 97 97 95 94 90 90 90 93 100 107 108 107 105 104 102 102 99 96 93 93 93 93 93 95 95 104 104 108 110 110 110 111 111 110 107 106 103 96 94 89 88 88 88 88 90 92 92 92 90 91 92 96 99 103 105 106 106 105 105 102 100 98 98 96 95 95 95 95 85 85 83 83 86 91 93 94 95 95 94 85 78 77 77 77 77 75 73 70 70 68 65 65 63 61 61 59 59 53 52 49 53 55 55 56 57 57 55 54 50 47 47 47 48 51 55 56 56 55 54 53 53 55 59 61 67 68 70 72 78 81 85 91 92 96 100 103 107 110 112 112 116 127 129 133 133 135 137 138 140 145 148 154 155 155 152 150 144 138 124 111 107 105 100 96 94 90 89 89 87 81 78 76 76 77 79 79 79 79 73 63 58 58 51 48 49 50 51 54 54 57 57 57 52 57 57 65 79 97 109 112 115 121 131 133 133 136 136 147 158 165 165 165 161 147 142 138 137 136 133 134 134 134 135 135 137 138 139 138 135 133 131 127 126 126 118 112 109 104 90 84 84 85 85 85 82 82 82 82 82 82 83 84 86 87 88 90 92 95 97 99 101 104 106 110 114 115 116 117 120 125 132 140 145 147 148 149 151 153 154 154 155 155 154 153 151 148 145 143 141 137 133 130 129 128 127 126 123 122 120 119 119 120 120 121 122 122 120 119 
1 1 2 2 2 3 3 4 6 9 10 11 13 14 15 17 19 22 25 28 33 35 39 43 58 67 80 91 99 105 112 117 120 126 129 134 136 143 147 147 148 152 154 158 158 159 159 158 159 159 161 165 167 167 165 165 162 158 155 150 147 144 152 154 157 157 154 146 137 125 113 95 89 85 88 88 88 88 84 81 77 77 80 81 84 85 85 86 87 88 93 93 93 93 91 89 89 91 93 100 113 113 113 112 109 108 105 104 102 96 93 93 93 97 103 113 123 114 114 114 116 117 121 122 123 118 111 111 107 105 101 94 90 89 89 92 94 96 96 95 95 95 95 95 97 102 103 105 103 102 100 98 97 96 96 96 95 91 84 80 80 80 83 83 83 86 86 87 92 89 85 84 84 79 82 80 80 79 78 75 73 70 70 69 65 65 65 64 64 64 64 64 56 56 56 59 60 60 60 59 57 47 47 54 56 59 65 67 72 74 79 83 86 87 84 82 82 81 81 82 82 86 91 93 99 102 112 113 114 119 122 127 129 133 133 134 135 137 138 139 142 146 152 156 157 158 157 155 151 144 138 127 125 123 112 111 105 105 101 101 101 97 97 97 96 92 87 86 85 84 83 81 73 73 69 61 54 54 54 59 59 62 61 60 55 50 53 55 63 79 97 109 112 117 124 128 129 129 123 123 131 146 159 161 149 146 140 137 133 131 129 126 132 134 134 135 137 138 139 138 135 133 131 127 126 126 118 112 109 104 101 99 97 95 91 88 83 83 82 82 83 83 84 84 84 86 87 89 91 95 98 100 101 105 107 110 113 115 116 117 118 121 129 138 143 146 148 149 150 152 153 154 154 154 153 152 151 148 145 143 141 137 133 130 129 128 127 126 125 124 122 120 120 120 121 122 122 123 122 121 
2 2 2 2 2 2 3 4 4 8 9 10 11 12 14 17 18 21 22 25 30 33 37 43 58 70 82 91 101 105 112 117 121 126 129 131 134 136 141 145 147 153 158 160 160 161 161 161 162 165 168 168 168 167 165 163 160 158 156 156 155 162 166 167 167 167 163 158 150 144 121 116 95 93 95 97 96 95 90 86 84 84 84 84 85 85 84 82 82 85 89 89 93 91 91 90 91 94 101 116 117 116 114 113 113 109 109 109 109 110 110 110 117 123 124 125 125 125 125 125 124 129 131 131 129 126 116 116 111 110 107 97 94 89 90 95 95 97 97 96 95 89 88 87 87 87 95 102 100 97 95 94 94 89 86 91 91 91 84 80 76 74 74 75 77 81 81 81 84 83 78 78 82 80 83 89 89 88 83 78 78 77 75 73 73 73 73 73 79 79 79 78 76 76 76 75 75 75 70 66 63 60 60 62 66 71 76 76 83 88 92 93 96 92 89 87 87 85 84 88 91 94 99 102 113 114 116 121 121 127 129 132 134 135 135 137 137 138 139 141 145 148 153 158 159 159 161 159 155 151 148 139 138 134 128 125 119 119 119 119 119 118 117 115 113 112 107 104 99 95 92 92 92 86 74 69 61 59 54 59 59 62 62 64 61 55 53 53 59 65 79 97 108 113 117 121 122 117 114 112 112 125 141 147 146 144 135 132 129 125 121 121 124 129 132 134 134 135 135 131 128 126 125 115 110 107 107 106 106 104 101 99 97 95 91 88 86 83 83 83 83 82 82 80 80 80 80 87 90 95 98 100 102 103 108 110 112 115 116 117 119 121 125 133 141 147 148 149 150 151 153 153 153 153 153 151 151 148 145 143 141 137 133 130 129 128 126 125 124 123 122 120 120 120 121 122 123 123 123 123 
2 2 2 2 2 2 2 3 4 6 8 9 10 11 13 15 17 18 20 22 26 30 35 41 58 70 86 95 103 109 114 118 123 129 129 130 132 135 139 142 148 158 163 163 163 163 163 164 166 169 171 171 169 166 163 161 160 160 160 162 167 171 171 171 170 168 166 161 158 151 144 128 119 113 110 106 102 98 96 92 89 86 86 85 84 83 81 81 80 84 89 89 93 91 93 93 101 109 119 120 120 120 120 118 115 115 115 115 115 115 117 121 124 127 130 133 132 132 133 134 136 137 137 132 131 129 123 116 111 107 102 96 94 90 90 91 95 95 96 95 89 87 79 77 76 75 75 80 85 91 86 85 83 83 81 83 87 89 89 90 90 87 87 83 83 89 89 83 84 84 84 89 89 91 94 93 93 93 93 90 89 90 90 91 91 91 91 90 88 87 86 85 85 85 88 92 95 95 95 94 85 82 78 78 78 80 85 88 93 97 98 101 101 101 98 96 95 95 95 101 106 113 120 124 124 124 122 126 129 134 137 139 139 139 139 138 138 139 141 145 148 152 158 159 161 163 164 165 162 159 157 151 148 146 142 139 133 133 133 132 132 131 128 128 125 125 123 123 118 108 102 102 98 95 92 84 73 62 61 59 59 62 64 70 73 70 61 61 61 67 74 80 87 102 108 110 110 107 104 102 101 98 118 131 135 135 131 125 121 115 111 111 111 114 116 124 127 127 127 126 123 115 108 106 106 101 98 92 91 91 97 97 97 95 91 88 86 83 83 84 84 83 81 77 68 66 70 80 87 91 97 99 101 103 108 110 111 114 116 117 119 121 126 133 141 147 148 149 150 151 152 153 153 153 153 151 151 148 145 143 141 137 133 130 129 127 126 125 124 123 122 120 120 120 120 122 123 123 124 124 
3 3 2 2 2 2 2 2 3 5 6 7 9 10 11 13 15 17 18 21 23 27 32 39 58 70 89 97 105 111 116 121 129 129 130 131 131 134 136 142 154 163 164 164 164 165 165 169 171 172 172 170 166 162 160 159 160 161 165 169 172 171 171 171 170 170 167 163 159 158 151 142 128 119 114 112 110 107 102 97 95 92 86 85 83 80 78 77 79 82 89 89 92 93 101 109 125 124 124 124 124 123 123 123 123 123 123 117 117 117 121 123 130 134 137 137 134 133 133 134 136 137 137 134 131 127 119 116 107 101 96 95 93 88 87 86 85 88 88 88 85 85 79 77 75 74 72 74 75 81 83 83 83 83 81 83 87 89 92 97 94 94 94 94 94 95 99 98 98 98 99 99 99 99 98 97 96 95 94 94 94 94 95 99 99 100 100 99 99 99 99 99 99 101 105 109 112 113 113 113 107 105 101 97 97 97 97 97 98 102 103 103 104 104 104 105 112 116 123 129 134 140 146 146 146 144 141 141 141 145 153 159 159 159 157 151 148 148 148 148 152 158 161 163 164 165 167 167 164 163 162 160 160 159 156 154 150 149 148 145 143 142 142 142 138 138 138 138 135 128 120 115 107 103 101 93 86 74 65 62 62 64 65 73 76 77 76 76 68 74 74 77 80 81 84 95 104 99 99 98 93 88 88 97 97 97 97 97 93 93 93 93 93 98 99 105 105 105 104 104 105 106 103 98 97 95 92 88 86 81 73 69 73 83 83 83 83 83 84 85 85 84 81 76 66 63 66 68 80 85 92 98 101 103 108 110 111 114 115 118 120 122 128 136 143 146 148 149 150 151 152 153 153 153 153 151 151 148 145 143 141 137 133 130 129 127 125 124 123 123 120 120 119 119 120 121 122 123 124 124 
3 3 3 2 2 2 2 2 2 3 6 6 7 8 10 12 14 15 17 19 22 23 31 39 52 69 91 101 109 116 121 129 130 131 131 131 131 134 141 149 162 164 165 165 165 166 168 170 171 173 170 166 160 157 157 157 160 165 169 172 172 172 171 171 170 168 164 161 159 158 156 146 131 121 116 113 112 112 109 102 96 94 92 85 81 78 77 77 79 82 89 92 98 105 125 127 127 127 127 127 126 128 128 127 127 127 126 124 123 123 124 131 139 141 141 139 138 137 134 136 136 136 136 131 129 116 106 98 96 96 96 97 96 95 95 95 95 94 91 88 85 85 79 77 75 74 72 74 75 81 84 84 84 85 86 87 88 89 92 97 98 98 98 101 106 106 107 107 109 109 109 106 103 103 103 106 116 118 118 118 116 112 108 105 105 105 109 115 118 122 124 126 127 128 128 128 128 127 127 126 125 125 123 121 118 118 118 119 119 124 128 129 129 130 134 138 144 148 151 154 156 159 161 161 162 163 163 166 166 167 171 171 171 170 166 162 160 160 160 162 162 162 164 164 167 167 167 167 166 165 164 165 165 165 161 160 159 159 158 155 152 152 150 150 148 148 148 148 145 144 140 135 133 127 119 108 95 86 75 66 66 66 66 73 76 88 89 90 90 90 81 80 80 77 81 82 85 89 89 88 84 75 71 69 67 69 81 78 76 76 76 75 75 78 84 91 93 93 93 93 89 86 89 90 90 88 86 83 80 75 69 66 65 65 66 68 69 70 82 83 84 85 84 80 68 63 66 68 75 80 87 94 101 102 108 110 112 114 118 120 122 127 133 139 143 146 148 150 150 150 152 153 153 153 153 152 151 148 145 143 141 137 133 130 127 126 125 123 123 121 119 119 119 119 119 121 122 123 124 124 
3 3 3 3 2 2 2 2 2 3 4 6 7 8 8 11 12 14 16 17 21 23 31 40 51 69 91 106 114 121 129 133 133 132 132 132 132 139 146 156 164 165 165 165 167 167 168 170 171 170 166 160 156 154 155 156 161 166 169 170 171 170 168 168 166 161 161 159 159 158 156 146 135 119 116 113 113 113 113 111 102 96 93 89 85 80 77 77 80 82 97 105 118 127 131 132 131 131 131 129 129 132 132 128 127 127 127 127 124 124 130 136 141 141 141 139 137 136 134 133 132 130 130 119 108 103 103 98 96 96 96 100 100 100 95 95 95 95 91 90 90 88 89 89 88 82 74 74 79 83 84 85 87 88 91 97 98 99 101 109 115 116 119 122 124 125 125 125 121 121 121 122 122 122 123 123 128 132 133 133 133 127 124 124 124 127 130 130 130 132 137 137 140 141 142 142 142 141 140 140 140 140 140 138 137 137 136 137 138 139 144 144 145 145 150 155 157 159 161 161 162 162 162 164 165 167 173 173 173 174 174 174 174 173 172 169 167 167 167 167 170 172 168 168 168 169 168 168 168 167 167 168 169 169 169 167 165 164 164 164 159 158 158 158 158 158 156 156 155 153 149 145 145 141 136 128 119 113 102 90 82 77 73 76 85 88 90 98 100 102 100 100 82 81 81 82 85 85 85 84 78 72 69 67 52 52 58 58 58 63 64 63 66 66 69 78 84 85 86 85 84 79 78 78 78 78 81 78 70 66 66 63 63 63 64 64 64 64 66 70 80 83 82 80 78 74 70 75 76 77 83 89 97 102 108 110 113 119 121 123 127 133 137 143 145 148 149 150 150 151 152 153 153 153 153 152 151 148 145 143 141 137 133 130 127 125 124 122 121 120 119 118 118 118 119 120 122 123 123 124 
3 3 3 3 3 3 2 2 2 3 4 6 6 7 8 9 11 13 15 16 22 26 31 40 49 69 92 109 119 129 135 135 134 133 133 133 134 141 151 162 165 165 166 165 166 167 168 168 168 165 160 155 152 152 153 155 164 165 168 169 168 167 166 161 160 159 159 158 158 157 152 138 124 112 114 114 114 116 116 114 111 102 96 93 86 83 78 80 92 104 114 124 127 131 133 133 132 133 132 132 132 132 132 132 132 132 130 127 130 136 141 142 143 142 141 139 136 134 132 131 129 127 123 116 107 103 103 98 96 96 96 101 104 106 107 107 116 119 119 119 115 115 115 116 116 116 116 116 116 119 120 120 123 123 124 125 126 128 130 131 135 135 135 135 134 134 134 134 136 136 136 136 137 139 140 140 146 147 148 150 150 150 149 149 149 149 150 150 151 151 151 151 152 153 155 156 157 157 157 157 155 155 154 153 151 150 150 150 153 153 156 159 161 162 162 162 168 168 168 168 168 170 171 173 173 176 176 176 176 175 175 175 175 175 174 173 170 170 172 173 173 174 174 172 171 171 170 170 170 170 170 170 171 171 172 172 171 171 171 170 166 163 163 163 163 165 165 161 160 158 158 157 155 152 147 141 134 128 119 111 103 94 85 84 86 90 94 100 101 102 102 102 102 100 89 89 89 85 84 82 79 75 69 58 48 43 40 38 39 43 46 47 53 56 62 66 74 78 78 78 73 71 70 69 69 69 71 67 65 55 59 60 60 63 64 63 62 62 62 62 66 73 76 76 76 75 75 76 77 77 81 84 93 101 110 112 118 123 129 129 133 138 142 144 146 148 150 150 150 151 152 153 153 153 153 152 149 147 145 143 141 137 131 129 126 125 123 121 120 119 118 118 118 118 119 120 122 123 123 123 
3 3 3 3 3 3 2 2 2 3 4 5 6 7 8 8 9 12 14 15 22 26 30 40 49 69 95 114 122 135 139 139 135 133 133 133 139 146 156 163 165 166 165 165 165 165 164 165 164 159 154 148 150 150 151 155 162 165 165 166 165 160 160 158 157 157 157 157 157 152 138 124 111 111 112 112 114 116 118 117 114 106 101 94 89 86 86 97 113 118 125 128 131 132 134 135 134 134 134 133 133 134 135 135 136 137 138 139 141 142 142 143 144 144 141 139 137 134 131 130 128 123 116 116 103 101 103 108 108 101 112 114 119 129 134 134 140 144 144 144 139 139 139 141 141 141 141 141 145 148 148 148 147 147 147 147 148 149 150 150 150 149 149 148 147 146 146 146 146 146 148 150 152 155 158 160 160 161 162 165 165 165 162 162 162 161 161 161 161 163 163 163 164 165 165 166 167 167 167 167 164 164 163 163 162 161 160 160 160 162 164 166 168 168 169 169 173 173 173 173 173 174 176 177 179 181 181 179 178 177 176 177 177 177 177 176 175 173 174 174 174 174 174 174 174 172 171 170 170 170 171 171 172 172 172 172 172 172 172 173 171 167 166 166 167 167 169 167 165 162 160 159 157 155 152 151 147 141 134 128 119 114 108 100 94 94 101 101 105 105 107 102 110 104 107 104 97 86 84 84 83 80 72 58 52 43 40 34 33 33 33 39 43 47 51 56 62 70 72 71 70 69 69 69 67 67 65 64 54 54 54 59 60 62 63 62 59 59 59 59 59 64 68 70 73 74 75 76 77 77 80 82 84 101 110 113 123 129 131 133 137 141 145 147 150 150 150 150 150 151 152 152 153 153 152 151 149 147 145 142 140 136 131 128 125 124 122 121 119 119 118 118 118 118 120 121 122 123 124 124 
3 3 3 3 3 3 3 3 3 3 4 5 6 7 8 8 8 9 13 15 22 25 28 35 49 70 97 119 132 137 139 139 136 133 133 133 141 151 161 165 166 166 165 164 163 163 163 161 159 152 144 144 145 149 151 155 157 161 162 160 156 155 155 155 155 156 156 154 148 137 124 111 109 110 112 112 116 120 121 120 119 111 106 101 100 94 101 115 124 126 129 131 133 135 136 136 136 134 134 133 133 133 134 134 137 139 142 142 143 143 144 144 147 147 143 141 139 139 134 131 128 127 123 127 127 110 128 140 119 114 125 129 132 151 158 158 161 163 163 163 162 158 158 157 157 158 159 162 165 167 167 167 164 164 163 163 163 163 164 164 164 164 164 165 165 165 165 165 166 166 167 169 172 175 175 175 175 175 175 178 178 178 177 174 174 173 172 172 172 173 173 174 175 175 175 176 177 177 177 177 175 175 175 174 173 172 172 172 172 172 173 175 177 178 178 178 180 180 180 179 179 179 180 181 183 183 185 183 183 180 179 179 179 180 180 180 178 176 175 175 175 176 176 176 176 175 175 175 175 174 173 173 173 173 173 173 174 174 174 174 172 170 170 170 170 171 172 170 168 165 163 161 159 158 155 153 151 147 144 140 131 128 122 120 118 111 107 105 105 107 113 113 113 110 110 107 104 97 90 87 86 84 82 79 58 43 38 33 30 27 25 25 27 31 38 43 51 56 64 68 68 68 66 65 64 62 57 54 53 53 52 53 60 62 62 61 59 57 57 57 58 59 64 67 70 73 75 76 76 77 78 80 82 89 102 113 124 129 133 136 140 145 150 151 151 151 151 150 151 151 152 152 152 152 152 150 148 146 144 142 138 135 129 125 124 123 122 120 119 118 118 118 118 119 120 121 123 123 124 124 
3 3 3 3 3 3 3 3 3 3 4 5 6 7 8 8 8 9 13 15 21 25 27 33 51 70 99 122 134 137 137 139 136 134 135 139 146 157 161 164 165 165 165 163 162 160 159 157 151 144 140 142 144 149 154 155 156 156 156 153 147 147 147 147 147 147 147 140 133 124 111 108 106 110 112 116 121 124 127 127 121 120 113 108 106 109 120 129 129 129 131 134 136 137 138 137 137 137 135 133 133 133 134 137 140 142 143 144 144 146 147 147 149 149 148 148 142 139 139 139 139 152 152 154 154 154 156 162 146 145 151 154 157 170 170 170 171 171 171 171 170 169 166 163 163 163 165 169 171 171 171 171 171 170 170 170 170 171 172 173 175 176 177 179 181 183 184 184 184 184 184 184 184 184 184 184 182 182 182 184 184 185 182 182 180 180 180 180 180 180 180 180 180 180 180 181 182 182 182 181 181 181 180 180 179 179 179 179 179 179 181 182 183 184 184 184 184 183 182 182 182 182 182 183 184 186 186 186 184 183 183 182 182 183 184 183 182 180 178 178 178 178 177 177 177 176 176 176 176 176 176 176 174 174 174 174 174 174 175 174 173 171 171 172 172 173 173 172 170 168 165 163 162 159 157 156 153 152 150 144 140 135 133 133 132 132 131 122 116 116 113 116 116 117 117 116 112 107 100 93 90 87 86 85 79 63 41 34 30 26 24 23 24 24 24 30 34 40 48 54 66 66 66 65 62 59 54 53 51 47 47 49 52 52 61 59 58 57 56 56 56 56 59 62 65 67 68 71 74 76 77 78 81 83 95 110 122 129 134 140 145 150 152 153 152 152 151 151 151 151 152 152 152 152 151 150 148 145 143 141 137 133 128 125 123 122 121 119 118 118 117 117 118 118 119 121 122 123 124 124 
4 4 3 3 3 3 3 3 3 3 4 5 7 8 8 8 8 10 13 15 20 23 26 33 52 77 106 125 133 134 136 136 136 135 137 143 152 158 160 163 164 163 160 160 158 157 152 150 142 137 137 137 143 150 155 155 155 154 147 146 142 137 135 135 135 135 133 124 115 107 104 104 106 111 117 121 124 127 130 130 129 125 121 120 120 129 135 139 139 140 142 143 143 143 143 142 139 138 137 135 134 135 138 140 142 146 149 151 151 150 150 150 151 151 155 156 157 158 163 167 167 170 170 170 172 172 172 176 176 176 180 181 182 182 182 182 182 182 178 178 178 177 177 175 175 175 177 178 178 178 178 178 178 178 179 180 180 183 184 185 186 187 187 188 189 189 189 190 189 189 189 188 187 186 186 186 185 185 186 187 187 187 187 187 185 185 186 186 186 186 183 183 183 183 184 185 185 185 184 184 184 184 184 184 183 183 183 183 183 183 185 186 186 186 186 186 185 184 183 182 182 182 183 184 185 187 187 186 186 185 184 184 184 184 184 184 183 182 181 178 178 178 178 178 177 177 177 176 176 177 178 178 177 176 176 175 175 175 174 173 173 172 172 172 173 174 173 172 170 168 167 165 163 161 159 157 155 153 152 150 144 142 140 139 138 139 138 138 134 134 127 127 125 123 122 122 118 117 111 99 94 93 90 86 83 79 68 52 35 26 24 23 19 19 19 19 19 20 21 31 47 54 62 62 59 55 53 49 47 45 44 47 51 52 52 52 47 45 45 45 49 51 51 52 59 64 65 67 64 64 64 66 73 80 84 101 110 123 133 140 148 152 153 154 153 153 152 151 151 151 152 152 152 151 151 150 148 145 142 139 135 131 127 124 122 121 120 119 118 117 116 116 117 118 119 120 121 122 123 123 
4 4 3 3 3 3 3 3 3 3 4 5 7 8 8 8 8 12 13 16 19 22 26 33 63 88 117 125 129 132 135 135 135 136 141 149 156 158 159 159 159 156 152 152 152 150 142 137 130 132 135 137 148 151 155 155 153 146 142 137 135 134 129 127 126 122 115 107 105 102 103 105 110 114 120 124 126 130 135 135 135 134 127 125 134 139 145 146 151 152 152 150 147 144 143 143 143 142 141 139 140 140 142 146 151 153 157 159 159 159 159 159 160 160 164 166 169 171 174 175 176 176 176 177 177 178 179 181 181 182 182 182 184 185 187 188 189 189 185 185 185 185 185 186 186 187 187 187 186 183 183 183 184 184 185 186 188 189 190 192 192 192 192 191 191 190 191 191 191 191 191 190 189 189 189 189 189 189 189 189 189 189 189 189 189 188 188 189 188 188 188 188 188 188 189 189 189 189 188 188 188 188 188 188 187 187 187 187 187 187 187 187 187 187 187 186 186 186 185 184 183 183 184 185 186 187 187 187 186 185 185 184 184 184 184 184 184 183 182 180 178 178 178 178 178 177 177 177 177 178 178 178 178 177 176 176 175 174 173 173 173 172 172 172 172 173 172 172 170 169 168 167 165 163 160 159 157 156 154 152 150 144 143 142 140 140 139 138 136 136 134 132 128 127 125 123 122 122 122 112 102 101 99 94 90 85 81 76 63 49 35 25 19 19 19 18 18 18 18 20 23 31 44 52 52 52 49 48 45 43 43 46 49 52 52 48 44 43 36 32 32 36 37 43 51 51 54 54 55 57 59 61 63 64 73 85 102 111 126 140 149 153 156 157 157 153 151 151 151 151 152 152 152 151 150 149 148 144 141 137 133 130 125 123 122 121 119 118 117 116 116 116 116 117 118 119 120 121 122 122 
4 4 3 3 3 3 3 3 3 3 4 5 7 7 8 8 9 12 14 17 18 21 28 39 72 98 117 125 127 129 129 132 134 136 143 151 153 156 158 156 150 143 140 139 139 137 130 125 128 128 132 140 149 151 154 149 146 140 135 131 127 125 121 115 108 104 98 99 101 101 102 108 112 117 121 124 127 134 136 137 137 135 134 135 143 146 150 152 154 155 155 153 153 152 150 148 148 148 150 150 153 154 155 155 158 160 163 164 164 165 168 170 175 176 176 176 177 177 177 178 178 178 178 180 181 184 185 185 183 184 185 186 187 188 189 189 190 191 191 190 190 190 190 191 191 193 192 191 190 189 187 187 189 189 189 190 192 193 193 193 193 193 193 193 192 192 191 191 191 191 191 191 191 192 193 194 194 194 194 194 193 191 191 191 191 191 191 191 191 191 191 191 191 190 190 190 190 190 190 189 189 189 189 189 189 189 189 189 189 189 190 190 190 189 188 187 187 186 186 185 185 185 185 185 187 187 187 187 186 186 185 185 184 184 184 184 183 183 182 182 180 179 179 179 178 178 178 178 178 178 178 178 178 177 176 176 175 174 173 173 172 172 172 172 172 172 172 171 170 169 168 168 167 165 163 161 159 158 157 154 152 149 145 143 143 142 140 138 137 136 135 133 131 128 127 127 127 128 130 129 126 121 106 100 93 92 92 90 90 84 67 51 35 25 19 19 15 15 15 18 20 24 30 34 43 45 45 43 43 42 43 44 48 49 49 47 43 36 32 27 21 23 26 36 39 47 51 51 53 54 54 59 59 63 66 71 85 104 118 129 147 153 156 158 158 154 153 151 151 151 152 152 152 151 150 149 148 144 140 136 132 128 124 122 121 120 118 117 116 116 115 115 115 116 116 118 119 119 120 120 
3 3 3 3 3 3 3 3 3 3 4 5 6 7 8 8 10 12 14 17 18 21 31 46 75 102 117 125 125 125 125 129 134 141 148 153 153 153 151 144 139 136 129 128 128 125 121 121 125 128 132 139 145 149 149 145 135 131 125 123 116 110 103 99 91 90 96 97 98 101 104 111 115 117 121 124 129 136 137 138 138 137 137 143 148 151 154 157 158 158 157 157 155 154 153 152 152 153 156 160 164 164 165 165 168 170 170 170 170 172 177 178 178 179 180 180 184 185 185 185 184 184 184 185 188 189 189 189 188 188 187 188 188 189 191 191 191 192 193 194 195 195 195 195 195 194 194 193 193 193 192 193 194 194 193 193 193 193 193 194 194 194 194 194 194 194 194 194 194 194 193 193 193 194 194 195 195 195 195 195 195 194 194 193 192 191 192 191 191 192 191 191 191 191 191 191 190 190 190 190 189 189 189 189 189 189 189 189 190 190 191 191 190 190 189 188 188 188 187 187 187 188 188 188 188 188 187 186 186 186 185 185 184 184 184 184 184 183 183 182 182 180 179 179 179 179 178 178 178 178 178 178 177 177 176 176 175 174 173 173 172 172 172 172 172 172 171 170 170 169 168 168 167 165 164 163 161 159 158 155 152 151 148 144 143 141 139 138 136 136 134 133 131 128 127 127 127 128 130 129 126 122 121 120 111 105 102 102 102 102 97 89 72 52 40 29 15 15 15 20 21 24 26 26 26 34 34 34 36 36 42 43 47 49 48 47 41 36 29 21 18 19 21 24 33 39 47 50 50 50 50 54 59 60 63 67 74 92 110 124 142 150 154 157 157 154 153 151 151 151 152 152 152 152 150 149 148 143 139 135 131 128 123 121 120 118 117 116 115 115 115 115 115 115 115 116 117 118 119 119 
2 2 2 2 2 2 2 3 3 3 4 4 5 6 7 8 9 12 14 17 18 25 38 59 87 109 120 122 125 122 122 125 133 143 150 153 153 151 142 136 129 127 127 124 123 119 118 118 125 128 132 139 139 144 137 131 126 121 118 110 101 98 90 87 86 89 90 96 97 101 109 113 116 118 121 125 133 138 138 140 141 141 143 149 153 156 160 163 163 163 162 162 162 162 162 163 165 165 166 167 168 170 172 173 175 175 176 177 178 178 181 181 182 182 183 185 186 187 188 188 188 188 189 189 189 190 191 192 192 192 192 192 192 192 192 192 193 194 195 196 196 196 196 196 196 195 194 194 193 193 193 194 194 194 194 194 194 194 194 194 194 194 194 194 194 194 194 194 194 194 194 194 194 194 195 195 195 196 195 195 195 195 194 194 193 192 192 192 192 192 192 191 191 191 191 191 190 190 190 190 190 190 189 189 190 190 190 190 190 191 191 191 191 190 190 189 188 188 188 188 188 188 188 188 188 188 187 186 186 186 185 185 185 184 184 184 184 184 183 183 182 182 180 180 179 179 179 179 178 178 178 178 177 177 176 176 175 174 173 173 172 172 172 172 172 171 171 170 169 169 168 168 167 165 165 164 163 161 160 158 155 152 149 145 143 141 138 136 136 134 133 133 129 128 126 126 127 128 130 129 126 122 121 120 111 110 108 106 105 105 104 104 97 89 79 58 40 29 29 29 29 29 26 24 25 24 24 26 26 29 30 33 42 47 47 45 40 36 30 21 18 16 16 19 24 33 42 46 46 45 45 46 56 59 60 64 67 85 103 117 134 147 151 154 154 154 153 151 151 152 153 153 153 152 150 149 145 142 138 134 130 125 121 120 118 117 115 115 115 115 113 113 113 114 114 115 116 117 117 118 
2 2 2 2 2 2 2 3 3 3 4 4 5 6 6 7 9 11 14 17 19 31 46 70 91 110 120 121 122 121 121 125 134 144 152 152 151 142 136 127 123 123 121 117 115 116 116 118 125 130 132 138 138 131 127 124 118 112 103 98 88 87 83 83 83 86 89 94 100 105 111 116 117 120 124 128 133 138 140 141 143 146 149 153 157 161 164 166 166 167 169 169 169 170 172 172 173 173 173 173 174 175 175 176 176 178 178 179 180 181 182 182 183 183 185 187 188 188 189 189 189 189 189 189 191 192 192 193 193 193 192 192 192 192 192 193 194 195 196 197 197 197 196 196 196 196 195 194 194 194 194 194 195 195 195 195 195 195 195 194 194 194 194 194 194 194 194 195 195 195 194 194 194 195 195 196 196 196 196 196 196 196 195 194 193 193 193 192 193 194 193 192 191 191 190 190 190 190 190 190 190 190 190 190 190 190 191 191 191 191 191 191 191 191 190 190 189 188 188 188 188 188 188 188 188 188 187 186 186 185 185 185 185 185 184 184 184 184 184 184 183 182 181 181 180 179 180 179 179 179 178 177 177 177 176 176 175 174 173 173 172 172 172 171 171 171 171 170 169 168 168 167 167 165 165 165 164 164 163 159 157 155 152 148 144 141 138 137 136 134 133 133 129 128 125 124 124 123 123 122 121 121 121 116 111 110 108 106 105 105 104 104 102 97 97 94 79 70 50 39 39 34 30 26 25 23 23 24 24 22 24 24 27 30 40 40 39 33 27 24 19 17 16 16 19 24 35 37 37 37 39 40 47 58 59 63 67 76 91 109 126 142 148 154 154 154 153 153 151 153 153 153 153 153 151 149 144 140 136 132 129 125 121 117 117 115 115 113 113 111 111 111 111 112 113 114 115 116 116 118 
2 2 2 2 2 2 2 3 3 4 4 4 5 5 6 7 8 10 14 17 25 38 59 80 99 114 118 120 121 121 121 127 136 146 148 148 148 138 127 121 115 113 113 112 112 115 116 121 126 132 137 138 135 130 124 118 111 98 91 88 87 83 82 81 82 83 89 95 102 109 114 117 120 121 127 133 138 140 141 142 146 150 155 158 163 165 166 169 171 173 175 175 175 176 177 177 177 177 177 178 177 178 178 178 178 178 179 181 181 182 183 183 184 185 187 188 189 190 191 191 190 190 190 191 192 193 193 193 193 193 193 193 193 193 193 194 195 196 197 198 198 198 197 196 196 196 195 194 194 194 194 194 195 195 195 195 195 195 195 194 194 194 194 194 194 194 194 194 195 195 195 195 195 195 196 196 196 196 196 196 197 197 197 194 193 193 193 193 194 194 194 192 191 190 190 190 190 190 190 190 190 190 190 191 191 191 192 192 191 191 192 191 191 191 191 190 190 189 189 188 188 188 188 188 188 188 187 186 186 185 185 185 185 185 185 185 186 186 186 185 184 183 183 181 180 179 179 179 179 179 179 178 177 177 176 176 176 175 174 173 172 172 171 171 171 171 170 170 169 168 168 167 167 165 165 165 165 165 163 161 158 157 155 151 148 144 141 139 137 136 134 133 132 129 125 124 124 123 122 121 119 113 111 110 110 108 108 106 105 105 104 104 102 102 102 98 96 87 78 71 52 50 44 35 26 24 24 23 21 21 20 19 20 19 24 27 28 28 26 24 21 19 17 15 16 17 25 35 35 35 35 37 43 53 56 59 64 71 85 102 117 134 145 151 153 154 154 153 153 153 155 155 155 154 151 149 143 140 136 132 129 124 119 117 115 114 113 113 111 110 109 109 109 111 112 113 114 115 115 116 
3 3 3 3 3 3 3 3 4 4 4 4 4 5 6 7 9 11 14 20 32 47 70 91 108 114 117 118 120 121 121 128 136 144 146 146 141 132 123 115 113 111 108 110 112 115 116 125 131 137 138 137 130 126 118 102 91 88 88 86 84 83 80 80 82 83 90 100 106 114 117 120 124 127 133 137 140 142 144 149 154 157 162 163 166 168 170 173 175 175 176 176 177 178 178 178 178 178 178 179 179 180 180 180 180 181 181 182 183 184 184 185 185 187 188 190 192 192 193 193 192 192 192 192 193 193 193 194 194 194 194 194 195 195 195 196 197 198 199 199 199 198 198 197 196 196 196 195 194 194 194 194 194 195 195 195 195 195 195 194 194 194 194 194 194 194 194 194 195 195 196 195 195 196 196 196 196 196 196 196 197 197 197 195 194 194 194 194 194 194 194 192 191 190 190 189 189 190 190 191 191 191 191 191 191 191 192 192 191 191 192 191 191 191 191 191 190 190 189 189 188 188 188 188 188 188 187 186 185 185 185 185 185 185 185 185 186 186 186 185 184 183 183 182 181 180 180 180 180 179 179 179 178 178 177 177 176 176 174 174 173 172 172 172 171 171 170 170 169 168 168 167 165 165 164 165 165 165 164 162 160 158 157 155 152 148 145 141 141 141 140 140 139 135 132 130 125 124 122 121 118 113 111 110 109 108 101 101 100 96 96 96 97 98 102 98 96 87 79 76 74 71 64 58 44 30 25 25 24 24 22 20 20 19 24 24 24 26 24 22 19 18 17 15 14 15 15 25 32 32 34 34 34 49 54 57 60 64 76 91 109 127 139 148 151 154 156 156 156 156 157 156 155 155 152 149 144 140 136 132 129 124 118 116 115 113 113 111 110 110 109 107 107 109 111 112 113 114 114 116 
3 3 3 3 3 3 3 4 4 4 4 4 4 5 6 8 10 12 17 27 43 61 80 99 113 114 116 118 119 121 124 128 136 141 142 141 138 130 120 113 109 108 107 108 112 115 123 128 137 138 138 137 126 118 98 86 83 84 85 84 83 82 79 79 82 86 95 105 114 120 124 128 133 137 140 142 144 149 150 155 160 163 167 168 170 171 173 175 176 178 178 178 178 179 179 179 179 179 179 180 182 182 183 183 183 184 185 185 186 186 187 187 187 189 190 192 194 194 195 196 196 196 196 196 195 195 195 194 194 194 195 195 196 196 197 198 199 199 199 199 199 199 198 198 196 196 196 195 195 194 194 194 194 194 194 194 195 195 195 195 195 194 194 194 194 194 194 195 196 196 196 197 197 196 196 196 196 196 196 196 197 197 197 195 194 194 194 194 194 194 194 193 191 191 190 190 190 190 191 191 191 191 191 191 192 192 192 192 192 192 192 192 192 192 191 191 191 190 189 189 189 188 188 188 188 188 187 185 185 185 185 185 185 185 185 185 186 186 186 185 184 183 183 181 181 180 180 180 180 180 180 179 179 179 178 178 177 176 175 174 174 173 173 172 172 171 171 170 169 169 168 167 165 164 164 164 164 164 164 162 160 160 158 157 156 155 155 154 154 153 152 150 145 141 135 132 129 124 120 117 113 110 110 108 107 104 99 95 93 89 88 81 81 89 89 96 94 79 78 76 74 71 71 75 75 63 44 30 29 25 25 24 24 21 24 24 24 24 24 20 19 18 15 14 12 12 13 23 30 31 34 34 37 45 53 54 58 60 75 86 102 121 134 145 151 154 156 156 157 159 159 159 157 155 154 150 145 142 137 133 129 124 118 116 115 113 111 110 110 109 107 107 107 107 110 111 112 114 114 115 
4 4 4 4 4 3 4 4 4 4 4 4 4 5 7 9 11 14 21 38 60 80 96 110 114 116 117 117 118 119 121 127 136 139 139 138 137 129 120 109 108 107 106 108 115 123 125 132 138 139 138 138 126 98 70 67 68 80 84 84 83 78 77 78 81 95 105 116 122 128 134 139 147 149 150 150 151 154 155 160 163 167 170 171 171 173 174 177 178 178 178 178 178 179 180 180 180 181 182 184 185 185 186 186 186 186 187 187 188 188 189 189 190 191 193 194 195 196 196 196 196 196 198 197 196 195 195 195 195 195 196 196 197 197 198 199 200 200 200 200 199 199 198 197 196 196 196 196 195 195 194 194 194 194 194 194 194 195 195 195 195 195 194 194 194 194 195 196 196 196 197 197 197 197 197 196 196 196 196 196 197 197 197 196 194 194 194 194 194 194 194 194 192 191 191 190 190 191 192 191 191 191 191 192 192 192 193 193 193 193 193 192 192 192 192 192 191 191 190 189 189 189 188 188 188 188 186 185 185 184 184 185 185 185 185 185 184 184 183 183 183 183 181 181 180 180 180 180 180 180 180 180 180 180 179 179 178 177 176 175 174 174 174 173 173 172 171 171 170 169 168 167 166 165 164 165 164 164 163 161 160 160 159 158 157 156 155 155 154 154 152 150 145 141 137 132 129 124 119 114 109 107 105 105 101 95 93 91 88 86 79 68 66 66 71 73 76 76 74 71 71 71 72 76 80 81 81 81 59 37 33 31 25 31 33 25 24 24 20 19 18 17 14 12 12 12 12 15 27 32 34 36 38 44 52 53 56 60 73 79 95 115 127 139 151 154 156 157 158 159 159 159 159 157 154 151 147 143 139 134 131 125 119 116 115 114 111 110 110 109 107 106 106 107 110 111 112 113 114 116 
4 4 4 4 4 4 4 4 4 4 4 4 4 6 8 10 12 18 32 56 77 94 108 113 114 115 115 116 117 119 125 132 136 138 138 138 135 129 115 109 108 108 109 112 122 128 133 137 139 142 142 136 110 70 61 61 64 68 77 80 80 78 77 78 95 106 119 128 137 143 150 154 157 156 155 155 156 156 160 164 168 170 171 171 173 174 176 178 178 178 179 179 179 179 180 180 182 183 185 187 187 187 187 187 187 187 189 189 189 190 190 190 191 191 194 195 196 196 196 196 196 198 198 198 196 196 195 195 195 196 196 197 197 197 198 199 200 200 200 200 199 198 197 197 196 196 196 196 196 195 195 194 194 194 194 194 194 195 195 196 196 195 195 195 195 195 195 196 196 197 197 198 198 197 197 197 196 196 196 196 196 196 196 195 195 194 194 194 194 194 194 193 192 191 191 191 191 191 192 192 192 192 192 192 192 192 193 193 193 193 193 193 192 192 192 192 191 191 191 190 190 189 189 188 188 188 186 185 184 184 184 184 184 185 184 184 183 182 182 181 181 181 181 181 180 180 180 180 180 180 180 180 180 180 180 179 179 178 177 176 175 175 174 174 173 173 172 171 170 169 168 167 166 165 164 164 164 163 163 162 160 160 160 159 157 156 155 155 154 154 152 150 145 140 136 132 127 121 114 107 105 105 105 104 98 94 91 88 85 76 66 62 60 57 55 58 58 63 66 66 63 64 70 72 80 81 81 86 81 78 75 70 67 53 52 49 43 35 24 18 15 15 14 12 12 13 13 17 27 34 35 38 40 43 51 53 55 62 73 79 93 106 121 130 143 153 156 157 159 160 160 160 159 159 154 151 147 144 139 134 131 125 119 116 115 114 112 110 110 108 107 107 107 107 110 111 112 114 116 117 
4 4 4 4 4 4 5 4 4 4 4 4 5 7 8 12 14 31 42 73 93 108 113 114 114 114 114 115 116 119 124 129 133 136 137 136 131 123 112 108 108 109 112 122 127 132 133 136 138 142 138 127 94 66 55 55 59 65 73 77 80 82 87 98 117 128 140 147 150 156 161 161 161 161 161 158 158 162 166 168 170 170 171 172 173 175 177 178 178 179 179 179 179 180 180 182 183 184 186 188 188 188 188 187 188 189 190 190 190 191 191 191 191 192 194 195 196 196 196 196 198 198 199 198 197 196 195 195 196 196 197 197 197 197 198 199 200 199 197 197 197 197 197 197 196 196 195 195 195 195 195 195 194 194 194 194 195 195 196 196 196 197 196 196 195 195 196 196 197 197 198 198 198 198 197 197 196 196 196 195 195 195 195 195 195 194 194 194 194 194 194 193 192 192 191 191 191 192 192 192 192 192 192 192 192 192 192 192 192 193 193 192 192 192 192 192 191 191 191 190 190 190 189 188 188 187 186 185 184 184 184 184 184 184 183 181 181 181 181 181 181 181 181 180 180 180 180 180 180 180 180 180 180 180 180 180 179 178 177 176 175 175 175 174 174 173 172 171 170 170 168 167 166 165 164 164 163 163 163 162 160 160 160 160 157 155 155 154 152 149 144 142 140 137 133 127 121 114 107 104 94 86 85 86 89 90 89 79 68 63 60 60 57 53 51 51 49 49 55 62 54 61 61 54 54 76 81 86 81 81 89 90 94 94 79 62 53 49 43 28 18 15 14 14 13 14 16 20 34 35 38 40 42 43 47 52 55 62 72 79 90 103 116 127 135 146 154 157 158 159 159 159 159 159 154 150 147 144 139 134 131 125 119 116 115 113 112 111 110 108 107 107 107 108 110 111 113 114 116 118 
12 9 6 6 5 5 5 5 4 4 4 4 6 7 9 12 18 33 56 89 108 116 118 118 116 115 115 115 116 117 121 126 129 133 134 130 123 115 106 106 106 109 119 124 130 132 133 134 136 136 130 102 68 54 54 54 58 62 72 76 80 87 98 117 133 147 150 153 157 161 164 165 165 165 165 165 165 165 167 169 170 170 171 172 174 175 177 178 178 178 179 179 179 180 180 182 183 185 187 187 188 187 187 188 188 189 190 190 191 191 191 191 192 192 193 195 196 196 196 196 198 198 198 198 196 195 195 196 196 197 197 197 197 197 197 197 197 197 197 197 197 197 197 197 196 195 195 195 195 195 195 195 196 195 195 195 195 196 196 197 197 197 197 197 196 196 196 197 197 198 198 198 198 198 197 197 197 196 196 195 195 195 195 195 195 195 194 194 194 194 194 193 193 192 191 191 191 192 192 192 192 192 192 192 192 192 192 192 192 192 192 192 192 192 192 192 191 191 190 190 190 189 189 188 188 187 185 184 183 183 184 184 184 183 180 179 180 180 180 180 180 180 180 180 180 180 180 180 180 180 180 180 180 180 180 179 179 178 178 177 175 175 175 174 174 173 173 171 170 169 167 167 166 165 165 164 163 163 163 163 161 160 160 157 155 155 154 152 149 145 142 141 138 136 131 124 118 111 104 95 86 84 81 71 62 61 61 61 61 62 60 59 57 52 48 48 46 42 45 48 49 50 50 48 46 46 51 61 78 79 89 90 94 97 97 90 88 71 55 45 29 17 15 15 16 16 19 27 39 45 45 44 42 43 45 51 55 62 71 75 89 96 109 121 129 143 150 155 157 158 159 159 159 159 154 150 147 143 138 133 129 124 119 115 114 113 112 110 109 108 107 107 107 108 110 112 114 116 120 121 
19 16 13 10 9 6 6 6 5 5 6 6 6 7 9 14 32 42 73 96 112 119 119 118 116 115 115 116 116 117 119 121 126 127 124 120 115 110 104 104 104 109 119 127 131 133 133 133 133 131 118 93 65 54 51 51 55 61 68 76 80 98 117 133 148 152 154 156 159 162 165 165 165 165 165 165 166 166 168 169 169 170 171 173 174 175 176 177 178 178 178 179 179 180 180 182 183 184 186 187 187 187 187 187 188 190 190 190 191 192 192 192 192 192 192 194 196 195 196 196 198 198 198 197 196 195 195 196 197 197 197 197 197 197 197 197 197 197 197 197 197 197 197 197 197 196 195 195 195 195 195 196 196 196 195 196 196 196 196 197 197 197 198 198 198 197 197 197 198 198 198 198 197 197 197 197 197 196 196 195 195 195 195 195 195 195 194 194 194 194 194 193 192 192 191 191 191 191 192 192 192 193 193 193 193 193 193 192 192 191 191 192 192 192 191 191 190 189 189 189 189 189 188 188 187 186 185 184 183 183 183 183 183 182 179 178 178 179 179 180 179 178 178 178 179 179 180 180 180 180 180 180 180 180 179 179 178 178 177 176 175 175 175 174 174 173 172 170 168 167 167 166 166 165 164 163 163 163 163 163 162 160 157 156 155 154 153 151 149 144 142 140 138 134 131 124 117 108 100 94 85 81 75 67 61 57 53 55 59 60 60 60 59 54 50 47 42 39 39 40 44 45 44 41 38 33 31 32 46 60 75 89 94 97 97 98 97 97 88 71 49 35 23 19 19 20 27 35 45 54 54 51 44 44 45 49 52 58 69 75 86 93 105 118 125 133 143 151 156 157 158 159 159 159 154 150 147 143 138 133 129 124 119 115 114 113 112 110 109 107 107 107 108 109 110 112 114 117 120 121 
32 28 24 20 15 10 10 9 6 6 6 6 6 7 9 16 33 51 89 108 113 118 118 116 114 113 113 113 113 113 117 120 121 123 121 118 115 108 104 104 104 110 119 126 131 132 133 133 131 123 102 75 56 51 50 50 54 59 66 76 89 111 133 148 152 156 157 157 160 163 165 165 165 165 165 166 166 167 169 169 169 170 170 172 174 174 175 177 178 178 178 179 179 180 180 181 183 184 186 186 187 186 187 187 188 189 190 190 191 192 192 192 192 192 192 192 195 195 196 196 198 198 198 197 195 195 195 196 197 197 197 197 197 197 197 197 197 197 197 197 197 197 197 197 197 196 195 195 195 195 195 196 196 196 196 196 196 196 196 197 197 197 198 198 198 198 198 198 198 198 197 197 197 197 197 197 197 196 196 195 195 195 195 195 195 195 194 194 193 194 193 193 192 192 191 191 191 191 192 192 193 193 194 194 194 195 193 192 191 191 191 192 191 191 191 190 189 189 189 189 188 188 188 188 187 187 186 184 183 183 183 183 183 180 178 178 178 178 179 180 179 178 178 178 178 178 179 179 179 179 179 179 179 179 179 178 178 178 177 176 175 175 174 174 173 172 170 169 167 167 166 166 165 165 164 163 163 163 163 163 162 160 157 157 155 154 153 151 149 146 143 142 140 136 131 128 121 112 104 95 89 81 72 67 61 55 52 53 55 59 60 60 62 58 54 50 42 39 39 39 39 40 38 33 30 29 27 25 27 32 46 60 70 79 90 97 98 102 102 98 87 69 49 35 32 32 43 48 62 62 58 55 49 45 45 48 51 57 65 75 83 92 99 113 121 128 135 146 153 157 158 159 159 159 154 150 147 143 138 133 129 124 119 115 114 113 112 110 108 107 107 107 108 109 110 112 114 117 120 121 
48 44 39 33 24 20 16 14 9 6 6 6 6 7 11 20 40 58 96 107 111 113 114 113 113 113 113 111 110 110 113 117 119 121 121 118 115 108 105 105 105 110 119 126 131 132 132 132 127 116 93 65 51 49 49 49 51 56 66 79 99 124 144 151 155 156 157 159 160 163 165 165 166 166 166 166 166 168 169 169 169 170 170 171 173 174 174 176 177 178 178 179 179 180 180 181 183 183 185 186 186 186 187 187 188 189 189 190 190 191 192 192 192 192 192 193 195 195 196 197 198 198 198 197 195 195 195 196 197 197 197 197 198 198 198 198 198 198 198 198 198 198 198 198 198 197 196 195 195 195 195 195 196 196 196 196 196 196 196 196 197 198 198 199 199 199 198 198 198 197 197 197 197 197 197 197 196 196 196 196 195 195 196 196 195 194 194 193 193 194 193 193 193 192 192 191 191 191 192 193 193 194 195 195 196 196 195 193 192 191 191 192 191 191 191 190 189 189 188 188 188 188 188 187 187 186 186 185 184 184 184 184 183 181 178 178 178 177 178 178 178 178 178 178 178 178 178 178 178 178 178 178 178 178 178 178 177 176 175 175 174 174 173 173 172 171 170 168 167 166 166 166 165 164 163 163 163 163 163 162 162 160 158 157 157 156 154 153 151 147 145 143 141 139 135 131 124 114 108 99 94 86 79 71 67 62 52 53 55 59 60 64 66 69 60 55 46 39 34 33 32 32 30 27 26 24 23 23 23 27 28 30 44 57 70 79 93 98 102 101 98 95 83 68 49 48 57 64 69 66 65 57 51 48 48 49 51 54 59 72 79 87 96 109 116 125 133 140 149 154 158 159 159 159 154 150 147 143 138 133 129 124 119 115 114 113 111 110 108 107 107 107 109 109 110 112 114 117 120 121 
66 62 57 50 39 33 24 18 14 9 8 7 8 9 15 24 48 65 101 107 108 110 111 111 111 110 110 109 108 108 110 116 119 120 123 119 115 110 105 105 105 113 122 126 131 132 132 130 123 103 79 56 49 48 47 49 50 56 67 89 115 136 151 156 156 157 158 159 162 164 166 166 166 166 166 166 167 168 169 169 170 170 171 171 172 174 174 175 177 177 178 179 179 180 181 182 183 184 184 186 186 186 187 188 189 189 189 190 190 190 192 193 193 193 193 194 195 195 196 197 198 198 198 197 196 196 196 197 197 198 198 198 198 198 198 198 198 198 198 198 198 198 198 199 198 198 197 196 195 195 195 196 196 196 196 196 196 196 196 196 197 197 198 199 199 199 199 199 198 198 197 197 197 197 197 197 196 196 196 196 196 196 196 196 196 195 194 193 193 194 194 193 193 193 192 192 191 192 193 194 195 196 196 196 196 196 195 195 193 192 191 192 191 191 191 190 189 188 188 188 188 187 187 186 186 186 186 185 185 185 184 183 182 181 178 178 178 178 178 178 178 178 178 178 178 178 178 178 178 177 176 176 176 176 176 176 175 175 174 174 173 173 172 171 170 170 169 167 166 166 166 165 165 164 163 163 162 162 162 162 162 160 158 158 158 157 156 154 152 149 147 145 143 141 138 132 128 118 111 104 97 90 83 73 71 69 63 59 59 63 64 65 66 70 67 67 62 51 40 33 32 32 29 26 24 22 22 22 23 23 24 27 29 39 47 57 73 84 96 98 98 95 87 82 69 68 68 69 71 71 71 59 54 51 50 50 53 57 59 66 75 82 92 103 113 121 128 134 144 152 156 159 159 159 154 150 147 143 138 133 129 124 119 115 114 113 111 109 107 107 107 107 109 109 110 112 114 117 120 121 
84 81 76 67 57 50 39 32 22 16 14 9 13 14 19 25 54 70 102 107 107 108 109 110 109 109 109 108 106 106 109 116 121 125 125 123 117 111 105 105 105 115 124 129 133 133 133 127 116 94 65 49 47 45 45 46 49 58 77 105 130 146 156 156 157 158 159 162 164 165 166 166 166 166 166 167 167 168 169 170 170 171 171 172 173 173 174 175 177 177 178 178 180 181 181 182 183 184 184 185 186 187 187 189 190 190 190 190 190 190 193 194 194 194 194 194 196 196 196 197 197 198 198 198 197 197 197 198 198 199 199 199 199 199 199 199 199 199 199 199 199 199 199 199 199 198 197 196 196 195 196 196 196 196 196 196 196 196 196 196 196 197 198 199 199 199 199 199 198 198 198 198 198 197 197 197 196 196 196 196 196 196 197 197 197 196 194 194 194 194 194 193 193 193 193 192 192 193 195 196 197 197 197 196 196 196 195 194 193 193 192 192 192 191 190 189 189 188 188 188 187 187 186 186 186 186 186 185 185 185 184 183 182 181 179 179 178 178 178 178 178 178 178 178 178 178 177 176 176 175 175 175 175 175 175 175 174 174 173 173 172 171 170 170 169 169 168 167 166 166 165 165 164 164 163 162 162 162 162 162 161 160 159 158 158 158 158 156 153 151 148 146 144 142 140 135 130 123 117 108 100 94 86 79 72 70 69 66 64 64 64 65 66 70 67 67 62 57 55 53 39 35 29 26 26 24 23 23 25 27 26 25 27 31 35 44 53 62 74 84 87 88 84 82 75 69 69 69 71 71 71 64 57 54 53 53 54 59 61 63 71 78 87 100 108 115 121 129 138 149 154 157 157 157 153 150 147 143 138 133 129 124 119 115 114 113 110 108 107 107 107 107 109 109 110 112 114 117 120 121 
100 98 90 81 76 66 56 48 37 27 18 14 16 19 25 30 55 72 102 107 107 108 108 109 109 109 108 107 107 108 112 119 125 133 133 125 123 115 111 111 113 116 125 129 136 136 136 124 103 75 56 47 44 44 44 45 49 67 90 118 137 148 156 157 158 160 161 163 165 166 167 166 166 166 166 167 167 169 170 170 171 171 172 172 173 174 174 175 177 177 178 178 180 181 181 182 183 184 184 185 187 187 189 190 190 190 190 190 190 191 193 194 194 194 194 195 196 196 196 197 197 198 198 198 198 198 198 199 199 199 199 199 199 199 199 199 199 199 199 199 199 199 199 199 199 198 197 197 196 196 196 196 196 196 196 196 196 195 195 196 196 196 197 198 199 199 199 199 198 198 198 198 198 198 197 197 196 196 196 196 196 197 197 198 198 197 196 195 194 195 194 194 193 193 193 193 194 195 197 197 197 197 197 196 196 195 194 194 194 193 193 192 191 191 189 189 189 189 188 187 186 186 185 184 184 184 185 185 185 184 183 182 182 181 180 179 178 178 178 177 177 178 178 178 177 177 175 175 175 174 174 174 174 174 174 174 174 173 173 172 171 170 169 169 168 168 167 166 166 165 165 165 164 163 162 162 161 162 162 161 161 161 160 159 159 159 158 157 155 153 151 147 146 144 140 137 130 123 117 111 103 95 88 82 73 71 70 69 64 64 59 59 61 61 67 67 62 57 56 55 49 45 35 29 26 26 26 27 27 27 26 23 24 27 31 36 45 53 60 67 74 82 82 76 74 69 69 69 71 71 71 70 63 59 59 59 59 59 61 62 66 72 81 95 104 110 115 128 134 144 151 155 155 154 151 149 147 143 138 133 129 124 119 115 114 112 110 107 106 106 107 107 109 109 110 112 114 117 120 121 
111 108 103 98 90 79 67 58 50 40 28 26 22 25 28 36 56 73 102 107 107 110 109 110 109 109 109 107 107 108 112 119 134 134 134 131 123 118 115 115 115 119 127 131 136 136 136 120 94 65 48 42 40 41 44 45 56 76 105 130 144 148 156 158 160 161 162 165 166 168 168 167 167 167 167 167 168 169 170 171 171 171 172 173 173 174 175 176 177 177 178 178 180 181 182 182 183 184 185 186 187 189 190 191 191 191 191 191 191 192 193 194 194 194 195 195 196 196 196 196 197 197 198 198 198 198 199 199 199 199 199 199 199 199 199 199 199 199 199 199 199 199 199 199 199 198 197 197 197 196 197 197 197 197 196 196 196 196 195 195 196 196 197 197 198 199 199 198 198 198 198 198 198 198 198 197 197 196 196 197 197 198 198 198 198 198 198 197 196 196 195 194 193 193 193 194 195 197 198 198 198 197 197 196 195 194 192 193 194 194 193 193 191 189 189 188 188 187 187 186 185 184 184 183 183 183 181 183 183 183 182 182 181 181 180 180 179 179 178 177 177 177 176 176 176 175 174 174 174 174 174 174 174 174 174 173 173 173 172 171 170 169 169 168 168 167 166 166 165 165 165 164 163 162 162 161 161 161 161 161 161 160 160 160 159 159 159 157 155 154 152 149 146 144 140 136 130 123 117 112 105 95 88 82 78 72 72 71 70 64 61 59 58 56 56 55 55 54 54 53 49 45 40 38 35 32 28 28 28 28 27 24 24 25 27 32 38 47 55 62 67 69 74 74 69 69 69 69 69 72 72 72 66 65 63 65 66 62 63 63 66 69 77 91 100 107 112 121 132 141 150 151 152 151 150 149 147 143 138 133 129 124 119 115 114 112 109 107 106 106 106 107 109 109 110 112 114 117 120 121 
125 123 111 108 102 91 79 69 58 50 42 34 30 32 35 40 61 75 98 107 109 110 110 110 110 110 109 109 107 107 109 119 130 133 133 127 124 120 118 116 119 127 130 136 137 136 128 104 77 49 40 35 37 40 44 48 67 90 118 137 144 148 156 159 160 162 163 165 166 168 168 167 167 167 167 167 169 170 171 171 171 172 172 173 174 175 176 176 177 177 178 179 179 181 182 182 184 184 185 187 188 189 191 191 191 191 191 191 191 192 194 194 194 195 195 195 196 196 196 196 197 198 198 198 199 200 200 199 199 199 199 200 200 199 199 199 199 199 200 199 199 199 199 199 199 198 197 197 198 198 198 199 199 198 197 196 196 196 196 196 196 197 197 197 197 197 197 198 198 198 198 198 199 198 198 198 198 198 198 198 198 198 198 198 197 198 198 197 197 196 196 194 194 194 194 195 197 198 198 198 198 197 196 195 194 192 192 192 193 193 193 192 190 189 188 187 187 187 186 185 184 184 183 183 183 181 181 181 181 181 181 181 181 181 180 180 179 179 178 177 177 176 176 175 175 174 173 173 173 173 173 173 174 174 174 173 173 173 172 171 170 170 169 168 168 167 166 166 165 165 164 163 163 162 161 161 161 161 161 161 160 160 160 159 159 159 158 156 155 153 151 149 146 144 140 133 129 123 117 113 105 95 88 84 82 78 73 75 72 70 61 57 56 55 54 53 53 50 49 41 45 45 40 38 35 35 30 30 30 29 27 25 25 26 27 29 32 40 48 59 65 66 67 68 66 66 67 68 69 72 73 73 72 72 70 72 72 70 67 66 66 67 71 82 95 103 110 115 129 140 149 150 151 151 150 149 147 143 137 131 127 123 118 115 113 111 109 107 106 106 106 107 109 109 110 112 114 117 122 124 
131 129 122 117 109 102 91 79 69 58 50 42 38 38 40 42 61 75 96 106 109 110 111 111 111 112 110 109 107 107 107 115 124 128 129 128 126 123 120 120 127 130 137 138 137 134 121 93 63 42 33 33 33 37 44 54 74 95 121 137 144 148 155 159 161 162 163 165 166 167 167 167 167 167 167 168 169 170 171 171 171 171 172 173 175 176 176 177 177 178 179 179 179 181 182 183 184 185 186 187 189 191 191 192 192 192 192 192 192 192 194 194 195 195 195 196 196 196 196 196 197 198 198 199 200 200 200 200 200 200 200 200 200 200 200 200 201 201 200 200 199 199 199 199 198 198 198 198 198 198 198 199 199 199 198 197 197 196 196 196 197 197 198 198 197 197 197 197 197 198 198 199 199 199 198 198 198 199 199 199 199 198 198 197 196 197 197 197 197 196 196 195 194 194 194 195 197 198 198 198 198 197 196 195 194 192 192 192 193 193 193 192 190 189 189 187 187 186 186 185 184 184 184 183 183 181 181 180 180 180 180 180 180 180 180 180 179 179 178 177 177 176 175 175 174 173 173 173 173 173 173 173 174 174 174 174 173 173 172 171 171 170 169 169 168 167 167 166 165 165 164 163 163 162 161 160 160 158 158 158 159 159 159 159 159 158 157 155 154 152 151 148 146 143 138 131 129 122 117 113 103 96 92 88 84 82 81 81 77 71 61 55 53 53 54 53 50 49 42 40 35 38 38 35 35 35 34 31 31 29 27 25 25 27 27 29 30 33 42 53 62 65 66 67 66 66 66 67 68 72 75 75 75 75 75 76 76 76 73 67 67 67 69 78 91 99 106 112 129 138 148 150 151 150 150 149 147 142 136 131 127 122 118 115 112 111 109 107 106 106 106 106 108 109 110 112 114 117 121 124 
139 138 130 123 117 109 102 91 79 69 58 50 43 42 42 43 61 75 89 98 107 110 111 111 112 112 112 110 107 105 105 113 123 127 128 128 128 127 129 130 137 137 139 139 136 128 107 77 49 34 29 29 30 34 44 63 84 101 123 137 144 147 154 160 161 162 163 165 166 167 167 167 167 167 167 168 169 170 171 171 171 171 171 173 175 176 177 177 178 178 179 179 180 181 182 183 184 186 187 188 189 191 192 192 192 192 192 192 192 193 194 194 195 195 196 196 196 196 196 196 197 198 199 200 200 200 200 200 200 200 200 200 201 201 201 201 201 201 201 200 200 199 199 199 198 198 198 198 198 198 199 199 199 199 199 198 198 197 197 198 198 199 199 198 197 197 197 197 197 198 198 199 199 199 198 199 199 199 199 199 199 198 197 196 196 197 197 197 197 197 196 196 194 194 194 195 197 198 198 198 197 196 196 195 193 192 192 193 193 193 193 191 190 189 188 187 186 186 186 186 185 185 184 184 183 182 181 180 180 180 179 179 180 180 180 180 179 179 178 177 177 176 175 174 173 173 172 172 172 172 173 173 174 174 174 174 173 173 172 171 171 171 170 169 168 167 167 166 166 165 164 164 163 162 160 160 158 158 157 157 157 158 159 158 158 157 155 154 152 151 150 148 146 140 135 131 128 122 117 112 102 97 95 91 89 89 88 84 80 64 61 61 58 60 61 58 50 46 42 40 35 38 40 40 40 40 40 38 35 30 27 25 25 26 27 28 28 30 34 45 59 63 65 66 66 65 65 66 67 68 74 75 75 75 75 76 77 78 77 73 68 69 69 72 85 97 104 110 124 136 145 149 150 150 150 149 146 141 136 130 126 122 118 114 111 111 109 107 106 106 106 106 107 108 109 111 114 117 121 123 
148 147 139 131 125 117 109 100 86 75 67 57 50 43 43 48 57 69 79 94 104 109 111 112 113 113 113 112 103 102 102 105 119 126 128 129 130 132 137 142 142 141 140 139 136 124 93 63 42 30 28 28 29 37 50 72 93 106 125 138 143 147 155 160 161 162 164 165 166 167 167 167 167 167 167 168 169 170 170 171 171 171 171 172 174 176 177 178 178 179 179 179 180 181 183 184 186 187 187 188 189 191 192 192 192 192 192 192 193 193 194 195 195 195 196 196 196 196 196 196 198 199 199 200 200 200 200 200 200 201 201 201 202 202 201 201 201 201 201 200 200 199 199 199 198 198 198 198 198 198 198 199 199 199 199 198 198 198 198 199 199 200 200 200 199 198 198 198 198 198 199 199 200 200 199 199 199 200 199 199 199 198 197 196 196 196 196 196 196 196 196 196 195 195 195 196 196 197 197 197 197 196 196 195 193 193 193 193 192 192 192 191 190 189 187 186 186 186 185 185 185 186 186 185 184 183 181 180 180 178 178 179 179 180 180 180 179 179 178 177 176 175 175 174 173 172 172 172 172 173 173 173 174 174 174 174 174 174 173 172 172 171 171 170 169 167 167 167 166 166 165 164 163 162 160 159 158 157 156 156 156 157 157 157 157 156 154 153 152 151 149 148 144 140 135 131 129 123 118 112 102 99 97 93 93 91 89 84 79 67 63 64 62 63 67 62 53 49 46 42 41 42 40 40 40 41 41 41 41 38 30 26 25 25 26 28 27 28 29 31 48 55 65 66 66 66 65 65 65 65 67 74 75 75 75 77 79 79 79 77 71 69 71 72 82 91 99 107 121 133 144 149 150 150 150 149 144 140 135 130 126 122 117 114 111 110 108 106 105 105 105 106 106 107 108 110 112 116 119 122 
156 155 147 140 133 125 117 108 95 84 75 65 57 49 48 50 54 61 74 86 95 104 109 112 117 117 117 112 103 103 103 107 119 126 129 132 136 142 146 152 149 144 141 139 133 112 78 50 35 30 29 29 32 44 63 81 99 111 126 138 143 148 155 160 162 163 164 165 166 167 167 167 167 167 167 168 169 169 170 170 170 170 171 171 174 176 177 178 178 179 179 180 180 181 183 184 186 187 188 188 189 191 192 192 192 192 193 193 193 193 194 195 195 196 196 197 197 196 197 197 198 199 199 199 200 200 200 200 200 201 201 202 203 203 202 201 201 201 201 200 200 199 199 199 199 198 198 198 198 198 198 198 199 199 198 198 198 198 198 199 200 200 200 200 199 199 198 198 198 198 199 200 200 201 200 199 199 200 199 199 199 198 196 196 196 196 196 196 196 196 196 196 195 195 195 196 196 197 197 197 197 196 196 194 193 193 192 192 192 192 191 191 190 189 187 186 186 186 185 186 186 186 187 187 186 185 183 181 179 178 178 179 179 179 179 179 179 178 178 177 176 175 175 174 173 172 172 172 172 173 173 173 174 174 174 174 174 174 173 173 172 172 171 170 170 168 167 167 166 166 166 165 163 162 160 159 157 156 156 155 155 156 156 156 156 155 154 152 151 150 148 146 144 140 135 131 129 124 119 114 104 100 99 97 96 93 89 84 73 67 63 67 66 73 73 70 58 50 48 46 46 49 51 55 55 55 49 49 46 43 41 31 27 26 26 26 25 25 25 27 32 48 59 66 68 68 67 66 64 61 62 68 73 75 76 78 80 80 79 78 75 71 71 72 80 89 98 106 121 133 144 149 151 151 150 149 143 139 133 129 125 121 117 114 111 110 108 106 105 105 105 105 105 106 107 109 111 115 118 120 
164 162 153 147 140 133 125 115 105 93 83 75 64 54 50 50 52 57 67 78 87 99 106 112 117 117 117 112 106 105 105 113 119 128 132 139 144 151 155 156 154 147 142 139 124 101 67 43 35 32 30 30 37 54 72 88 103 115 128 138 143 149 155 161 162 163 164 165 166 167 167 167 167 167 167 167 168 169 169 169 169 170 170 171 174 176 177 178 178 179 180 180 181 183 183 185 187 188 188 189 189 191 192 192 192 193 193 193 193 194 195 195 196 196 197 197 197 197 197 197 197 198 199 199 199 199 199 199 200 201 201 202 203 203 202 202 201 201 201 200 200 199 199 199 199 199 198 198 198 198 198 198 198 198 198 198 198 198 198 199 199 200 200 200 199 199 199 198 198 198 199 200 201 201 201 199 200 200 199 199 199 198 196 196 196 196 196 196 196 196 196 196 195 195 195 196 196 197 197 197 197 196 194 194 193 192 192 192 192 191 190 190 190 189 187 186 186 186 186 186 186 187 187 187 187 185 183 181 180 179 178 179 179 179 179 179 179 178 178 177 176 175 175 174 173 173 172 172 172 172 173 173 174 174 174 174 174 174 173 173 172 172 171 171 170 169 168 167 166 166 166 166 164 162 160 159 157 157 156 155 155 155 155 155 155 155 155 152 151 149 148 145 144 140 135 132 129 123 119 114 108 102 100 99 97 89 84 73 71 67 65 70 73 77 75 73 59 53 50 49 51 56 59 59 59 60 61 66 61 61 50 41 28 26 24 23 23 23 25 27 28 37 48 65 69 71 71 68 66 61 60 65 71 73 75 78 82 81 79 79 77 72 72 72 80 89 98 106 121 133 144 149 151 151 150 148 142 138 132 128 124 121 117 114 111 110 108 105 105 105 104 105 105 105 106 108 110 114 117 119 
171 169 159 153 147 140 131 118 109 98 88 80 71 60 54 50 50 53 61 69 79 93 101 112 117 117 117 112 108 107 108 117 128 135 139 141 148 152 156 158 155 149 139 125 107 86 61 42 35 34 32 34 44 63 80 91 107 118 130 140 147 151 158 161 162 163 164 165 165 166 166 166 166 166 166 166 167 167 167 167 168 169 170 171 174 176 177 178 178 179 181 181 182 184 185 186 187 188 189 189 190 191 191 192 193 193 193 193 193 194 195 196 196 197 197 197 197 197 197 197 197 198 199 199 199 198 198 198 198 199 201 202 203 203 202 201 201 201 201 200 200 199 199 199 199 199 198 198 198 198 197 197 197 197 197 197 198 198 198 198 199 199 200 199 199 199 199 199 198 198 198 199 200 201 200 199 199 200 199 199 199 198 196 196 196 195 195 195 196 196 197 197 196 196 195 196 196 196 196 197 196 195 194 194 193 193 192 192 192 191 190 190 190 189 188 187 186 186 186 186 187 187 187 187 187 187 185 183 181 180 179 179 179 179 179 179 179 178 178 177 177 176 175 175 174 173 173 172 172 172 172 172 173 173 174 174 174 174 173 172 172 171 171 171 170 170 169 167 167 166 166 166 163 162 160 158 157 157 156 155 155 155 155 155 155 155 155 153 151 150 147 145 143 140 136 132 129 123 119 112 104 101 99 97 89 84 76 71 68 67 67 75 89 89 79 77 73 58 57 57 61 61 65 66 66 69 72 77 78 72 68 50 43 27 23 22 21 23 23 25 27 32 38 51 60 68 68 67 65 62 59 60 63 71 73 78 82 81 81 79 75 71 71 71 80 89 98 109 123 135 147 151 151 151 150 146 141 137 131 127 124 121 116 114 110 109 107 105 104 104 104 104 104 105 106 107 109 113 116 118 
175 173 164 159 151 142 137 125 115 105 93 83 75 66 55 52 50 50 54 61 74 84 99 112 114 114 115 113 111 111 117 128 136 139 140 141 149 151 155 156 151 139 125 107 89 67 54 41 35 34 32 36 50 72 86 96 111 119 132 142 149 153 159 161 162 163 163 164 165 165 165 165 165 165 166 166 166 167 167 167 167 168 169 171 175 176 177 178 179 180 181 182 183 184 185 185 188 189 189 189 190 191 191 192 193 193 193 193 195 195 195 196 196 197 197 197 197 197 197 197 197 198 198 199 198 198 198 197 197 198 200 201 201 202 201 201 201 201 200 200 200 199 199 199 199 199 199 198 198 197 197 197 197 197 197 197 197 198 198 198 199 199 199 199 199 199 199 199 199 198 198 199 199 199 199 199 199 200 199 199 199 198 196 196 195 195 194 194 194 196 196 196 196 196 195 196 196 196 196 196 195 194 194 193 193 193 192 192 192 191 190 190 190 190 190 190 189 189 188 188 187 187 187 187 187 187 186 184 182 181 180 179 179 179 179 179 179 179 179 178 177 176 176 175 175 174 173 173 172 172 172 172 173 173 173 173 174 173 172 172 171 171 171 171 170 170 169 167 167 166 166 166 163 161 160 159 157 157 157 157 155 156 156 156 156 156 155 154 152 150 147 144 142 140 136 132 129 123 118 109 103 100 99 90 85 78 73 71 71 73 73 77 95 96 96 90 78 74 70 82 82 78 78 76 74 76 76 77 78 72 68 59 44 34 28 23 22 23 25 26 27 31 35 38 48 59 66 66 63 60 58 58 58 61 73 80 82 81 81 79 74 70 69 71 77 89 98 111 125 137 149 152 152 152 150 146 141 136 131 127 124 121 116 114 110 109 107 105 104 104 104 104 104 104 105 106 109 112 116 118 
181 176 169 162 153 148 140 131 116 109 98 88 80 71 60 53 49 48 49 55 67 77 97 110 112 113 114 114 114 117 131 135 139 140 140 141 147 149 151 149 138 120 107 89 74 61 43 35 34 34 35 44 63 80 91 101 114 126 140 146 151 153 159 161 161 163 163 164 165 165 165 165 165 164 165 166 166 166 166 167 167 168 169 172 175 176 177 179 179 180 181 182 183 184 184 185 187 189 190 190 190 191 191 192 193 193 194 194 195 196 196 196 196 197 197 197 197 197 197 197 197 197 198 198 199 198 198 197 197 198 199 200 201 201 201 201 201 201 200 200 200 200 199 199 199 199 199 199 198 198 197 197 197 197 197 197 197 197 198 198 199 199 199 199 199 199 199 199 199 199 199 199 199 200 200 199 200 200 200 200 199 198 196 196 195 194 193 194 194 195 196 196 196 196 196 196 196 196 196 196 194 194 194 193 193 193 193 192 191 190 190 190 190 190 190 191 190 190 189 189 188 187 188 187 187 187 186 185 183 182 181 180 179 179 179 179 179 180 180 178 177 177 176 176 175 175 174 173 173 172 172 172 173 173 173 173 173 173 172 172 171 171 171 170 170 170 169 167 166 166 166 166 164 162 161 160 159 159 158 157 157 156 156 156 156 156 156 155 151 149 145 144 142 139 135 131 126 121 116 112 106 102 100 89 85 78 73 71 71 73 74 89 100 103 105 100 94 79 94 94 94 88 87 77 76 76 76 77 78 70 66 50 43 40 32 28 24 24 25 27 28 30 31 35 38 43 54 62 62 59 55 55 55 55 71 77 81 80 79 77 71 67 67 67 72 80 97 112 125 137 149 152 152 152 149 145 141 135 130 127 124 120 116 111 110 109 106 104 104 104 103 102 103 104 104 106 109 112 115 116 
182 177 171 165 159 151 140 132 120 112 102 92 83 74 63 54 48 46 46 50 61 76 95 105 110 112 114 114 121 134 142 140 140 140 139 139 140 140 139 136 120 100 87 74 61 46 40 35 34 35 36 48 66 81 96 109 119 128 141 148 151 153 158 160 161 162 162 164 164 164 164 164 164 164 165 165 166 166 167 167 167 168 169 172 175 177 178 179 179 180 181 182 183 184 184 185 187 188 190 190 190 191 191 193 193 194 194 195 196 196 196 196 196 197 197 197 197 196 196 196 197 197 198 200 200 200 199 198 198 199 199 200 201 201 201 201 201 200 200 200 200 200 200 200 200 200 199 199 199 198 198 197 197 197 197 197 197 198 198 198 199 199 199 199 199 199 199 199 199 199 199 199 200 200 200 200 201 201 201 200 200 199 197 196 196 194 193 194 194 195 195 196 196 196 196 196 196 196 196 195 195 194 194 194 193 193 193 193 192 191 190 190 190 190 191 191 191 190 189 189 188 188 188 187 187 187 186 185 184 183 182 181 181 180 179 180 180 181 180 180 178 177 176 176 176 175 174 173 173 173 172 172 173 173 173 173 173 173 173 172 171 171 171 170 170 169 168 167 166 166 166 165 164 163 162 161 160 160 160 160 158 157 157 157 157 157 156 155 151 149 145 144 142 141 138 132 128 122 118 113 109 104 102 89 86 78 73 71 71 73 76 89 103 106 113 113 101 98 99 99 98 96 88 79 68 61 53 53 53 53 50 44 40 36 35 35 36 33 27 30 30 30 30 31 31 35 40 52 54 54 51 51 51 51 61 71 77 77 76 74 68 64 63 64 69 78 96 112 126 138 150 152 152 151 149 145 140 135 128 125 122 118 115 111 110 107 105 104 103 102 102 102 102 103 104 106 109 112 115 116 
184 179 173 167 161 152 141 133 124 116 105 95 86 75 64 56 48 44 44 46 54 68 87 102 108 112 114 117 126 140 143 143 141 139 135 135 135 135 132 123 107 88 74 62 50 40 35 34 33 35 43 57 77 91 101 114 122 131 142 148 150 152 156 160 161 161 161 163 164 164 164 164 164 164 165 166 166 167 167 168 168 169 170 172 175 177 178 179 179 180 180 181 182 184 184 185 186 187 189 190 191 191 192 193 193 194 195 196 196 196 195 195 196 196 197 197 196 196 196 196 197 198 199 200 201 201 200 200 199 199 200 200 201 201 201 201 201 200 200 200 200 200 200 200 200 201 200 201 200 200 199 198 198 197 197 197 198 198 199 199 200 200 200 200 199 199 199 199 199 200 200 200 200 200 200 201 201 201 201 201 200 199 198 197 197 196 194 194 195 195 196 196 196 196 196 196 196 196 196 195 195 194 194 194 194 194 193 193 193 191 191 191 191 192 192 191 191 191 190 189 189 188 187 187 187 187 186 185 185 184 184 183 182 182 182 182 182 182 181 181 179 177 176 176 175 175 174 173 173 172 172 172 173 173 174 174 174 173 173 172 171 171 170 170 169 169 167 166 166 166 165 165 164 164 163 163 162 162 161 161 160 158 158 158 158 157 157 155 151 149 146 145 143 142 139 134 129 123 120 116 112 107 103 89 85 76 73 71 71 71 74 83 103 108 114 114 110 108 108 105 99 96 88 79 61 44 43 43 43 43 43 32 35 35 35 40 40 36 36 33 31 31 30 30 29 28 28 35 42 45 45 46 47 47 54 61 70 74 72 70 64 62 61 62 67 76 96 112 129 140 150 151 151 150 147 144 139 134 127 124 120 116 112 111 109 106 104 103 102 101 101 102 102 102 104 106 109 112 115 116 
186 180 174 168 161 152 141 133 125 117 107 96 86 75 64 56 48 42 42 42 49 64 83 99 108 110 114 121 134 142 143 143 138 134 131 131 131 131 130 118 96 81 66 51 41 34 33 33 33 35 45 64 81 96 109 117 126 132 142 147 150 151 153 157 160 161 161 163 164 164 164 165 165 165 166 166 167 168 168 168 169 169 171 173 176 178 179 179 179 180 180 180 182 183 184 185 186 187 189 190 191 191 193 193 194 195 195 196 196 196 195 195 195 196 197 197 197 196 196 196 197 198 199 200 201 201 201 201 200 200 200 200 200 201 201 201 201 200 200 200 200 200 200 200 200 201 201 201 201 201 200 199 198 198 198 198 198 199 200 200 200 200 200 200 199 199 199 200 200 202 202 202 202 202 202 202 201 201 201 201 200 199 198 198 198 197 197 197 196 196 196 196 196 196 196 197 197 196 196 195 195 195 194 194 194 194 193 193 192 191 190 190 191 192 192 191 191 191 190 189 189 188 187 187 187 186 185 185 185 185 184 184 184 183 183 182 182 182 181 180 178 176 176 176 175 175 174 173 173 172 172 172 173 173 174 174 174 173 173 172 171 170 170 169 168 167 166 166 166 166 165 165 164 164 163 163 162 162 162 161 161 160 158 158 158 157 156 155 151 149 146 145 144 142 141 134 129 126 122 117 114 112 106 101 88 77 73 71 70 71 73 77 103 114 117 118 114 113 113 107 101 96 88 68 44 38 38 35 34 34 27 26 26 30 33 40 40 42 42 42 39 33 30 30 29 28 27 29 31 37 40 42 42 43 47 54 63 70 69 64 62 59 59 59 63 76 96 115 132 143 150 151 151 149 146 142 138 133 125 122 117 114 111 110 108 105 104 102 101 101 101 102 102 102 104 106 109 112 115 116 
187 183 178 173 165 155 148 141 132 122 112 103 94 82 71 60 52 43 41 41 46 63 83 98 107 110 113 121 135 142 143 143 134 129 129 130 130 130 129 118 91 72 54 44 36 33 31 33 35 43 57 72 90 102 114 121 126 132 141 146 149 151 153 154 158 160 160 161 163 164 164 165 165 165 166 167 168 168 169 169 170 171 172 174 176 178 179 179 179 180 180 180 181 182 184 185 186 187 188 190 191 192 193 193 194 195 196 196 196 195 195 195 195 196 197 197 197 196 196 197 197 199 200 200 201 201 201 201 200 200 200 200 200 201 201 201 201 200 200 200 200 200 200 200 200 201 201 201 201 201 201 200 200 199 199 199 199 200 200 201 201 200 200 200 199 199 199 200 202 202 202 202 202 202 202 202 202 202 202 201 201 200 199 198 198 197 197 197 198 197 196 196 196 196 196 197 197 196 196 196 195 195 195 195 194 194 194 193 192 191 190 190 191 192 192 191 191 191 190 189 189 188 187 187 187 186 185 185 185 185 184 184 184 184 183 182 182 182 181 179 177 175 175 175 175 174 174 174 173 172 172 172 172 172 173 173 174 173 173 172 171 169 169 168 167 166 166 166 166 166 165 165 164 164 163 163 162 162 162 162 161 161 159 158 158 157 156 154 151 149 146 145 144 143 141 138 132 128 123 119 117 113 107 102 89 78 74 71 70 70 70 76 105 115 119 120 120 117 117 113 105 98 79 55 41 37 36 30 29 27 20 18 18 25 31 40 42 45 47 48 51 51 39 30 29 28 27 29 31 31 32 34 35 37 40 47 55 64 64 64 63 61 61 61 64 76 97 116 136 145 150 151 151 147 144 140 137 132 125 118 116 112 110 109 107 104 102 102 101 101 101 102 102 102 104 106 109 112 115 116 
190 185 180 174 168 160 152 141 133 125 117 107 96 86 76 64 56 47 44 44 46 55 79 98 105 108 114 116 132 140 142 138 129 127 127 128 129 129 128 118 91 72 52 40 36 34 33 36 43 54 65 79 94 105 114 121 126 132 140 145 147 150 151 153 155 158 159 161 162 163 163 165 165 166 167 168 168 169 169 170 171 172 173 175 177 178 179 179 180 180 180 180 181 182 184 185 186 188 189 190 191 192 193 194 194 195 196 196 196 195 195 195 195 197 197 198 198 197 197 197 199 200 200 200 200 201 201 201 201 200 200 200 200 200 201 201 201 200 200 200 200 200 200 200 200 201 201 201 201 201 201 201 200 200 200 200 200 200 201 201 201 201 200 200 199 199 200 202 202 202 202 202 202 202 202 202 202 202 202 201 201 200 199 198 198 198 198 198 198 198 197 196 196 196 196 196 196 196 196 196 196 196 195 195 195 194 194 194 193 192 192 191 191 192 192 191 191 191 190 189 189 188 187 187 187 186 185 185 185 185 184 184 184 184 183 182 182 181 179 177 175 175 174 174 174 174 174 174 173 172 172 172 172 172 172 172 172 172 172 170 169 168 167 166 166 166 166 166 166 166 166 165 165 164 163 162 162 162 162 162 162 161 160 159 158 157 155 154 152 150 147 146 145 144 141 139 134 129 123 119 117 114 107 102 89 80 74 71 70 69 69 71 105 114 119 120 120 120 121 117 107 98 73 55 44 38 38 34 27 26 18 17 17 24 30 35 42 45 50 56 68 69 56 48 33 30 30 31 31 31 31 31 31 32 35 40 47 58 63 64 64 64 62 64 72 79 99 117 139 148 150 150 149 146 142 139 135 132 125 118 113 111 109 108 106 104 102 102 102 101 101 102 102 102 104 106 109 112 115 116 
193 188 184 178 173 166 158 148 141 133 124 113 103 94 85 76 64 55 47 47 54 63 79 99 105 108 111 114 122 135 135 135 121 121 121 126 127 127 125 120 91 75 52 38 36 34 34 41 49 60 77 92 100 107 113 118 124 128 135 141 145 150 150 153 155 157 159 160 161 163 164 165 166 167 168 169 169 170 170 171 172 173 174 174 176 178 179 180 180 180 181 181 182 184 185 186 187 188 189 191 192 192 193 194 195 195 196 196 195 194 194 195 196 198 198 198 198 198 198 198 199 200 200 200 201 201 201 201 201 200 200 200 200 200 201 201 201 200 200 200 200 200 200 200 200 201 201 201 201 201 201 201 201 200 200 200 200 200 201 202 202 201 201 200 200 200 200 202 202 202 202 202 202 202 202 202 202 202 202 202 201 200 199 198 198 198 197 198 198 198 198 197 197 196 196 196 196 196 196 196 196 196 196 196 195 195 195 194 193 192 192 190 190 191 191 191 191 191 190 189 189 189 188 187 187 186 186 185 185 185 185 184 184 183 182 181 180 179 178 177 175 174 174 174 174 174 174 173 173 172 172 172 172 172 172 172 172 170 169 168 168 167 166 165 165 165 166 166 166 167 167 166 166 164 163 162 162 162 163 163 163 162 161 159 158 157 155 154 153 151 148 146 145 143 141 139 133 129 123 120 118 115 108 102 90 82 76 73 70 68 67 69 87 107 115 120 121 122 124 124 114 98 79 61 48 42 38 36 29 27 18 17 17 23 28 32 42 48 56 70 79 83 79 69 52 40 33 32 32 32 31 31 31 32 34 35 40 48 59 63 66 67 67 72 77 86 104 122 141 148 149 149 148 144 140 137 135 132 125 117 113 110 109 108 106 104 102 102 102 101 101 102 102 102 104 106 109 112 115 116 
195 191 188 183 178 172 166 158 148 141 133 124 113 107 98 85 76 64 60 55 63 73 81 103 105 107 109 110 116 132 132 129 122 121 121 122 127 127 125 123 94 77 55 41 37 37 40 48 57 71 80 92 100 107 111 116 120 127 134 140 145 150 150 153 155 158 158 159 161 163 163 165 167 168 169 169 170 171 171 172 173 174 174 174 175 177 179 180 181 181 182 182 183 184 186 187 188 189 190 191 192 192 193 194 194 195 195 195 195 194 194 195 196 198 198 198 198 198 198 199 199 200 200 200 200 200 201 201 200 200 200 200 200 201 201 201 200 200 200 200 200 200 200 200 200 200 200 201 201 201 201 201 200 200 200 200 200 200 201 202 202 201 201 200 200 200 200 202 202 202 202 202 202 202 202 202 202 202 203 203 202 201 199 198 198 197 197 197 198 198 197 197 197 196 196 196 196 196 196 196 196 196 196 196 196 195 195 195 193 192 190 190 190 190 191 191 191 191 190 189 189 189 188 188 187 187 187 186 185 185 184 184 183 182 182 181 180 179 178 177 176 175 174 174 174 173 173 173 173 172 172 172 171 171 171 170 169 169 168 168 167 166 166 165 165 165 166 166 167 167 167 167 167 166 165 163 162 163 164 164 163 163 161 159 159 157 155 154 153 151 149 147 145 143 141 139 132 128 124 121 119 116 111 103 91 83 77 73 70 68 68 69 75 90 108 118 121 126 126 126 119 100 90 72 57 49 48 42 38 28 25 18 18 25 28 38 45 53 68 76 84 90 94 83 69 52 40 37 36 35 35 32 32 32 34 35 36 40 53 63 67 69 72 79 86 93 111 128 141 148 148 148 147 144 139 136 134 129 124 117 113 110 109 107 106 104 102 102 102 101 101 101 102 102 104 106 109 112 115 116 
197 195 192 188 182 178 172 166 158 153 146 139 129 120 111 103 93 82 72 70 73 79 94 103 104 105 105 103 107 121 122 124 122 121 121 122 125 125 125 123 97 78 58 49 42 42 49 54 66 77 79 90 96 104 110 115 120 128 139 141 146 150 153 155 157 158 158 159 161 163 163 166 167 169 171 171 171 171 172 173 173 174 174 174 175 177 179 180 181 182 182 182 183 184 187 188 189 189 190 192 192 192 192 193 194 194 195 194 193 193 193 194 196 198 198 198 198 198 198 198 199 200 200 200 200 200 200 200 200 200 199 199 200 201 201 201 200 200 200 200 200 200 200 200 200 200 200 201 201 201 201 201 200 200 198 199 200 200 201 201 202 201 201 200 200 200 200 202 202 202 202 202 202 202 202 202 202 202 203 203 202 201 200 198 197 196 195 196 197 197 197 197 197 196 196 196 196 196 196 196 196 197 197 196 196 196 196 195 195 193 192 191 190 191 191 191 191 191 191 190 190 189 189 188 188 188 188 187 186 185 184 183 183 182 181 180 179 178 178 177 177 176 175 175 174 174 174 174 174 173 172 172 172 171 170 170 169 168 168 167 167 167 166 165 165 166 166 167 167 167 167 167 167 167 167 166 165 164 164 164 164 163 163 161 159 157 155 154 153 152 150 147 145 143 141 139 131 128 126 123 120 117 114 107 99 89 77 73 70 68 65 65 69 78 96 108 115 124 124 124 112 103 95 79 67 56 50 45 44 39 34 25 28 28 34 45 53 65 72 88 95 98 99 97 83 69 48 41 40 38 38 38 37 36 35 35 35 36 45 59 68 71 79 85 93 102 117 128 141 145 147 147 146 141 138 136 132 127 120 115 113 110 109 108 107 105 103 102 102 102 101 101 102 102 103 105 108 111 113 115 
198 196 195 192 188 183 178 172 166 161 154 147 139 130 120 116 107 98 92 82 82 94 103 104 104 103 94 93 97 114 121 124 122 122 121 120 120 122 121 116 100 81 63 55 51 51 54 61 71 76 78 87 92 100 110 113 119 130 140 144 147 150 153 155 157 158 158 159 161 163 165 166 168 170 171 171 171 171 172 173 173 174 174 174 174 175 177 180 181 181 182 182 182 184 187 187 189 189 191 192 192 192 192 193 193 193 193 193 193 193 193 193 196 198 198 198 198 198 198 198 198 199 200 200 200 200 200 200 199 199 199 199 200 200 200 200 200 200 200 200 200 200 200 200 200 201 201 201 201 201 201 200 199 198 198 198 198 199 200 201 201 201 201 200 200 200 200 201 202 203 203 203 203 203 202 202 202 202 202 202 202 201 199 197 195 194 194 195 196 196 197 197 197 196 196 196 196 196 196 196 196 197 197 196 196 196 196 195 195 194 193 192 192 192 192 192 192 192 191 191 190 190 190 188 188 188 188 188 186 185 184 183 182 181 181 180 179 178 178 178 177 177 176 176 175 174 174 174 174 174 173 172 172 171 170 170 169 168 168 168 167 167 166 166 166 166 167 167 168 168 168 168 168 168 168 167 167 166 165 164 164 163 163 161 159 157 155 154 153 153 150 147 145 142 141 139 131 129 127 124 121 119 115 110 99 90 77 73 70 68 65 64 61 68 80 96 108 114 119 114 109 106 103 91 79 60 52 49 45 45 42 39 38 39 45 51 62 68 84 95 99 104 109 107 94 77 67 54 44 43 43 45 46 46 39 36 36 40 44 53 70 78 85 92 98 106 118 128 141 144 146 146 145 141 138 136 132 127 120 117 114 112 110 108 107 106 104 103 102 101 101 101 101 102 103 105 108 111 114 115 
202 200 198 195 192 188 184 179 175 171 164 157 150 142 134 129 119 109 103 95 95 104 108 108 104 94 86 86 86 99 121 122 122 122 120 120 118 118 116 111 100 85 63 57 54 53 54 61 71 74 77 84 92 100 110 117 125 137 141 144 148 152 153 156 157 158 158 159 161 163 165 166 169 170 171 171 171 172 173 173 173 174 173 174 174 174 177 179 181 181 182 181 182 184 186 187 189 189 191 191 192 192 192 192 193 193 193 193 193 193 193 193 195 197 197 197 197 197 197 197 197 198 198 198 199 199 199 198 198 198 198 199 200 200 200 200 200 200 200 200 200 200 200 200 201 201 201 201 201 201 200 199 198 198 198 198 198 199 200 200 201 201 200 200 200 200 200 201 201 202 203 203 203 203 202 202 202 201 201 201 200 199 198 196 195 194 194 195 196 196 196 197 196 196 196 196 196 196 196 196 196 196 197 196 196 196 196 195 194 193 193 192 192 192 193 193 193 193 192 192 192 191 190 189 188 188 188 188 187 186 184 183 182 181 181 180 179 178 178 178 178 178 177 176 175 174 174 174 174 174 173 172 171 171 170 170 169 169 168 168 168 167 167 167 167 167 167 168 168 168 168 168 168 168 169 168 168 167 166 165 164 163 163 162 160 158 156 155 153 153 150 147 144 142 140 138 131 129 127 126 123 120 117 112 99 91 80 74 70 68 64 54 52 54 64 80 93 106 111 112 110 109 105 102 90 72 57 52 48 48 46 46 48 53 62 67 73 82 91 104 111 112 116 111 109 94 77 67 56 53 53 56 56 56 49 46 40 43 45 51 69 82 86 98 102 110 120 130 140 143 145 145 145 141 138 136 131 126 120 117 114 112 110 109 108 106 104 102 102 101 101 101 101 102 103 105 108 111 114 116 
203 202 200 198 196 192 188 184 182 178 173 167 161 153 146 141 131 120 112 109 106 109 111 109 108 94 83 83 83 94 114 122 122 120 119 118 116 116 112 111 101 85 63 57 55 53 55 61 66 73 77 84 92 100 117 125 135 139 141 146 150 152 154 155 157 157 158 159 161 163 166 167 168 170 170 171 171 172 172 173 173 173 173 173 174 174 176 179 180 180 180 180 180 182 185 187 188 189 190 191 191 192 192 192 193 193 193 193 193 193 193 193 194 196 197 197 197 196 196 196 196 197 197 197 197 197 197 197 197 197 198 199 199 200 200 200 201 200 200 200 200 201 200 200 201 201 201 201 201 200 199 198 198 198 198 198 198 198 199 200 200 200 200 200 200 200 200 200 201 201 203 203 203 203 201 201 200 200 199 199 198 197 196 196 195 195 195 195 196 196 196 196 196 196 196 196 196 196 196 196 196 196 196 196 195 195 195 194 193 193 192 192 192 193 193 194 194 194 193 193 192 192 192 190 188 188 188 188 186 185 184 182 181 181 180 180 179 178 178 178 178 178 178 177 176 175 175 175 175 175 175 174 172 172 171 170 170 169 169 168 168 168 168 168 168 168 168 169 169 168 168 168 169 169 170 169 168 167 166 166 164 164 163 162 161 159 157 155 154 153 150 146 143 141 139 137 132 130 128 126 124 121 119 114 103 96 84 74 69 64 54 46 44 44 54 66 80 93 106 107 108 109 107 105 97 81 67 55 49 49 51 51 57 65 77 85 87 100 105 117 122 120 121 116 112 109 98 77 67 60 60 63 63 63 60 56 50 47 50 56 70 82 93 101 103 114 124 134 140 142 144 144 144 140 138 135 131 126 120 117 114 112 110 108 107 105 104 102 101 101 101 101 102 102 103 106 108 112 114 116 
206 204 202 200 198 196 193 189 186 182 178 173 168 162 155 151 143 132 122 118 114 117 114 112 109 94 88 88 88 94 109 116 118 118 116 115 114 112 112 111 100 85 63 56 55 54 56 61 67 72 77 85 97 106 119 133 137 139 141 146 150 153 154 155 156 157 158 159 161 164 166 167 168 169 170 170 171 172 172 173 173 173 173 173 173 174 176 179 180 180 180 180 180 181 185 187 188 189 190 191 191 191 191 192 193 193 194 193 193 193 193 193 194 196 196 196 196 196 195 196 196 196 196 197 197 197 197 197 197 197 198 198 199 200 200 201 201 201 201 201 201 201 201 201 201 201 201 201 200 200 199 198 197 197 197 197 198 198 199 199 199 199 199 199 200 200 200 201 201 201 201 201 201 201 201 200 200 198 198 198 197 196 196 196 195 196 196 197 197 197 197 196 196 196 195 195 195 195 195 195 195 195 195 195 194 194 194 194 193 193 193 193 193 193 193 194 194 194 193 193 192 192 192 191 188 188 188 187 186 184 183 182 181 180 180 179 178 178 178 177 178 178 178 178 177 176 175 175 175 175 175 174 173 173 172 171 170 169 169 169 169 168 168 168 168 169 169 169 169 169 169 169 169 170 170 170 169 168 167 166 166 164 163 163 162 160 157 156 154 152 149 145 142 140 138 135 132 130 128 126 124 121 120 116 107 99 90 79 69 64 52 43 39 39 44 56 66 80 94 105 107 107 107 107 105 95 78 67 60 57 61 64 73 82 87 91 99 105 113 119 122 121 121 120 114 110 107 98 77 70 70 70 70 70 70 63 59 56 58 67 70 84 98 101 107 118 127 137 140 142 143 143 143 139 136 134 131 126 120 117 114 112 110 108 106 104 103 102 101 101 101 101 102 102 104 106 109 112 115 116 
210 207 204 203 201 200 196 193 190 186 183 179 174 169 162 158 151 143 133 131 123 123 119 116 112 98 90 90 90 93 105 115 115 115 112 112 112 112 112 111 100 85 63 56 55 55 56 64 66 72 79 95 104 112 125 133 137 138 139 143 148 152 153 155 156 157 157 159 161 164 166 167 168 168 169 170 170 172 172 173 173 173 173 173 173 174 176 179 180 180 180 180 181 182 185 186 188 188 190 190 191 191 191 191 193 194 194 194 193 193 193 193 193 195 196 196 196 195 195 195 196 196 196 197 197 197 197 197 197 197 198 199 199 200 201 201 201 201 201 201 201 201 201 201 201 201 201 201 200 199 198 197 197 197 197 197 197 198 198 199 199 199 199 199 199 200 200 201 201 201 201 201 201 201 201 200 199 198 198 197 196 196 196 196 196 196 196 197 197 197 196 196 196 195 195 195 195 195 195 195 195 195 195 195 194 194 194 194 194 193 193 193 193 193 193 193 194 193 193 193 192 192 192 191 189 188 188 187 185 184 183 181 180 180 180 179 178 177 177 177 177 178 178 178 178 176 176 175 175 175 175 174 174 173 172 171 171 170 170 169 169 169 169 169 169 169 170 170 170 169 169 169 170 170 170 170 169 168 167 166 166 165 164 163 162 160 157 156 154 152 149 145 141 139 137 135 132 130 128 125 122 120 119 117 107 101 93 83 74 65 53 41 38 38 38 53 56 66 82 93 94 107 107 108 105 97 81 77 76 69 76 79 83 84 88 91 99 105 113 119 122 120 120 115 112 110 110 107 98 88 78 78 78 80 80 75 70 67 67 70 77 84 98 104 112 122 131 138 141 142 143 143 142 138 135 133 130 126 120 117 113 111 109 106 105 103 101 101 100 100 101 101 102 103 104 106 109 112 115 117 
216 213 209 207 204 202 201 197 194 190 186 184 181 177 171 162 158 151 143 142 134 131 126 121 112 98 91 90 90 94 99 109 112 112 112 112 112 112 112 109 99 75 54 50 50 51 56 64 69 78 90 98 109 119 128 135 137 138 140 142 148 152 153 155 155 156 158 159 162 164 167 168 168 168 169 170 170 172 173 173 174 174 173 173 174 174 175 178 180 180 180 180 181 183 185 186 187 188 189 190 190 191 191 191 194 194 194 194 193 193 193 193 193 194 195 195 195 195 195 195 196 196 196 196 197 197 197 197 197 198 198 199 199 200 201 201 201 201 201 201 201 201 201 201 201 201 201 200 199 198 197 197 197 197 197 197 197 198 199 199 199 199 199 199 199 200 200 201 201 201 201 201 201 201 201 200 198 198 198 197 196 196 196 196 196 197 197 197 197 197 197 196 195 195 195 195 195 195 195 195 195 195 195 195 194 194 194 194 194 194 193 193 193 193 193 193 193 193 193 193 192 192 192 191 189 188 187 187 185 183 182 181 180 180 179 178 178 177 177 177 177 178 178 178 178 177 177 176 175 175 175 174 174 174 173 172 171 171 170 170 169 169 169 169 170 171 171 171 170 170 170 170 169 170 170 169 169 167 167 166 166 166 165 164 163 160 158 157 154 152 147 144 141 138 136 134 132 129 126 123 121 120 119 117 109 105 99 90 79 68 55 44 37 37 37 48 53 59 64 77 82 93 102 107 102 97 93 77 77 76 79 83 91 91 91 91 98 100 113 116 116 115 113 112 112 110 110 110 108 104 94 93 93 93 93 90 84 79 73 77 82 91 99 107 118 127 135 139 141 143 143 143 142 138 135 132 130 125 119 114 112 110 107 105 103 101 100 100 100 100 100 101 102 103 104 107 110 113 115 117 
219 216 212 209 207 205 203 201 197 194 190 187 184 181 177 171 162 153 151 146 142 135 131 124 112 98 94 91 91 94 99 106 109 110 112 112 112 112 112 107 92 64 49 48 48 51 60 65 72 85 93 99 112 120 129 136 138 139 141 142 148 152 153 155 155 156 158 161 163 164 167 168 168 168 169 170 171 173 173 174 175 175 175 174 174 175 176 178 179 180 180 180 182 183 185 186 186 187 188 189 190 190 191 191 193 194 194 194 193 193 193 193 193 194 194 194 195 194 194 195 196 196 196 197 197 197 197 197 197 198 198 199 199 199 200 201 201 201 201 201 201 201 201 201 201 201 201 200 199 197 197 197 197 197 197 197 197 198 199 199 199 199 199 199 200 200 201 201 201 201 201 201 201 201 201 200 198 198 198 197 196 196 196 196 197 197 198 198 198 197 196 196 195 195 195 195 195 195 195 195 197 197 196 196 196 196 195 195 194 194 194 194 193 193 193 193 193 193 192 192 192 192 191 190 188 188 187 187 185 183 181 180 180 179 179 178 178 177 177 177 177 177 178 178 178 178 177 176 175 175 174 174 174 174 173 173 173 172 171 171 170 170 170 171 171 172 172 171 171 170 170 170 169 169 169 169 168 167 167 167 166 166 166 164 163 160 158 156 154 148 146 144 140 137 135 133 131 127 124 121 120 119 119 117 109 107 101 92 83 73 64 51 37 35 35 42 51 54 59 64 71 80 92 102 97 95 93 78 77 77 82 91 93 84 77 68 79 91 98 110 111 112 112 112 112 112 112 112 112 108 103 101 101 101 102 105 101 91 89 86 91 97 104 112 121 129 135 139 141 143 144 144 142 138 134 131 129 125 119 114 111 108 105 103 101 101 100 100 100 100 100 101 102 103 104 107 110 113 116 117 
221 220 216 212 209 207 205 203 200 196 193 190 187 184 181 172 167 159 153 152 146 141 134 126 111 97 95 91 92 94 99 103 107 109 110 112 112 112 112 102 81 53 47 47 48 55 61 65 76 87 93 100 115 127 130 137 138 140 142 144 148 151 152 153 155 157 159 161 164 165 167 168 168 169 169 170 172 173 174 174 175 175 175 174 175 175 176 178 179 180 180 180 182 183 185 186 186 187 187 189 190 190 190 191 193 193 193 193 193 193 193 193 193 194 194 194 196 194 194 196 196 197 197 197 197 197 197 197 197 198 198 199 199 200 200 200 201 201 201 201 201 201 201 201 201 200 200 199 198 197 197 197 197 197 197 197 198 199 199 200 200 200 200 200 200 201 201 201 201 201 201 201 201 201 201 200 198 198 198 198 198 197 197 197 197 197 198 198 197 197 196 196 195 195 195 195 195 195 196 197 197 197 197 196 196 196 196 195 195 194 194 194 194 193 193 192 192 192 192 192 191 191 191 189 188 187 187 186 185 183 181 180 180 179 179 179 178 178 177 177 176 177 178 178 178 178 177 176 174 174 174 174 174 174 174 174 173 173 172 172 171 171 171 171 172 172 172 172 171 170 170 170 170 169 169 169 168 167 167 167 167 166 165 164 162 160 158 156 152 147 145 142 139 136 134 132 129 124 121 121 119 119 119 118 115 109 101 96 88 77 65 53 38 37 35 37 44 51 52 58 63 71 80 91 94 93 92 79 79 79 83 86 86 76 62 62 64 70 79 98 107 110 110 110 111 112 114 112 112 110 105 103 103 103 106 110 114 105 97 95 98 101 106 115 125 129 135 139 141 143 145 145 145 141 135 132 129 125 119 116 112 110 106 103 101 101 100 100 100 100 100 101 102 103 104 107 111 114 116 117 
222 221 218 215 212 210 208 205 202 199 195 193 190 188 183 180 171 162 159 153 151 144 138 121 104 95 94 93 94 95 99 103 105 107 110 110 110 110 109 96 73 51 46 46 47 55 61 65 76 88 94 100 116 128 133 137 140 141 143 144 147 151 151 153 155 157 160 163 164 165 167 168 169 169 170 171 172 173 174 174 175 175 175 174 175 175 176 178 179 180 180 180 182 183 185 186 186 186 187 188 189 190 190 190 192 193 193 193 193 193 193 193 193 194 194 194 196 196 196 196 197 197 197 197 197 197 197 197 197 198 199 199 199 200 200 200 200 200 201 201 201 201 201 201 200 200 199 198 197 197 197 197 197 197 198 198 198 199 200 201 201 201 200 200 201 201 202 202 202 201 200 200 200 201 200 199 198 198 198 198 198 198 198 198 198 198 198 198 198 197 196 196 195 195 195 195 195 196 197 198 198 198 197 197 197 196 196 196 195 194 194 194 193 193 192 192 192 191 191 190 190 190 189 188 187 187 186 186 184 182 180 180 179 179 179 179 178 178 177 177 177 177 177 178 178 178 177 176 174 174 174 174 174 174 174 174 174 174 173 173 173 172 172 173 173 173 173 172 172 171 171 171 170 169 169 169 168 168 167 167 167 166 164 163 161 160 158 155 148 147 144 142 139 135 133 131 127 124 121 119 119 119 119 118 115 109 105 101 91 82 68 60 46 37 35 34 38 44 49 51 58 64 71 80 91 91 91 80 79 77 77 77 73 62 60 60 60 64 71 79 98 103 110 110 110 112 112 112 112 108 105 103 103 105 111 118 118 117 105 101 103 104 112 118 125 130 135 139 141 143 145 145 145 141 136 132 130 127 121 116 113 111 108 104 102 101 100 100 99 99 99 101 102 103 105 107 111 114 116 117 
222 221 219 217 214 212 210 207 205 201 198 195 192 189 187 183 172 166 161 156 152 151 134 114 97 95 94 94 95 98 100 103 104 104 106 107 107 107 102 87 63 46 42 42 46 50 59 67 76 89 94 102 117 130 136 140 141 143 144 145 146 150 151 152 154 157 161 163 164 165 167 169 169 170 170 171 173 174 174 174 175 175 174 174 175 176 176 178 179 179 179 180 181 183 185 185 186 186 186 187 188 189 190 190 192 192 193 193 193 193 193 193 193 194 194 194 196 196 196 197 197 198 198 198 198 198 197 197 197 198 199 199 199 199 200 200 200 200 200 200 200 200 200 200 200 199 198 197 197 197 197 197 197 198 198 198 199 200 201 201 201 201 201 201 201 202 202 202 202 200 200 200 200 200 200 199 198 198 198 198 198 199 199 199 199 199 198 198 198 198 197 196 195 195 195 195 196 197 198 198 198 198 197 197 197 196 196 195 194 194 194 193 193 193 192 191 191 190 190 190 189 189 188 187 186 186 186 185 183 180 180 179 178 178 179 178 178 177 177 177 177 177 178 178 178 178 177 176 175 174 174 173 173 173 174 174 174 174 174 174 173 173 173 174 174 174 173 173 172 171 171 171 170 170 170 169 168 168 167 167 167 166 164 162 160 160 158 154 147 146 144 141 137 133 131 129 127 124 121 119 119 119 119 118 116 110 108 101 95 86 76 65 52 37 35 33 30 33 40 44 51 59 64 73 87 90 90 80 79 76 76 73 67 64 58 58 58 61 68 73 88 96 107 110 110 110 110 110 108 106 105 103 103 106 115 122 123 123 109 105 105 106 112 118 125 129 135 138 141 143 145 145 145 141 136 132 131 127 121 116 114 112 110 104 103 101 101 100 99 99 99 99 101 102 105 108 111 114 116 118 
223 222 219 218 215 214 212 209 206 202 199 196 194 191 188 183 174 169 165 161 153 152 129 106 95 95 93 94 97 100 103 103 104 102 102 101 102 101 95 76 55 41 38 38 42 47 59 67 77 89 99 110 123 133 139 142 143 144 145 145 146 148 151 151 154 157 160 163 163 165 167 169 169 170 171 172 172 173 173 174 174 174 174 175 176 176 177 179 179 179 179 180 180 182 184 185 186 186 186 187 188 188 190 190 191 192 192 192 192 192 193 193 193 194 194 194 196 196 196 197 197 198 199 198 198 198 197 197 197 198 198 199 199 199 200 200 200 200 200 199 199 200 200 200 199 198 198 197 197 197 197 197 198 198 198 198 199 199 200 201 201 201 201 201 202 203 203 203 202 200 200 200 200 200 199 199 198 198 198 198 199 199 199 199 199 198 198 198 198 198 198 197 195 195 195 196 197 198 198 198 198 198 198 197 196 196 196 195 194 193 193 193 192 192 191 191 190 189 189 188 187 187 186 186 185 185 184 183 181 179 178 178 178 178 179 178 178 177 177 177 177 178 178 178 178 177 176 175 175 174 174 173 173 173 173 174 174 174 174 174 174 174 174 174 174 174 174 173 172 171 171 171 170 170 170 169 168 168 167 167 166 164 162 161 160 159 156 154 147 146 143 139 135 132 130 128 126 123 121 120 119 119 119 118 116 113 109 105 99 91 82 68 59 44 34 30 27 26 31 37 43 51 60 68 78 85 85 79 77 72 70 68 66 64 64 64 64 64 70 71 76 94 97 102 107 107 107 107 106 106 106 105 105 106 111 122 131 131 122 109 109 112 113 119 124 129 133 137 141 143 144 144 144 141 136 133 131 127 121 116 114 112 110 106 103 101 101 100 99 99 99 99 101 103 105 108 111 115 117 118 
222 221 218 216 215 214 212 211 209 205 201 197 195 193 190 188 176 171 167 164 157 152 125 100 94 93 92 94 98 101 103 103 103 100 97 94 93 90 87 64 49 37 37 38 40 47 59 74 78 93 102 116 129 136 142 144 145 145 145 145 145 147 150 151 154 156 160 162 163 164 166 168 170 171 171 172 172 173 173 173 174 174 175 175 176 176 177 178 179 179 179 180 180 182 184 185 185 186 186 186 187 188 188 190 191 191 192 192 192 192 192 193 193 194 194 194 196 196 196 197 197 198 199 199 198 198 198 197 197 197 198 199 199 199 200 199 199 199 199 198 198 199 199 199 199 198 198 197 197 197 197 198 198 198 198 198 199 199 200 201 201 201 201 202 203 203 203 203 203 201 200 200 199 199 199 198 197 197 197 198 199 199 199 199 198 198 198 198 198 198 198 197 196 195 195 196 197 198 198 198 198 198 198 197 196 196 195 194 193 193 193 192 191 191 190 190 189 188 188 187 185 185 185 184 184 183 182 181 179 178 177 177 177 177 177 176 176 175 175 176 177 178 178 178 177 177 176 175 175 175 174 173 173 173 173 173 174 174 174 174 174 174 174 174 174 174 174 173 172 171 171 171 170 170 170 169 168 168 167 166 164 164 161 160 159 158 156 153 147 145 141 137 134 130 129 127 126 123 121 120 120 119 119 119 117 114 110 108 102 96 86 76 67 52 37 30 26 24 26 31 37 43 52 59 68 78 79 77 71 68 66 66 65 65 65 66 65 66 70 74 78 85 95 100 100 100 103 105 106 106 106 106 106 106 111 122 131 131 127 117 113 113 117 120 124 129 135 139 141 143 144 144 144 140 136 133 130 125 119 116 113 111 109 107 103 101 101 100 99 99 99 99 102 103 105 109 112 115 117 119 
220 220 217 215 214 213 212 211 209 206 201 198 196 194 191 188 177 173 169 167 161 152 123 96 87 87 87 94 98 101 103 103 102 93 93 90 89 88 76 57 42 34 34 36 40 47 62 74 83 96 109 120 134 141 144 145 146 146 145 145 145 146 148 151 153 156 160 162 163 164 166 168 170 171 171 172 172 173 173 173 174 174 175 176 176 176 176 177 179 179 179 180 181 183 184 185 185 185 185 186 187 188 188 190 191 191 191 191 191 191 192 192 193 194 194 194 196 196 196 197 197 198 198 199 199 199 197 197 197 197 197 198 198 198 199 199 199 198 198 197 197 198 199 199 199 198 198 198 197 197 198 199 199 199 198 198 198 199 199 200 201 201 202 203 203 203 203 203 203 202 200 200 200 199 199 197 197 197 197 197 198 198 198 198 198 198 198 198 198 198 198 198 196 196 196 197 198 198 198 198 198 198 197 197 196 196 194 194 193 193 193 192 191 190 190 189 188 187 186 185 183 183 183 182 182 181 180 178 177 175 174 173 173 173 173 174 174 175 175 176 177 178 179 178 177 176 175 175 175 175 174 174 173 173 173 172 173 173 173 173 174 174 174 174 174 174 173 173 172 171 170 170 170 170 169 169 169 167 166 164 164 162 160 160 158 156 154 152 147 145 140 136 132 129 127 126 125 122 120 120 120 119 119 119 117 116 111 108 105 100 93 84 71 60 46 34 27 21 22 25 33 37 46 52 59 67 71 68 65 64 64 64 65 65 67 71 71 72 74 76 79 82 94 96 100 100 103 103 104 106 106 107 106 109 110 115 127 127 127 119 117 117 118 121 124 129 135 140 142 143 143 143 143 139 136 133 129 124 117 115 112 110 108 106 103 101 101 100 99 99 99 100 102 104 106 109 112 115 118 119 
217 216 215 214 213 213 212 211 209 206 202 199 197 195 192 189 179 175 171 167 166 152 122 96 81 81 81 93 98 101 102 102 97 91 90 89 88 86 72 50 38 31 31 32 40 49 63 77 89 103 116 128 139 143 145 146 147 146 146 145 145 145 147 150 153 156 159 161 162 164 166 168 171 171 171 172 172 173 173 173 174 175 176 176 176 176 176 177 178 179 179 179 180 182 184 184 185 185 185 186 186 187 188 188 190 191 191 191 191 191 191 192 192 193 194 194 196 196 196 197 197 197 198 198 198 198 197 196 196 196 197 198 198 198 198 198 198 198 197 196 196 196 198 199 199 199 198 198 198 198 198 199 199 199 198 198 198 198 199 200 200 201 202 203 203 203 203 203 203 202 201 200 200 199 198 197 197 197 197 197 197 197 197 197 197 197 198 198 198 199 198 198 197 197 197 197 198 198 198 198 198 197 197 196 195 195 194 193 193 193 192 192 190 189 189 188 187 186 185 183 182 181 181 181 181 179 178 176 174 174 173 173 173 173 173 174 174 174 175 175 178 179 179 178 177 175 175 175 175 175 174 174 173 172 172 171 171 171 172 173 173 173 174 174 174 173 173 172 171 171 170 170 170 169 169 169 168 166 165 164 162 161 160 159 157 156 154 151 147 144 139 135 131 129 127 126 125 122 120 120 120 119 119 119 117 116 114 111 108 104 97 91 79 68 54 43 34 25 22 22 25 34 37 46 51 58 63 64 63 63 63 64 64 67 68 74 74 74 75 78 79 83 90 96 99 100 101 103 103 106 107 109 110 110 111 115 127 127 127 124 120 119 120 123 127 130 135 141 142 143 143 143 143 139 136 133 129 124 116 112 110 108 106 104 102 101 101 100 100 99 100 101 103 104 106 109 113 116 118 119 
215 215 213 212 212 211 211 210 209 206 203 200 198 195 193 190 182 177 173 169 167 152 122 96 79 79 79 89 98 101 102 102 93 90 89 88 86 76 61 43 29 29 29 31 41 51 63 78 92 109 120 133 141 144 146 147 147 147 147 145 145 145 146 150 153 156 159 160 162 163 166 168 170 171 171 172 172 172 173 173 174 175 176 176 176 176 176 176 177 178 179 179 180 181 182 184 184 184 184 185 185 186 187 188 188 190 191 191 191 191 191 191 192 193 194 194 195 196 196 197 197 197 198 198 198 197 196 196 196 196 197 197 198 198 198 198 198 198 198 196 196 196 198 199 199 199 199 198 198 198 198 198 199 198 198 198 198 198 199 199 200 200 201 202 203 203 203 203 202 202 201 200 199 198 197 197 197 197 197 197 197 197 197 197 197 197 197 198 198 199 198 198 197 197 197 197 197 198 197 197 197 197 196 195 195 194 193 193 193 192 192 191 190 188 188 187 186 184 183 181 181 181 180 179 178 177 176 174 173 173 172 171 172 172 173 173 174 174 175 176 177 178 178 177 176 174 174 174 174 174 174 174 173 172 171 170 170 170 171 171 172 172 173 173 173 172 172 171 171 170 170 169 169 169 169 168 167 165 164 163 161 160 159 157 156 155 153 149 147 140 139 135 131 129 127 126 124 121 120 120 120 119 119 118 118 117 116 111 110 106 102 95 88 76 62 50 38 27 25 22 23 28 33 35 46 49 56 59 60 61 62 63 64 68 74 78 77 77 78 79 81 84 92 98 101 101 100 101 103 104 108 110 111 111 115 119 125 131 131 127 124 123 123 124 127 133 137 141 143 143 143 143 142 139 136 133 129 123 116 111 109 107 105 103 101 101 101 100 100 100 100 101 103 104 106 109 113 116 118 119 
213 212 212 211 211 210 210 209 207 206 204 201 198 196 193 190 186 179 175 171 167 152 122 99 79 79 79 83 97 98 98 98 91 90 88 86 81 74 56 42 25 25 25 32 45 55 69 89 103 116 125 137 143 145 146 148 148 147 147 144 144 144 146 148 154 156 159 160 161 162 165 167 169 170 171 171 172 172 173 173 174 175 176 176 176 176 175 176 177 178 179 179 180 181 182 183 183 183 183 184 184 184 185 187 188 188 189 190 190 190 191 191 192 193 194 194 195 195 196 196 197 197 197 198 197 197 197 196 196 196 196 197 197 197 198 198 198 198 198 198 197 198 198 199 199 199 199 199 199 198 198 198 197 197 197 197 196 196 198 199 199 200 200 200 200 200 200 200 200 200 200 199 198 197 197 197 197 197 197 197 197 197 197 197 197 197 197 198 198 198 198 198 197 197 197 197 197 196 195 195 195 195 195 194 194 193 193 193 193 192 191 190 189 187 187 186 184 183 181 181 180 180 178 178 176 175 174 173 172 171 171 171 171 171 172 174 174 175 176 176 176 177 177 175 174 173 172 173 173 174 174 173 172 170 170 170 169 170 169 170 170 170 171 171 171 171 171 170 170 170 169 169 169 169 168 167 166 164 163 162 160 158 157 156 155 154 152 149 144 140 138 134 131 128 126 125 123 122 121 120 120 119 119 118 118 117 116 112 110 108 104 97 93 84 71 57 46 35 27 23 22 23 25 29 32 35 44 47 55 57 60 62 65 74 85 85 80 78 79 79 81 86 96 101 102 101 100 100 101 103 105 108 111 112 119 123 128 133 133 133 127 125 125 127 129 135 140 142 144 144 143 143 142 139 135 133 128 123 116 110 108 106 105 103 102 101 101 101 100 100 101 102 104 106 109 111 113 117 120 122 
212 211 209 209 209 209 208 207 206 205 204 201 198 196 193 192 188 181 179 172 169 153 122 102 85 81 81 84 97 98 98 96 91 89 86 81 75 67 52 37 26 26 26 39 48 59 72 91 107 118 130 139 144 145 147 148 148 147 147 145 145 145 146 148 154 156 159 160 161 162 165 167 169 170 170 171 172 172 173 174 174 176 176 176 176 175 175 175 177 178 178 179 180 181 182 182 182 182 182 182 183 184 184 184 185 187 188 188 189 189 190 190 191 192 193 194 194 195 195 196 196 197 197 197 197 197 196 196 196 196 196 197 197 197 198 198 198 199 199 198 198 198 199 199 200 200 199 199 199 198 198 197 197 197 197 196 195 195 195 197 198 199 199 199 199 199 199 199 199 199 199 198 197 195 195 196 196 197 197 197 197 197 197 197 197 197 197 197 197 198 198 197 197 197 197 196 195 194 194 194 194 194 194 194 193 193 193 192 192 191 190 189 187 186 185 184 183 181 180 180 179 178 177 175 174 173 172 171 171 170 170 170 170 170 171 173 174 175 175 175 175 176 174 173 172 171 171 172 172 172 172 172 170 170 169 168 168 168 168 169 169 169 170 170 170 170 170 170 170 169 169 169 168 168 167 166 165 164 162 161 160 158 157 156 155 154 150 147 142 140 138 134 131 128 126 125 123 122 121 121 120 119 118 118 117 117 116 114 111 108 104 100 95 85 76 66 55 42 31 23 20 20 20 23 25 25 29 35 46 53 56 58 67 83 87 87 83 79 79 79 81 88 96 98 98 97 98 99 99 99 103 107 108 114 119 124 128 133 133 133 130 127 127 129 131 137 142 145 145 144 143 143 142 139 135 133 127 122 116 110 107 106 105 103 102 101 101 101 101 101 101 102 104 107 109 112 115 118 121 123 
209 209 208 208 208 207 207 206 205 204 202 199 197 194 193 190 188 182 180 175 169 151 122 103 90 84 84 86 97 98 98 96 90 86 81 75 68 61 46 32 30 30 31 41 51 63 77 93 113 125 135 143 147 147 147 148 148 147 147 145 145 145 146 148 152 156 159 160 161 162 165 167 169 170 170 171 171 173 174 174 175 176 176 176 176 175 175 175 176 177 178 179 180 180 181 182 182 182 182 182 182 183 183 184 184 185 186 186 187 187 188 189 190 192 192 193 194 194 194 195 196 197 197 197 197 196 196 196 196 196 196 196 197 197 198 198 198 199 199 198 198 199 199 199 199 200 199 199 198 197 197 197 197 196 196 195 195 195 195 196 197 198 198 198 199 199 199 199 199 199 198 197 195 195 195 195 196 196 196 197 197 197 197 197 197 197 196 197 197 197 197 197 197 197 196 195 194 193 193 193 193 193 193 193 191 191 190 190 190 188 187 186 185 183 182 179 179 179 179 178 177 176 174 173 171 170 169 169 169 169 169 169 169 170 170 172 174 175 175 174 173 173 171 170 169 168 169 170 170 170 170 170 169 169 168 167 167 167 167 168 168 169 169 169 169 169 169 169 169 169 169 168 168 167 166 166 165 164 162 161 160 158 157 156 155 153 149 147 141 140 137 134 131 128 126 125 123 123 123 122 120 119 118 118 117 117 116 116 112 110 105 102 95 85 76 71 57 46 35 24 20 20 20 20 20 23 24 26 33 44 51 57 59 77 87 87 81 76 76 78 88 90 93 97 92 92 92 96 96 97 99 101 108 115 120 124 128 131 131 131 131 130 130 131 135 139 145 145 145 144 144 143 141 139 135 131 127 122 116 110 107 106 105 103 102 101 101 101 101 101 102 103 106 109 110 113 117 120 123 125 
207 207 207 206 206 205 205 204 203 202 199 198 195 193 192 188 185 181 179 175 169 151 122 103 93 88 88 90 99 99 99 95 88 79 76 68 61 56 43 32 31 31 35 47 56 67 83 97 118 130 139 144 147 147 147 148 148 147 147 146 146 146 147 148 149 154 156 159 160 162 165 167 169 170 170 170 171 173 174 174 175 175 176 176 175 174 174 174 175 177 178 179 180 180 181 182 182 182 181 181 180 181 182 183 184 184 184 184 185 185 186 187 188 190 192 192 193 194 193 193 193 193 194 194 195 196 195 195 195 195 195 195 196 196 197 198 198 198 199 198 198 199 199 199 199 199 199 198 198 197 197 197 197 196 196 195 195 194 195 195 196 197 198 198 198 198 199 199 199 198 197 195 194 194 194 194 195 196 196 196 196 197 197 197 196 196 195 195 195 196 196 194 194 194 194 193 193 193 193 193 193 192 191 188 187 187 185 187 187 185 185 183 182 179 178 176 176 176 176 176 175 173 171 170 169 169 169 169 169 169 169 169 168 168 168 169 169 169 170 170 169 169 168 167 166 166 166 168 168 169 169 168 167 167 167 167 167 167 167 167 168 168 169 169 169 169 168 169 169 169 169 169 167 167 166 166 165 163 162 161 160 158 156 155 154 152 149 146 141 140 137 133 130 127 126 125 124 124 125 123 122 120 118 117 117 117 116 114 112 110 104 98 95 90 84 76 63 48 38 30 24 22 20 19 19 20 19 24 30 37 46 51 57 71 81 81 76 74 76 80 88 88 90 88 85 84 84 87 90 90 90 92 97 108 119 123 124 128 129 131 131 131 131 133 138 142 144 145 145 144 143 142 139 137 133 129 126 122 115 110 107 106 105 104 102 101 101 101 101 102 103 104 108 109 111 114 118 121 124 126 
204 204 204 204 203 202 201 199 199 198 197 195 193 192 188 185 184 181 178 172 167 149 122 103 95 92 92 95 100 100 100 95 83 77 68 62 57 55 43 32 32 32 37 48 60 74 90 106 122 132 143 144 147 147 148 148 148 148 148 147 147 147 148 148 149 152 154 156 160 162 164 165 167 169 170 170 171 173 174 174 175 175 174 174 174 174 174 174 175 175 177 177 178 180 181 182 181 181 180 180 180 179 181 182 182 183 183 183 184 184 185 186 187 188 189 191 192 191 190 190 190 190 190 191 192 192 193 193 193 193 193 193 193 195 196 196 197 197 197 197 197 198 199 199 199 198 198 198 197 197 197 197 197 196 196 195 194 194 194 194 195 197 197 198 198 198 198 198 198 197 196 194 193 192 193 193 194 195 196 196 196 197 196 196 195 195 194 193 193 193 193 192 192 192 191 189 189 190 189 191 191 189 186 185 183 183 183 183 183 183 182 179 179 176 174 173 173 173 174 173 172 171 169 168 168 168 168 169 169 169 168 168 168 167 167 167 166 165 165 166 168 168 167 166 166 165 164 165 165 165 166 166 166 166 167 167 166 166 166 166 167 167 168 168 168 167 167 167 169 169 169 169 167 166 166 165 165 163 162 161 160 158 156 155 154 152 149 146 141 140 137 133 130 128 126 125 125 126 126 125 123 121 118 117 117 116 114 114 110 107 103 100 95 92 89 84 71 63 48 38 30 24 20 19 19 19 18 18 24 26 35 42 51 60 68 72 72 72 74 81 88 88 88 81 81 83 83 83 84 84 86 90 93 100 112 116 121 124 127 129 129 131 131 133 139 142 143 144 144 143 142 139 138 135 131 128 126 122 115 110 107 106 105 104 102 101 101 101 102 102 103 105 109 109 111 114 118 122 125 127 
201 202 202 202 201 199 198 196 195 194 194 192 190 188 187 184 184 179 175 171 162 144 119 102 96 95 95 99 101 101 101 95 81 70 67 58 56 54 42 32 32 32 41 53 67 82 97 111 125 135 143 144 147 147 148 149 149 148 148 148 147 147 148 148 149 150 153 155 159 161 163 164 165 168 170 170 171 172 173 174 174 173 173 173 174 174 174 174 175 175 176 176 177 177 179 180 180 180 180 180 179 179 180 182 182 182 183 183 183 184 184 184 185 186 187 188 188 188 188 189 189 189 190 189 189 189 190 191 191 191 191 191 192 192 193 194 194 194 194 194 195 195 196 196 196 196 196 195 195 196 197 197 197 196 196 194 194 193 192 192 193 194 196 197 197 198 198 198 197 197 195 194 193 192 192 193 194 194 194 195 196 196 196 196 195 194 193 193 192 192 192 191 191 190 188 186 187 188 188 188 188 187 184 183 182 182 181 179 179 179 179 177 175 173 171 171 171 171 171 171 170 169 168 168 168 168 168 169 169 169 168 168 167 167 166 165 164 164 164 165 166 166 166 166 165 164 164 164 164 165 165 165 165 165 166 166 166 166 166 165 166 167 167 167 167 166 166 166 167 169 169 169 167 166 166 165 164 163 162 161 160 159 157 155 154 151 148 144 142 140 139 136 132 129 128 127 127 127 126 125 123 121 118 117 116 115 114 114 110 106 102 100 95 92 90 86 76 70 63 48 37 31 26 21 19 19 18 18 20 24 26 35 46 52 58 60 69 71 72 81 88 88 81 77 77 78 80 81 83 83 83 87 92 97 104 113 116 117 120 123 128 129 131 133 137 139 142 143 142 141 139 138 135 134 130 127 125 120 114 109 106 105 105 103 101 101 101 101 102 103 104 105 108 110 112 115 120 124 128 130 
199 200 200 200 199 198 196 195 194 193 193 191 189 187 185 184 180 177 174 168 157 140 119 103 102 97 97 101 102 101 101 93 80 69 61 56 55 48 42 35 35 35 47 60 74 90 106 120 129 141 144 145 146 147 147 148 148 148 148 148 148 148 148 149 149 150 151 153 157 160 163 164 165 167 168 170 171 172 173 173 173 173 172 173 173 174 174 174 175 175 176 176 176 177 178 179 180 180 180 179 179 178 178 179 182 182 182 183 183 183 184 184 184 185 185 185 185 185 185 187 188 188 189 189 189 189 189 190 190 190 190 190 190 191 192 192 192 192 192 193 193 194 195 195 195 195 194 194 194 194 195 196 196 196 195 194 192 192 192 192 192 192 193 195 196 197 197 197 197 196 195 194 193 192 192 192 193 193 194 195 195 196 196 194 193 193 193 192 192 192 191 190 190 189 188 186 186 186 186 187 187 184 182 182 182 181 179 178 176 175 175 174 173 171 171 171 171 171 171 171 170 169 168 168 167 167 167 168 168 168 168 167 167 164 164 164 164 164 164 164 164 165 166 166 165 164 164 164 164 163 164 165 165 165 166 165 165 165 164 164 164 165 166 166 166 165 165 165 168 169 169 169 167 166 165 165 163 163 162 160 160 159 158 156 154 151 148 144 143 141 139 136 133 131 130 129 128 127 127 125 122 120 118 117 116 115 114 113 110 107 104 102 99 95 92 89 81 76 70 63 41 38 32 28 24 21 18 18 20 21 25 31 35 39 50 57 60 70 74 85 86 85 77 77 73 77 78 80 80 80 81 83 92 95 101 112 114 116 117 120 120 123 128 131 134 139 139 139 139 138 137 135 134 132 128 126 122 117 112 107 106 105 104 102 101 101 101 101 103 104 105 106 108 109 112 117 122 125 132 135 
198 199 199 198 197 196 194 193 193 192 191 189 187 185 184 180 178 174 170 163 154 140 122 112 102 102 101 103 102 101 99 92 80 68 57 55 53 43 42 37 37 38 51 64 81 98 113 125 132 142 144 145 147 147 147 148 148 148 148 148 148 148 148 149 149 150 151 154 157 160 163 164 165 167 168 170 171 172 173 173 173 173 172 173 174 174 175 175 176 176 176 176 176 177 178 179 179 180 180 179 178 178 178 178 178 181 182 182 182 183 183 184 184 184 185 185 185 185 185 185 185 186 188 188 188 188 188 188 189 188 188 188 188 190 190 191 192 192 192 192 192 192 193 194 194 193 192 192 192 193 194 195 195 195 194 192 192 191 191 191 191 191 191 192 193 194 194 196 196 195 194 194 193 191 191 191 191 191 193 194 194 195 195 193 193 193 192 191 191 191 190 189 188 186 186 185 185 185 185 184 182 182 181 180 179 178 176 175 174 174 171 171 169 169 169 170 170 171 171 170 169 169 168 167 167 167 166 167 167 168 167 164 164 163 160 160 160 162 162 163 163 163 165 166 164 164 163 163 162 162 162 163 164 164 164 164 164 163 163 163 163 164 164 165 165 164 165 166 169 169 169 167 166 165 165 163 163 162 161 160 159 159 158 156 154 151 147 144 143 142 140 138 135 132 130 129 128 127 126 123 122 120 118 117 116 115 114 112 110 106 104 103 101 98 95 91 86 81 77 70 54 47 37 32 28 24 18 18 20 20 25 27 32 35 45 53 58 69 76 85 85 81 77 71 69 69 77 78 79 80 81 85 92 95 100 107 114 114 116 118 120 121 124 128 132 134 136 136 136 136 135 134 133 131 127 125 120 116 111 107 105 105 103 102 101 101 101 102 103 104 105 107 108 110 112 117 123 128 135 138 
196 196 197 196 196 195 193 193 192 191 190 187 185 184 181 178 174 171 165 157 150 140 129 117 112 109 106 106 102 101 95 87 80 68 56 54 44 43 40 38 38 40 56 74 90 108 120 129 139 143 144 146 147 147 148 148 149 149 148 148 148 148 148 149 149 151 153 155 157 162 163 164 165 167 168 169 171 172 173 173 173 173 173 174 174 176 176 176 176 176 176 176 176 177 178 179 179 179 179 178 178 177 177 177 177 178 179 179 180 181 181 182 182 183 183 183 183 183 183 183 183 182 182 183 185 187 187 187 187 186 186 186 186 187 188 190 190 190 190 190 191 191 191 191 190 189 189 189 189 191 191 193 193 193 191 191 190 189 185 188 189 188 188 190 191 192 192 193 192 192 193 193 191 191 191 190 190 191 191 192 194 194 193 193 190 190 189 188 187 186 186 186 185 185 184 184 183 182 181 181 179 177 176 176 176 175 174 174 171 171 170 169 169 168 169 169 169 170 170 169 169 168 168 166 166 165 164 165 166 166 163 161 159 158 158 158 158 158 160 160 160 160 160 163 163 163 162 162 160 159 159 158 158 161 163 161 161 160 160 160 162 163 163 163 163 163 165 166 169 171 170 169 166 165 164 164 163 162 161 160 159 159 158 157 155 151 148 146 144 143 141 139 136 132 131 129 127 126 123 122 122 120 118 117 116 115 114 112 110 107 105 103 102 100 96 92 89 85 80 74 65 53 42 36 28 25 21 20 20 20 24 25 28 32 36 52 57 69 81 84 84 81 72 68 68 69 70 74 74 78 79 83 91 94 99 105 111 114 115 117 119 120 123 127 130 133 135 136 136 135 135 134 132 130 126 122 118 114 109 106 105 104 103 101 101 101 101 102 103 105 106 108 108 112 116 118 124 130 134 137 
195 196 196 196 196 194 193 192 190 190 189 186 183 181 179 175 173 168 161 154 149 140 132 122 115 112 110 107 103 99 92 84 78 64 55 47 43 41 39 38 38 41 59 81 98 113 125 132 141 143 145 147 147 148 148 148 149 149 149 148 148 148 148 149 149 151 153 157 159 162 162 164 164 167 168 169 170 172 172 173 173 173 173 174 174 175 176 176 176 176 176 176 176 177 178 179 179 179 179 178 178 177 177 177 177 178 178 178 178 179 180 180 181 181 182 183 183 183 182 182 180 180 180 180 181 183 185 185 185 183 183 183 184 185 185 186 186 186 187 187 188 188 188 188 188 187 187 187 187 188 189 189 188 188 184 184 185 183 183 185 186 185 186 187 187 187 189 192 190 190 192 191 190 190 190 190 190 190 190 190 190 189 188 187 186 186 186 185 184 184 184 184 184 183 183 182 181 180 179 177 176 176 176 175 175 174 172 171 170 169 169 169 167 167 167 167 168 169 169 168 168 168 166 164 164 163 162 162 162 161 159 158 158 156 155 153 151 151 152 154 154 154 155 155 157 159 159 159 157 157 154 154 155 155 156 156 156 155 155 152 152 152 152 155 159 162 163 165 169 171 171 169 166 164 164 163 163 163 161 159 159 158 157 156 155 152 151 147 146 144 143 140 136 134 131 130 127 125 124 123 122 120 118 117 116 116 116 114 111 107 105 104 102 101 99 94 89 86 82 79 70 61 52 41 33 28 25 22 22 23 24 25 27 30 35 45 57 70 81 84 81 74 68 65 67 68 68 69 69 73 74 77 85 91 97 99 106 112 115 117 118 120 123 126 130 132 134 136 136 135 134 134 132 128 125 120 116 112 108 105 104 103 102 101 101 101 101 102 103 105 107 108 110 113 117 119 125 130 135 138 
196 196 196 196 195 193 192 190 189 188 186 183 181 179 176 173 170 164 160 152 148 140 132 125 119 114 111 108 101 94 87 80 77 64 48 43 42 39 38 38 38 43 63 86 108 122 126 134 141 143 147 147 147 148 148 148 149 149 149 148 148 148 147 148 149 150 153 156 158 160 162 163 164 167 168 169 170 172 172 173 173 173 173 173 174 174 175 175 175 175 176 176 176 178 179 179 179 179 179 179 178 178 178 177 177 177 177 177 177 178 178 179 179 179 179 180 180 180 180 179 179 179 179 178 178 178 179 179 179 178 178 178 178 179 180 180 182 182 182 183 183 183 184 184 186 186 186 186 186 186 186 184 184 182 181 180 181 180 179 182 183 183 183 186 187 187 187 187 189 189 189 189 189 189 189 189 186 186 186 185 184 182 181 181 181 181 181 181 181 181 181 181 180 180 179 179 179 178 177 176 175 174 173 173 172 171 171 170 169 168 167 166 164 164 165 166 166 166 167 165 165 165 164 162 160 160 160 160 159 158 157 156 154 151 151 150 148 147 147 147 149 149 149 149 149 150 154 150 143 142 140 137 139 143 143 147 148 148 148 145 139 139 139 145 147 152 158 164 167 167 167 166 164 163 163 163 163 163 161 159 159 158 157 156 155 153 152 151 147 146 144 142 140 135 132 130 127 125 124 123 122 122 120 118 117 116 116 114 112 109 106 105 103 102 99 94 90 86 85 82 77 69 58 49 40 33 28 24 23 23 24 25 26 29 32 44 61 78 81 81 80 72 68 66 68 68 68 68 68 68 68 73 77 83 90 94 101 107 114 117 118 120 123 127 131 133 135 137 138 136 135 133 132 127 122 118 114 110 106 104 103 102 102 101 101 101 102 103 104 106 107 108 111 116 117 121 126 133 138 142 
196 196 196 196 195 193 190 189 187 185 183 181 179 176 173 171 166 161 157 149 145 139 132 126 122 115 112 105 97 91 85 78 76 64 48 43 40 38 37 37 38 44 66 91 112 125 131 134 140 143 147 147 148 148 148 148 149 149 149 148 148 147 146 147 148 149 152 155 158 160 162 163 164 166 168 169 170 172 172 173 174 174 173 173 173 174 175 175 175 175 175 176 176 177 179 179 179 179 179 179 178 178 178 177 177 177 176 176 175 176 176 177 177 178 178 179 179 179 179 179 179 179 178 178 177 177 177 176 176 175 176 176 176 177 177 178 178 178 179 179 180 180 180 180 180 182 179 178 179 179 178 178 180 179 178 178 179 179 179 180 182 182 182 183 184 184 184 184 185 185 185 185 184 184 184 184 180 180 180 179 178 177 177 177 178 178 178 178 178 178 178 178 176 176 176 176 176 174 174 171 171 170 170 169 168 168 167 167 166 166 164 164 164 164 164 164 164 165 163 161 161 161 160 158 157 157 156 156 156 154 152 151 150 148 147 145 142 141 139 139 139 140 140 140 140 140 142 139 126 123 123 121 127 128 128 129 133 133 133 129 124 124 124 125 128 130 138 148 158 163 164 164 163 163 163 163 163 163 161 160 159 158 157 156 155 154 153 152 150 147 147 144 142 139 135 131 128 126 125 124 123 123 122 120 119 117 116 115 112 109 106 105 103 102 100 94 91 89 86 83 79 70 62 53 44 37 31 25 24 23 23 24 26 28 32 47 67 78 79 80 74 70 68 68 68 68 68 66 64 64 68 72 76 77 81 86 93 101 107 114 118 121 125 129 132 135 137 139 139 139 136 134 133 127 120 116 112 108 105 104 103 102 102 102 101 102 102 103 105 107 108 110 114 116 118 122 128 135 141 145 
196 197 196 195 193 190 188 187 184 183 181 178 176 173 171 167 165 159 152 148 142 136 132 125 121 118 109 101 94 86 81 77 75 64 48 42 39 38 36 36 37 44 70 96 114 126 131 134 139 143 147 147 148 148 148 148 149 149 148 147 147 146 146 147 147 149 152 155 158 160 160 162 164 166 167 169 170 172 173 173 173 172 172 172 172 172 173 174 175 175 175 175 175 176 178 179 179 179 179 179 178 178 178 177 176 175 175 175 175 175 175 175 176 176 177 177 178 178 178 178 178 177 177 177 177 176 176 175 174 174 174 175 175 176 176 175 174 174 175 175 175 176 176 176 176 176 172 172 172 172 172 176 177 177 176 178 178 178 178 178 179 179 179 180 181 182 183 183 183 183 181 179 178 177 177 177 176 176 175 176 175 176 175 176 176 176 176 176 176 176 173 170 170 173 171 170 170 170 170 169 169 169 168 168 167 167 166 166 165 164 163 163 163 163 163 163 163 161 159 157 156 156 156 156 149 149 149 149 147 145 143 142 141 141 140 137 134 131 129 127 127 127 129 129 129 129 128 123 118 118 119 119 119 120 117 115 109 109 109 109 110 110 110 111 117 119 123 129 136 144 151 155 156 157 158 158 161 163 161 160 158 158 157 156 156 155 153 152 152 150 147 146 145 143 140 138 134 130 128 126 125 124 123 121 120 118 117 115 112 109 108 106 105 103 101 98 94 90 88 85 82 76 69 61 49 40 34 27 24 23 23 23 24 28 36 51 69 73 74 74 70 68 68 68 68 68 68 64 64 64 66 73 76 77 78 83 90 95 101 108 117 121 126 131 134 135 138 140 140 139 138 135 133 127 119 115 110 107 104 103 103 103 103 102 102 103 103 104 105 107 109 111 116 117 119 123 129 136 143 147 
196 197 195 194 192 190 187 184 182 180 178 176 173 171 168 166 161 154 149 145 139 133 128 123 121 115 105 97 92 86 80 77 73 65 54 42 39 37 33 33 36 46 74 100 117 126 130 133 137 141 145 147 147 148 148 148 148 148 147 147 147 146 146 147 147 149 152 155 158 160 160 162 164 166 167 169 170 172 173 173 173 172 172 172 171 171 172 172 173 174 174 175 175 175 176 177 179 179 179 179 178 177 176 174 174 174 174 175 175 175 174 175 174 175 176 176 177 177 177 177 177 177 177 177 176 176 175 174 173 173 173 173 173 174 174 173 172 172 172 172 172 172 172 169 169 172 169 168 171 171 171 172 174 176 176 176 175 175 175 175 175 175 175 176 177 179 180 180 180 178 176 173 171 171 172 173 173 173 173 172 171 170 172 173 171 171 173 170 168 168 168 167 167 168 167 166 166 167 167 167 168 168 167 167 166 166 165 165 164 162 161 161 161 161 160 160 157 156 155 153 151 149 147 147 144 144 143 143 141 138 136 134 132 132 131 130 127 123 119 117 117 117 120 120 120 118 118 111 109 109 111 113 113 110 107 99 92 92 92 96 104 106 108 108 108 109 109 109 118 126 136 142 149 149 150 152 155 157 157 157 156 156 156 156 156 157 154 153 152 151 149 147 145 144 143 141 139 137 134 131 128 125 124 122 120 119 117 115 111 109 108 108 106 105 103 100 97 94 90 86 84 79 75 68 54 43 34 27 24 23 22 22 24 32 43 51 64 70 70 69 68 68 68 68 68 68 66 65 64 64 69 74 76 77 78 79 85 93 100 103 115 121 126 131 134 135 139 140 140 139 137 135 132 127 119 115 109 107 104 103 103 103 103 103 103 103 104 105 106 108 110 111 116 118 122 127 132 137 142 145 
194 194 193 192 190 187 184 182 180 178 176 173 171 168 166 163 158 152 147 141 136 130 125 122 118 112 105 97 93 86 80 77 71 66 60 48 39 36 32 32 33 47 77 104 119 126 130 133 135 139 144 147 148 148 148 148 148 147 147 147 147 146 146 147 147 149 153 156 158 160 161 162 164 165 167 169 170 172 173 173 173 172 171 171 170 168 168 168 170 170 170 169 169 169 170 175 176 177 177 177 175 174 173 170 171 173 174 174 174 174 174 174 174 173 174 174 174 174 175 175 176 176 176 176 175 175 173 172 171 170 169 170 171 171 171 169 167 167 167 167 165 166 167 167 167 167 167 165 165 165 166 168 171 172 172 172 172 172 173 173 173 173 173 173 172 174 175 175 175 173 171 169 168 167 168 171 171 171 172 171 169 168 169 170 169 170 170 168 164 165 165 164 164 164 164 164 165 166 166 165 165 164 164 164 164 165 164 161 161 159 159 159 159 158 155 151 150 150 150 148 146 145 142 137 133 133 133 132 130 127 124 122 117 116 116 116 114 110 105 103 99 99 99 99 100 99 96 96 96 96 96 98 98 98 92 87 79 79 79 82 92 96 104 105 105 105 103 102 103 106 116 126 133 137 142 143 143 144 149 153 155 155 156 156 156 157 154 153 152 151 149 147 145 145 143 142 141 141 138 135 133 129 127 125 122 119 117 115 112 109 109 108 108 106 105 103 99 95 92 90 86 82 76 68 58 49 34 29 24 23 22 22 28 34 43 51 62 65 67 66 67 67 67 68 68 67 63 64 65 65 69 73 75 76 78 79 85 93 100 103 115 120 126 130 133 135 138 139 139 139 136 134 131 126 119 114 109 107 104 104 103 103 104 104 104 104 105 105 107 109 111 112 116 120 123 129 134 137 140 141 
192 192 190 189 187 184 181 179 178 175 173 171 168 166 163 158 152 147 141 136 130 125 122 118 113 107 105 97 93 86 80 75 70 67 65 54 43 33 30 30 31 47 77 104 121 126 130 133 134 139 144 147 147 148 147 147 146 147 147 147 147 147 147 147 149 151 153 156 158 160 160 162 163 165 166 167 169 171 173 173 173 170 169 168 166 164 164 164 163 163 163 162 161 161 161 161 169 174 175 173 170 168 167 167 167 169 171 174 174 174 174 172 172 172 172 172 172 172 173 173 173 173 174 174 173 172 171 170 169 168 168 168 168 168 167 164 164 164 164 164 163 164 165 165 165 165 165 164 163 161 164 164 166 167 168 170 170 168 170 170 172 172 172 170 170 170 170 170 169 167 166 166 166 165 166 167 168 169 169 169 168 166 168 168 167 168 168 165 164 164 164 164 164 163 163 163 163 164 163 162 162 161 159 159 160 161 160 159 159 159 158 155 153 151 146 146 146 145 145 142 138 137 133 130 120 117 117 116 114 110 107 105 99 98 98 98 96 91 87 84 79 75 74 74 74 75 75 75 75 75 77 77 80 81 73 70 67 59 58 67 69 79 88 96 99 97 96 94 92 92 97 103 116 122 126 126 129 129 130 136 137 140 145 151 156 157 153 152 151 149 147 145 145 145 143 143 142 142 141 138 136 134 130 128 125 120 117 115 112 110 109 108 108 108 107 105 101 97 94 92 89 85 79 70 62 53 35 29 27 24 23 27 28 36 43 50 60 64 64 64 65 65 61 62 62 61 60 62 64 65 66 71 74 76 77 79 85 93 100 103 115 119 124 128 132 134 138 139 139 138 135 132 129 126 119 114 109 106 104 103 103 104 104 105 105 105 106 107 108 110 112 114 117 123 125 131 135 137 137 137 
188 189 188 187 185 182 179 178 175 172 169 167 165 162 158 152 147 141 136 130 125 120 118 113 108 105 102 99 95 90 81 72 69 67 66 60 48 39 30 30 30 47 77 104 121 127 130 133 134 139 144 147 147 147 146 146 146 146 147 147 147 147 148 149 151 153 155 156 157 158 160 162 162 164 164 165 167 169 169 169 166 164 159 153 151 151 151 153 153 154 154 155 155 155 154 154 154 158 159 159 159 159 159 160 160 163 163 169 171 171 170 168 168 168 168 168 167 167 167 169 170 170 171 171 171 170 169 167 167 166 165 167 166 163 159 160 159 160 163 161 161 163 164 164 164 164 163 161 161 161 161 162 163 163 163 164 164 166 167 167 168 168 169 168 168 167 166 166 165 165 164 164 164 163 164 165 165 167 168 168 165 164 166 166 166 166 166 164 164 164 164 163 162 161 162 162 162 162 162 161 158 158 157 156 156 156 156 156 153 152 151 146 141 141 141 140 140 140 138 137 131 128 118 113 109 104 100 99 99 94 85 77 77 77 83 83 83 83 77 72 63 59 57 57 55 54 57 58 58 60 62 62 63 71 62 57 57 56 44 55 57 57 64 72 87 90 88 87 84 83 83 83 89 92 101 109 109 109 106 106 106 107 111 117 127 138 147 149 148 147 145 143 143 143 143 142 142 143 144 142 139 136 133 131 128 125 120 117 113 111 109 108 108 108 108 107 104 100 95 92 92 88 82 75 68 55 39 29 27 25 25 27 28 36 43 50 59 60 60 58 56 54 52 52 52 52 54 60 62 64 65 67 71 74 77 79 85 94 101 105 113 117 120 126 130 133 139 139 139 137 134 131 128 126 119 113 107 106 104 103 103 104 104 105 105 106 106 107 109 111 112 114 120 123 127 133 137 138 142 142 
187 188 187 187 184 180 178 175 172 169 165 163 160 157 151 147 141 136 130 125 118 115 109 107 105 102 100 97 95 90 81 72 69 66 65 64 57 43 33 33 35 47 73 104 122 128 130 133 136 139 143 146 147 147 146 146 146 146 147 147 147 148 149 150 151 153 156 156 158 159 159 159 162 163 163 163 163 163 161 159 154 149 141 135 135 135 142 142 144 144 144 144 143 142 142 142 146 149 149 149 146 143 146 151 154 155 158 159 159 159 159 159 160 161 161 161 162 162 163 164 166 166 167 168 168 168 166 165 165 163 162 163 161 158 158 158 158 158 159 159 159 161 161 163 163 163 161 160 160 160 160 161 161 161 161 161 161 162 164 164 165 166 166 166 166 165 164 165 165 163 163 163 163 162 162 163 164 165 166 165 164 164 164 164 164 164 163 162 162 160 159 159 158 156 159 160 160 160 159 158 155 152 148 147 146 145 145 145 143 141 139 134 131 130 128 127 125 125 122 121 118 112 103 95 87 84 81 80 79 73 64 61 61 61 66 66 66 66 61 58 48 44 42 42 42 39 42 45 34 46 46 46 46 57 56 45 45 42 37 37 42 42 42 47 62 71 82 82 81 80 80 73 71 69 71 77 83 83 83 78 78 78 79 84 94 105 114 120 131 133 136 140 141 141 141 142 142 144 146 145 144 141 138 134 131 128 125 121 117 113 110 109 109 108 108 108 106 101 96 94 92 91 85 79 70 56 42 32 27 25 25 27 28 36 43 50 56 57 56 53 42 40 40 40 40 41 43 52 57 62 65 65 66 67 72 76 84 91 100 103 108 114 118 122 126 133 139 139 139 137 134 130 128 125 118 112 107 104 103 103 103 103 104 105 105 106 107 108 109 111 112 114 120 123 127 133 137 138 142 143 
186 187 187 185 182 179 175 172 169 165 162 158 154 151 147 141 135 127 121 115 110 107 101 98 99 99 98 96 94 90 82 72 69 66 65 65 60 57 43 43 44 47 73 103 122 128 132 134 135 138 142 145 146 146 146 146 147 147 147 147 147 149 150 151 153 154 156 157 159 159 159 159 159 161 161 160 160 155 150 147 136 133 128 128 128 129 130 135 135 135 135 132 130 127 127 127 127 132 137 137 138 138 138 140 141 147 151 151 151 151 151 154 155 155 155 155 155 155 157 160 162 163 164 165 165 165 164 160 160 160 159 159 158 158 157 158 158 158 158 157 157 157 158 160 160 160 159 159 159 159 159 159 159 159 159 159 159 159 159 159 162 162 162 162 164 164 162 163 163 162 162 162 162 160 160 160 160 162 163 161 161 161 161 162 162 162 160 158 158 156 156 156 153 150 153 153 153 155 155 152 148 147 143 139 137 135 135 133 133 130 127 125 123 119 115 112 109 109 105 103 100 93 85 78 69 66 63 62 60 56 48 48 48 48 50 50 50 50 46 42 36 34 31 32 31 30 31 32 25 29 32 30 30 45 42 36 37 36 35 34 31 31 31 31 33 38 53 69 73 69 67 63 57 51 51 58 62 62 62 60 59 58 60 67 69 77 83 88 104 108 117 126 133 136 137 141 142 144 146 145 144 142 141 138 135 132 129 125 121 117 113 111 110 109 109 108 106 102 97 95 94 92 89 82 73 59 44 37 28 25 24 26 28 37 45 52 56 56 46 40 27 27 27 28 33 35 40 43 51 57 61 63 65 65 66 70 76 84 91 100 105 111 116 120 124 129 134 138 138 136 132 130 128 123 115 109 106 104 102 101 102 102 103 104 105 106 107 108 110 111 112 114 120 123 127 133 138 141 143 144 
187 187 186 185 182 178 174 170 165 162 158 154 149 145 141 134 127 121 113 107 101 96 92 90 95 95 95 94 92 89 82 72 68 65 65 65 64 64 52 47 50 54 73 103 122 130 132 133 134 137 141 144 146 146 146 146 146 147 147 147 148 150 151 153 153 156 157 157 157 157 156 156 158 158 158 153 144 136 131 128 123 123 123 124 124 125 126 126 126 124 120 117 115 113 113 113 114 118 124 128 129 130 131 132 133 134 135 135 135 135 139 143 143 145 146 146 146 147 149 149 151 151 153 157 157 157 157 156 157 157 156 156 157 156 156 156 155 155 155 153 153 153 154 154 155 156 156 156 156 157 158 158 158 158 158 158 158 157 156 157 158 159 160 161 162 162 161 161 162 162 161 160 159 157 157 155 155 157 157 157 158 158 159 159 159 156 156 153 153 152 152 152 148 144 143 143 143 146 147 145 141 139 136 131 127 122 120 119 118 114 108 107 106 103 96 90 89 87 82 80 78 74 67 60 55 52 48 45 44 41 36 36 36 36 37 37 37 37 35 32 30 29 28 28 26 23 22 22 22 22 24 24 24 24 24 23 25 27 27 27 26 26 25 25 24 24 24 37 52 53 53 48 42 39 39 39 44 51 55 55 54 54 55 60 65 67 69 73 82 85 97 106 114 119 122 124 136 142 146 145 142 141 139 138 137 135 132 130 127 123 119 115 112 112 111 109 108 103 100 97 95 93 92 86 77 63 49 40 27 24 23 25 27 37 50 56 56 50 36 27 20 20 24 27 29 33 36 41 46 52 57 61 61 63 63 63 67 75 84 91 100 106 113 114 120 122 130 136 136 134 131 129 126 120 112 107 104 102 101 101 101 102 102 103 104 105 106 108 110 111 112 113 119 121 127 132 137 141 144 145 
187 187 185 183 180 175 171 167 162 158 154 149 145 139 134 129 122 113 107 98 92 87 84 84 88 90 92 91 90 89 84 75 66 64 63 64 64 64 63 53 53 56 72 103 122 130 132 132 134 135 138 141 144 145 146 146 146 146 147 147 147 149 150 152 153 156 156 157 157 157 156 153 153 151 141 132 119 110 110 110 113 113 114 113 113 113 109 105 98 98 98 98 100 100 102 102 108 111 112 112 110 108 107 106 102 102 102 105 111 116 118 118 124 127 130 130 132 133 134 135 137 137 141 143 144 144 144 144 144 144 147 148 148 148 148 148 148 148 148 146 146 146 150 151 152 153 153 152 153 153 154 156 156 156 156 156 156 155 156 156 157 157 159 160 161 161 160 160 159 159 159 157 157 154 153 152 151 151 152 153 153 153 155 155 153 152 151 148 148 147 147 147 142 140 139 139 138 138 135 128 116 115 114 104 104 103 100 98 90 85 79 78 77 74 65 59 58 55 52 51 51 49 44 39 37 33 28 24 22 22 22 22 21 21 22 21 21 21 21 21 21 21 21 19 17 17 17 18 19 21 22 21 21 21 21 20 20 20 20 20 22 23 22 21 21 21 21 21 23 24 25 28 28 30 31 31 34 39 42 47 49 52 53 54 59 64 65 67 69 71 78 83 90 97 102 105 122 123 126 129 134 135 138 138 137 135 135 133 131 128 124 119 115 113 112 111 109 105 102 98 96 94 93 90 81 67 53 43 26 24 23 24 26 48 56 56 52 42 27 21 20 20 21 24 27 32 35 41 47 51 54 56 60 60 60 55 60 69 76 86 94 101 108 113 116 120 124 130 132 130 130 127 124 117 109 106 104 102 102 101 102 102 102 103 103 104 106 108 110 112 113 114 119 121 127 132 137 141 143 144 
186 187 184 182 178 174 168 163 160 156 151 145 139 135 130 125 119 107 98 92 84 80 78 80 83 88 89 89 89 88 86 79 70 62 61 60 63 63 63 56 56 57 72 99 121 130 132 132 133 134 135 138 141 144 145 145 146 146 146 147 147 147 149 151 151 153 156 156 156 156 153 150 141 129 117 104 94 90 90 90 98 98 98 98 95 88 79 73 71 71 75 82 89 94 95 95 95 95 94 91 88 87 86 86 85 85 85 87 96 100 101 102 106 110 115 118 119 120 120 121 122 125 130 134 137 137 137 136 131 131 132 138 140 140 140 142 140 140 142 143 142 143 144 147 147 150 150 150 148 150 150 150 153 154 153 153 153 153 154 156 156 157 157 157 158 158 158 158 158 157 157 156 154 152 152 151 150 148 148 147 147 149 151 151 149 148 147 144 142 141 140 139 138 138 138 138 132 125 118 110 100 96 95 87 87 86 83 82 65 64 55 52 50 46 40 37 35 31 29 29 28 28 27 23 22 19 13 12 10 12 12 14 14 14 13 13 13 13 13 14 14 15 17 16 16 16 16 16 17 18 19 19 19 19 19 19 18 19 19 19 20 20 19 19 19 19 19 19 20 21 24 26 28 28 29 31 31 36 40 45 48 50 52 53 54 60 63 64 64 64 65 70 76 80 86 89 98 100 103 110 116 124 132 135 135 135 135 134 131 130 126 123 118 115 113 112 109 106 104 100 97 95 94 92 86 73 56 43 28 24 24 24 36 56 56 56 50 35 26 21 20 20 21 24 28 32 36 41 47 51 54 54 54 54 54 54 55 62 70 84 91 99 104 110 116 120 121 124 127 128 127 125 122 116 108 105 103 102 102 102 102 102 102 103 103 103 106 109 111 112 113 114 119 121 127 132 136 140 142 143 
185 184 182 179 176 171 168 161 158 152 146 141 135 130 125 121 109 100 95 88 83 78 76 76 80 82 87 88 88 87 84 83 74 64 61 59 59 59 57 54 54 56 65 91 115 128 132 132 133 134 135 138 138 141 143 144 144 143 143 143 143 144 145 145 145 142 137 134 132 129 124 121 107 100 89 79 76 76 76 79 79 80 80 79 76 69 63 59 54 54 56 65 72 75 75 75 67 65 63 63 63 65 69 70 70 70 72 75 78 81 82 82 84 90 96 102 102 102 102 102 104 107 113 118 121 121 121 121 120 120 122 123 129 132 132 133 125 120 127 133 132 136 141 143 142 144 144 142 142 144 145 147 147 148 148 148 150 152 153 154 155 156 156 156 156 157 157 157 157 157 156 154 154 152 152 150 148 147 147 146 146 146 147 147 146 145 141 140 138 137 137 137 136 134 132 130 121 116 110 96 87 85 78 69 69 65 53 49 49 45 39 35 31 28 25 24 22 19 19 17 17 17 17 14 13 9 9 9 9 9 9 10 11 11 11 11 11 11 11 11 11 13 14 14 14 15 15 15 16 17 18 19 19 19 19 19 18 19 19 19 18 18 17 18 18 17 17 17 17 18 22 24 27 28 29 31 31 36 39 43 46 47 49 50 52 54 59 59 59 59 61 64 70 76 81 86 89 90 97 101 103 108 116 120 131 133 133 133 131 130 128 125 123 120 116 113 109 108 105 104 100 97 95 92 88 77 58 43 33 26 26 26 44 56 56 54 46 33 26 23 21 22 24 26 30 34 36 37 43 48 52 54 53 52 52 53 54 59 70 84 91 99 104 112 117 120 120 122 123 125 124 123 120 116 108 106 103 102 102 102 102 103 103 103 103 104 107 110 111 113 114 115 120 123 127 132 136 139 141 141 
182 182 180 178 174 168 164 159 155 149 143 138 132 126 122 113 105 97 90 84 78 73 73 73 76 80 82 86 87 85 83 81 75 66 64 59 58 57 52 51 53 56 59 85 110 125 131 132 133 134 137 138 138 138 139 141 142 142 139 137 136 134 132 132 116 113 108 104 102 98 94 88 73 68 62 57 62 63 64 65 65 65 63 63 62 54 48 43 41 41 41 47 50 50 50 47 43 41 39 39 39 44 47 50 51 55 55 55 56 56 56 58 62 68 77 84 84 84 83 83 83 86 92 96 100 100 100 100 103 111 112 115 121 119 103 108 103 102 109 123 123 130 137 139 139 139 139 139 139 139 142 142 142 142 142 143 145 148 150 152 153 154 155 155 155 155 156 156 156 154 154 154 153 152 151 149 148 146 144 144 144 145 145 145 144 141 137 136 136 135 135 134 128 128 125 118 112 104 100 90 85 78 67 53 49 47 44 36 30 28 25 28 25 24 19 15 15 14 14 9 9 9 9 9 9 9 9 9 9 9 9 9 10 10 10 10 11 11 11 11 11 13 14 14 15 15 16 16 17 18 19 19 19 19 20 20 20 20 20 20 20 20 19 19 20 19 19 18 18 18 22 26 28 29 30 31 34 38 42 44 45 47 49 52 53 55 59 58 58 58 59 61 67 73 80 86 88 89 91 96 101 103 106 111 116 120 129 131 130 129 127 125 124 122 119 115 112 109 106 105 104 100 97 93 90 78 59 44 35 30 30 34 56 56 56 54 39 30 27 24 24 26 28 30 30 33 35 37 41 46 49 51 49 48 49 50 55 62 73 87 97 103 109 113 118 120 121 122 123 125 125 124 121 119 113 108 106 103 103 103 103 103 103 103 104 106 109 111 113 114 114 119 121 125 128 132 136 139 140 140 
180 179 179 175 171 166 161 157 153 147 141 135 129 124 119 108 100 96 89 83 78 72 72 72 75 79 82 82 83 83 82 77 75 72 64 59 57 54 50 48 49 53 59 85 110 124 131 132 134 135 137 138 138 138 138 138 137 136 135 132 130 124 116 109 100 91 90 89 89 88 78 68 56 45 47 51 55 56 57 57 58 55 50 44 40 35 34 35 35 36 36 36 36 36 33 33 32 32 32 33 34 35 36 36 36 34 34 34 35 38 39 41 44 46 50 54 56 58 58 58 61 66 71 73 73 74 78 81 92 98 101 101 102 100 76 79 79 80 102 115 120 126 132 136 137 136 133 130 132 133 133 133 135 135 136 141 141 142 145 146 150 150 151 151 152 153 153 153 153 154 153 153 152 152 150 148 144 144 143 143 143 143 143 142 139 136 135 135 135 131 130 128 127 123 116 108 102 93 85 79 69 62 55 46 42 36 30 25 21 18 19 20 19 16 15 14 13 13 12 9 9 9 9 8 7 6 7 8 9 9 9 9 10 10 10 10 11 11 11 11 11 14 17 27 27 27 27 27 18 19 19 19 19 20 21 22 22 25 25 25 23 23 23 23 23 21 20 20 22 25 28 28 30 32 36 41 42 42 44 44 45 48 51 53 53 56 59 58 58 58 59 61 70 76 81 84 86 88 89 92 97 102 104 106 108 112 117 122 125 126 125 124 123 122 120 117 113 111 109 106 106 104 99 94 90 80 61 48 39 35 35 37 56 56 56 52 37 27 27 26 26 27 28 28 30 31 32 32 32 33 37 38 42 45 48 53 59 72 84 94 103 107 112 117 120 121 122 123 124 125 125 125 124 120 113 112 108 106 106 105 105 105 105 105 106 107 110 112 114 114 117 120 123 127 131 134 136 138 143 146 
182 179 178 174 169 165 159 155 151 145 139 132 126 121 114 107 98 95 89 84 78 72 72 72 75 79 80 81 82 82 80 75 74 71 64 57 52 51 47 45 47 47 59 85 110 124 131 133 135 137 137 138 138 138 138 137 137 135 131 127 121 110 103 95 87 84 80 80 78 66 56 47 42 42 42 45 46 48 51 52 41 39 35 35 35 33 34 34 34 35 35 34 33 32 32 32 29 29 28 28 27 27 27 27 27 27 27 25 25 24 24 24 30 31 32 33 34 35 36 36 38 42 46 46 48 52 52 52 55 55 67 68 69 68 67 68 73 79 88 102 108 115 123 126 129 129 126 126 126 127 127 129 130 130 129 131 135 135 138 141 145 146 149 150 150 151 151 152 152 152 152 152 151 150 147 144 143 142 142 142 142 142 141 137 136 135 135 132 130 128 127 125 121 116 108 100 88 82 74 67 60 55 46 42 36 28 25 17 16 14 15 15 15 14 14 14 11 10 10 9 9 8 8 6 6 6 9 9 10 10 10 10 10 10 10 10 11 15 24 31 31 33 39 39 44 50 65 66 67 67 69 72 72 75 77 79 79 79 79 77 71 66 62 61 54 52 50 45 42 41 41 41 41 42 42 45 45 45 45 46 48 51 53 56 64 69 64 63 59 59 61 67 75 81 81 83 84 86 88 90 95 100 103 104 107 109 111 112 116 120 122 122 122 120 119 117 116 114 112 109 109 106 103 97 92 80 64 52 43 38 38 39 54 54 54 48 30 27 27 27 27 28 28 27 26 23 18 17 17 19 25 29 37 41 45 53 62 83 94 100 106 110 113 119 120 123 123 125 128 128 128 128 128 127 123 120 113 111 108 106 106 106 106 106 107 109 112 114 115 117 119 122 125 128 131 134 135 138 141 144 
183 179 175 173 168 163 157 154 147 143 136 130 124 117 111 105 98 95 90 84 79 76 72 72 76 78 79 79 79 79 75 74 72 71 65 54 51 47 44 43 44 45 61 87 111 124 131 135 136 137 138 138 138 138 138 137 136 133 128 123 114 103 95 87 80 78 71 66 59 51 47 42 40 39 40 40 41 41 41 37 35 33 33 30 28 28 32 33 33 34 34 32 30 30 29 29 28 27 26 26 25 24 23 23 23 23 24 24 24 22 22 22 20 18 14 16 17 20 21 23 23 24 23 26 45 45 44 41 38 34 38 40 41 41 47 52 54 62 70 80 88 96 106 114 115 115 117 117 117 121 121 121 122 122 123 126 127 131 134 138 140 142 145 148 148 149 150 150 150 150 150 149 148 146 144 142 140 141 141 141 141 141 138 136 135 135 132 130 128 127 126 121 115 107 95 85 77 72 65 59 51 46 36 31 25 21 17 10 10 10 13 14 14 11 12 11 10 10 13 10 10 9 9 7 7 9 10 13 15 18 26 32 42 42 42 44 50 31 46 46 39 39 39 39 39 48 55 65 66 66 67 69 72 75 77 79 79 79 79 77 71 66 62 61 54 53 53 53 60 67 70 73 85 85 85 73 59 48 48 48 54 60 65 69 70 73 73 70 69 68 68 69 75 81 81 81 82 84 88 89 93 97 103 104 107 109 109 110 111 116 118 119 119 119 118 117 117 117 115 114 111 109 106 103 96 85 69 55 48 39 39 40 48 49 49 42 24 24 24 27 27 28 27 23 18 16 16 15 15 15 16 21 29 38 44 58 72 88 99 104 106 112 116 120 123 125 128 132 139 142 145 145 145 144 139 136 128 122 114 111 108 107 107 107 109 112 113 116 117 119 121 124 127 131 133 134 135 136 139 142 
181 178 173 170 166 162 156 152 146 141 135 130 124 117 111 105 98 96 92 88 84 78 76 76 77 78 79 79 76 74 72 72 71 70 65 54 51 45 42 42 43 45 61 87 111 124 131 134 135 137 137 138 139 139 139 138 137 130 125 116 109 98 87 79 77 68 66 59 51 47 43 41 40 37 37 37 37 33 31 31 29 29 26 25 24 25 26 30 30 30 30 29 29 28 28 27 25 24 24 24 23 21 21 19 19 19 20 21 21 21 20 18 12 12 12 14 14 15 16 16 16 16 15 16 25 25 25 26 26 25 26 26 27 29 34 38 41 47 53 60 69 77 86 93 102 103 104 107 111 114 114 114 115 116 117 122 123 127 131 134 139 140 142 145 147 148 150 150 150 150 149 149 147 144 142 141 139 139 141 139 139 139 138 137 135 134 131 128 127 126 121 115 104 95 84 72 66 61 55 46 42 36 27 21 16 12 11 10 10 8 8 9 9 9 10 10 10 12 13 14 13 15 14 11 11 18 28 41 57 70 70 70 50 44 44 44 50 44 68 81 44 42 44 42 39 48 55 65 66 66 67 69 72 75 77 79 79 79 79 77 71 66 62 61 54 53 53 56 60 67 70 73 85 85 85 84 84 84 84 84 74 74 73 74 76 76 76 73 73 69 68 69 75 75 78 79 81 82 84 88 91 96 102 104 108 109 109 110 111 114 116 117 117 117 117 117 117 118 118 118 115 112 109 106 101 90 75 60 51 40 40 41 42 43 43 37 25 24 24 24 24 26 23 18 15 12 13 14 14 15 16 21 28 35 45 62 83 95 101 104 110 112 118 123 125 128 137 142 150 150 150 147 147 144 140 139 136 133 126 122 114 112 109 112 112 114 116 118 119 121 122 125 128 131 134 135 136 137 138 140 
176 175 170 167 164 160 155 149 145 140 135 130 124 117 112 106 102 97 93 89 85 83 79 77 79 79 79 78 75 70 70 70 69 67 65 63 54 45 41 40 43 45 61 87 111 124 128 134 135 136 137 139 139 140 140 139 137 130 123 114 103 93 85 78 71 66 60 54 48 46 44 42 41 39 37 36 33 31 29 27 26 24 24 24 24 24 25 28 29 29 29 28 28 27 26 24 24 18 17 15 15 14 13 11 11 13 14 18 19 18 14 11 10 9 9 11 12 12 9 9 9 8 7 8 8 12 12 15 15 15 15 15 16 18 22 26 29 35 40 45 52 59 67 74 83 85 91 97 101 101 101 101 101 107 109 116 121 123 127 132 138 139 140 142 146 148 149 150 150 150 149 149 147 144 142 140 138 138 139 138 138 138 137 137 135 132 128 127 126 121 116 107 95 84 72 65 57 47 42 38 31 24 19 16 14 12 11 10 9 7 8 8 8 9 11 11 13 16 20 33 33 21 21 20 21 28 49 57 63 70 75 75 70 50 44 44 50 44 81 94 81 42 42 33 23 23 23 23 24 24 25 26 28 30 32 33 36 37 39 39 40 40 42 44 47 50 53 56 60 67 70 73 85 85 85 84 84 84 84 84 86 86 90 90 90 82 79 77 76 72 69 69 69 69 69 76 78 79 81 84 88 95 102 104 109 109 109 110 111 113 116 116 116 116 116 116 117 119 119 121 118 115 112 110 105 95 81 64 53 42 41 41 41 41 41 34 25 24 24 23 23 22 18 17 15 12 15 15 15 15 16 21 28 40 51 70 81 94 99 103 108 113 119 123 128 137 144 149 150 150 150 147 147 144 140 139 136 133 126 122 118 116 114 114 116 117 118 119 121 122 124 126 129 133 134 135 136 138 138 139 
171 171 168 166 161 156 152 147 142 137 135 129 125 119 113 108 104 101 97 93 90 88 84 84 83 82 80 79 75 70 69 69 68 65 64 63 59 51 41 38 42 45 58 84 109 121 125 132 135 136 137 139 140 140 141 140 137 130 120 109 98 89 82 77 71 68 60 52 48 46 43 42 40 37 35 32 28 27 27 26 26 26 25 25 25 26 31 31 31 30 30 29 29 28 26 24 24 18 17 15 15 14 13 11 11 13 14 18 20 18 18 12 10 9 9 9 9 9 8 7 7 5 5 5 6 7 8 9 9 9 9 8 9 10 13 14 19 22 28 32 36 42 51 57 62 67 74 83 85 85 88 88 93 97 103 109 115 121 123 129 135 139 140 142 145 148 149 150 152 152 151 149 148 146 144 140 138 138 139 139 138 138 138 137 135 132 128 126 121 115 110 98 85 72 65 53 46 41 36 31 24 19 15 13 13 12 12 11 10 8 8 9 11 11 13 16 20 33 71 71 55 43 43 41 31 41 57 63 75 75 82 82 82 40 30 22 20 19 20 42 33 27 27 17 13 13 15 15 16 16 16 17 19 20 22 23 26 27 29 30 31 33 36 38 40 44 48 52 53 53 56 56 56 56 56 64 74 84 84 84 86 86 90 90 90 91 88 82 80 78 69 69 68 68 68 69 73 77 78 81 86 90 96 103 109 109 110 111 113 114 117 117 116 116 116 116 118 119 121 122 121 118 114 112 107 101 84 68 54 43 41 41 38 38 38 33 26 24 24 23 20 18 18 17 15 15 15 16 16 17 21 24 31 41 60 66 77 88 98 102 105 112 119 127 137 140 145 149 150 150 150 142 137 134 134 134 134 132 124 119 118 117 116 117 118 119 120 121 122 124 126 128 131 134 135 136 138 138 139 141 
168 166 166 161 157 153 150 146 140 137 133 129 125 120 116 111 105 102 101 98 95 93 90 90 89 88 86 83 79 74 70 70 67 65 65 64 63 56 49 45 43 45 50 74 101 117 124 131 134 135 137 139 140 141 141 140 134 128 118 109 100 93 85 79 73 69 62 58 51 47 45 43 41 38 36 33 28 27 27 26 26 26 25 25 25 26 31 31 31 31 31 29 29 28 28 26 24 24 24 24 23 21 21 21 23 23 24 25 25 25 22 18 14 12 11 11 9 9 8 7 7 5 5 5 6 7 7 8 8 8 8 8 8 8 10 13 14 18 18 21 24 30 35 41 46 51 62 67 73 74 75 79 85 88 96 101 109 116 121 127 134 138 140 142 146 149 152 154 155 154 152 151 149 147 145 141 140 140 140 139 139 138 138 137 135 131 127 121 115 110 99 91 82 67 57 47 42 36 31 24 19 15 13 12 12 12 12 13 13 14 15 15 19 34 54 63 63 66 71 71 71 55 55 49 39 49 61 63 63 63 55 45 30 16 15 15 16 16 18 18 18 14 12 12 12 12 13 13 15 15 15 16 16 17 17 18 22 23 25 26 26 28 30 33 36 38 42 44 49 52 52 51 50 49 50 51 54 55 55 57 65 75 90 90 90 91 89 88 85 81 69 69 68 63 62 66 68 69 76 78 83 86 94 102 105 109 113 114 114 117 117 117 116 116 116 116 117 119 122 122 122 119 117 114 110 105 87 71 57 43 41 41 36 36 34 28 25 24 23 21 18 18 18 18 17 17 16 16 17 19 23 25 32 41 51 65 73 84 94 101 103 114 123 130 137 138 144 144 138 124 106 94 87 84 84 84 94 97 104 111 116 118 119 119 120 121 121 123 124 126 127 131 134 135 136 138 138 139 141 143 
167 164 160 157 153 152 148 143 139 135 131 127 125 120 116 112 107 104 102 101 101 98 95 93 92 91 90 90 86 82 76 71 69 68 68 67 65 63 56 49 45 45 50 68 100 117 123 127 133 135 137 139 139 140 140 137 132 126 117 109 105 98 87 81 76 72 69 62 58 52 47 46 46 45 45 39 38 33 32 27 36 39 43 47 52 55 56 58 68 73 79 82 82 82 84 86 86 87 87 87 86 83 80 78 73 70 67 63 60 57 52 48 33 28 19 11 9 9 9 8 7 5 5 6 7 7 7 7 7 7 7 7 8 8 8 10 12 14 16 16 19 21 25 29 35 37 41 49 57 65 70 71 79 81 88 96 103 111 118 125 132 136 139 142 146 151 154 155 156 155 154 152 150 149 146 143 141 141 141 140 139 139 138 137 134 131 126 120 112 105 95 86 72 59 50 42 36 33 24 20 18 15 13 13 13 13 13 15 15 16 24 48 61 66 70 70 66 70 71 74 55 55 45 41 27 27 27 39 27 30 19 19 17 15 15 15 16 16 18 19 18 14 12 12 12 13 15 16 16 16 17 17 17 18 19 19 22 23 25 26 26 28 30 31 34 36 38 40 43 44 44 44 44 44 44 48 49 52 53 54 54 54 54 55 68 88 88 88 87 87 85 81 69 63 62 62 63 68 71 73 78 81 87 94 102 105 110 113 114 115 117 116 116 115 115 116 116 119 122 123 123 121 118 116 112 107 89 72 60 45 41 38 35 35 32 27 24 24 21 20 20 20 20 21 20 19 17 17 17 19 23 25 32 40 49 62 72 77 88 99 105 118 122 127 133 137 137 124 106 93 68 58 48 46 46 49 58 73 90 102 110 117 119 120 121 124 126 126 126 128 133 135 136 138 138 139 140 142 142 144 
159 157 156 153 152 149 146 140 137 135 130 126 122 118 116 113 109 106 104 104 102 102 102 102 102 100 99 98 94 90 86 77 70 69 69 69 69 69 64 56 46 46 50 67 100 117 123 127 132 135 137 138 139 139 138 134 130 121 113 108 104 100 96 86 81 79 76 72 70 62 58 53 53 53 56 59 65 74 85 92 96 96 96 93 88 82 78 75 75 75 79 82 82 82 84 86 86 87 87 87 86 83 80 78 73 70 67 65 65 65 71 74 88 88 88 83 73 66 59 57 42 32 19 11 10 9 9 9 8 7 8 8 8 8 8 9 11 12 13 14 16 16 19 24 26 29 32 37 41 49 60 66 70 79 85 90 101 104 114 121 129 135 139 145 149 152 155 156 156 155 155 153 151 149 146 145 143 142 141 141 140 138 138 136 133 131 121 117 110 99 91 84 67 58 49 42 36 29 24 19 17 15 13 13 13 14 16 18 42 63 68 82 82 68 70 70 66 66 63 55 45 41 33 31 15 15 15 18 18 19 19 19 18 15 15 15 16 18 20 30 23 20 17 17 17 17 19 21 23 24 24 24 23 19 19 19 18 18 19 19 19 23 24 25 25 25 26 26 27 30 33 33 33 34 37 42 44 48 50 52 52 52 52 51 53 55 64 71 81 85 87 88 88 72 69 66 63 63 69 72 76 80 81 87 95 102 106 110 113 115 115 115 115 115 115 116 117 119 123 124 124 122 119 117 114 107 89 75 60 47 41 38 35 32 28 25 24 22 21 21 21 27 32 27 24 23 22 20 20 20 21 24 31 39 49 60 68 77 88 102 112 116 120 123 125 125 109 93 73 58 48 44 39 38 42 44 47 58 73 90 104 112 119 121 127 127 129 130 133 135 135 136 138 141 141 142 143 144 145 146 
158 156 153 152 149 146 143 138 135 132 128 125 120 117 115 112 109 107 105 105 104 104 104 104 103 103 103 103 99 98 94 88 80 77 74 74 74 74 70 62 49 49 53 66 100 118 125 130 134 136 137 138 139 138 137 133 128 118 110 107 103 102 101 101 93 85 82 81 81 85 91 94 99 99 99 91 85 85 85 92 96 96 96 93 88 82 78 75 75 75 79 82 82 82 84 86 86 87 87 87 86 83 80 78 73 70 67 65 65 65 71 74 88 88 88 83 73 66 66 66 74 74 74 67 52 36 20 11 10 9 8 8 8 8 8 10 11 12 12 13 16 16 18 22 24 25 27 31 36 41 49 57 66 73 81 88 96 103 114 121 129 135 140 146 150 153 155 156 156 155 155 153 152 149 148 146 144 143 142 142 140 139 138 136 134 131 124 115 108 99 90 82 67 57 49 42 36 29 23 19 17 14 13 13 15 18 42 63 80 89 89 89 89 82 70 63 55 30 30 41 12 14 14 15 14 14 15 17 18 18 19 22 22 19 23 23 23 33 39 34 34 34 23 19 19 19 20 21 28 28 28 27 23 19 19 19 18 18 19 19 18 19 19 18 17 17 17 19 22 25 27 28 29 32 33 37 42 43 47 49 50 50 51 51 51 52 53 56 60 71 87 88 91 91 88 74 67 66 68 69 72 77 81 86 92 96 103 107 112 113 114 115 115 115 115 117 119 123 125 125 125 121 119 117 114 108 91 76 60 47 40 35 34 30 28 25 24 24 25 28 34 41 37 37 34 27 24 23 21 21 23 25 31 38 49 59 66 77 89 102 108 115 118 118 115 108 88 68 51 44 37 37 37 38 39 42 44 49 60 75 93 111 120 127 129 131 133 135 136 138 139 141 142 143 144 145 146 148 148 148 
154 152 149 147 145 143 140 137 134 130 126 123 119 116 113 112 109 106 105 105 105 105 106 107 108 109 110 110 110 109 104 98 93 88 81 81 82 79 74 68 53 53 61 65 100 122 127 131 134 137 138 139 139 138 137 133 125 116 110 107 104 105 105 105 105 106 110 110 110 100 100 100 99 99 99 91 85 85 85 92 96 96 96 93 88 82 78 75 67 64 60 55 52 49 47 46 44 44 44 44 45 47 49 50 53 60 62 62 64 65 71 74 88 88 88 83 73 66 66 66 74 74 74 67 67 67 61 61 57 44 24 12 12 12 12 12 12 12 12 12 13 15 16 20 23 24 25 28 32 37 39 49 60 70 81 88 93 104 116 121 130 137 140 146 151 153 155 155 156 155 155 153 152 149 148 146 146 146 144 142 142 140 138 137 135 131 126 118 108 99 90 82 67 57 49 42 34 26 23 20 19 19 19 19 21 36 67 67 89 105 105 100 89 61 33 33 28 19 15 12 11 11 14 14 14 15 17 18 19 19 22 28 30 28 30 36 40 45 55 56 51 40 37 34 34 34 34 35 43 43 43 41 40 35 29 25 21 20 19 19 18 19 19 18 17 16 16 16 17 19 21 23 26 29 32 34 38 43 44 48 49 50 50 50 50 52 53 54 58 60 63 72 87 91 91 88 81 71 69 73 76 80 81 85 92 96 103 107 110 111 112 113 114 115 117 119 121 122 124 125 122 120 119 116 112 107 90 75 55 42 38 36 35 30 28 28 25 40 47 49 52 49 47 47 41 37 32 25 21 21 23 28 32 34 45 58 71 85 93 101 106 109 115 108 97 80 62 51 41 38 37 37 37 38 39 42 44 49 58 74 93 112 127 130 133 135 136 138 140 142 143 144 145 147 148 148 149 150 152 152 
148 147 146 144 142 140 137 135 131 128 124 121 118 115 113 112 109 107 106 106 106 107 109 110 114 115 119 120 122 122 121 114 109 102 93 90 86 83 79 70 61 60 60 63 98 122 127 132 135 137 141 141 139 138 137 133 128 120 112 109 107 109 112 116 116 116 112 111 110 100 100 100 99 99 99 91 79 71 70 69 65 61 55 51 47 43 40 37 36 34 31 28 25 22 21 21 21 21 23 23 25 31 40 47 49 52 55 60 62 65 65 65 62 58 50 46 46 46 58 64 74 74 74 67 67 67 61 64 72 64 57 52 35 22 14 13 12 12 12 12 12 14 16 20 22 22 24 25 28 31 37 42 54 66 80 88 95 104 116 121 130 135 140 146 151 153 154 155 155 156 155 154 152 149 148 147 147 147 147 146 143 142 139 138 136 133 128 121 113 103 90 82 67 57 49 42 34 26 24 22 20 19 21 25 33 43 69 67 80 105 80 63 39 33 21 21 19 12 12 11 11 11 14 15 17 17 18 21 22 27 36 36 36 36 39 40 43 47 55 56 51 43 39 38 37 35 35 35 43 43 43 43 43 42 42 42 42 41 39 35 29 22 21 18 17 16 16 14 13 13 15 19 22 25 29 33 38 43 44 46 49 50 50 50 51 52 53 56 58 60 60 66 72 77 88 91 91 88 81 78 80 81 83 85 93 97 105 108 110 110 112 113 115 117 119 121 122 123 124 125 120 119 118 114 108 95 82 60 50 41 40 38 37 38 43 47 50 50 50 53 53 52 52 52 48 46 37 35 32 31 31 32 32 39 49 62 76 85 89 95 101 105 97 90 75 62 51 41 39 38 37 37 38 39 40 43 47 53 60 76 96 114 129 133 136 139 139 141 143 144 146 147 148 149 149 150 151 152 154 154 
146 144 142 141 139 137 134 131 128 124 121 118 115 113 112 111 109 106 106 106 107 109 110 114 115 119 125 131 133 133 133 127 122 115 105 93 90 85 80 68 58 58 58 61 95 122 127 133 136 140 141 141 141 139 137 134 132 128 118 112 112 116 117 117 116 116 112 111 110 100 100 97 96 91 84 79 71 69 68 62 59 54 49 46 43 39 37 35 31 28 25 24 22 21 21 21 21 21 23 23 25 31 40 47 49 52 55 60 62 65 65 62 58 48 38 36 36 36 34 35 36 36 36 36 38 61 61 64 72 64 57 63 56 52 44 42 28 16 16 16 14 16 16 18 20 21 22 24 25 30 33 39 45 58 71 88 95 104 116 122 132 135 140 146 150 152 154 155 155 156 155 154 153 149 148 148 148 148 148 148 147 145 140 138 137 135 130 123 114 103 91 83 66 55 49 42 34 29 24 23 22 21 33 41 36 41 41 21 20 21 19 19 20 20 18 18 18 15 12 12 11 13 17 21 29 33 33 31 31 31 36 36 36 31 31 31 40 43 54 55 45 40 39 38 38 38 38 42 46 45 43 43 43 42 42 42 42 41 39 36 35 33 31 29 23 17 16 14 13 13 15 15 20 23 26 33 38 43 44 46 49 50 51 51 52 53 55 57 59 60 62 65 68 73 77 88 91 91 91 88 84 85 88 91 95 99 107 109 110 110 112 115 117 119 120 121 122 123 123 121 119 116 114 109 98 85 69 51 47 42 42 42 49 49 53 50 50 50 52 53 53 53 53 53 48 47 40 36 34 33 32 32 34 43 52 64 77 83 86 89 93 90 85 75 62 52 47 41 39 38 38 38 39 40 42 44 48 55 63 80 98 116 131 136 139 140 142 144 146 147 148 149 149 150 150 151 152 153 153 155 
141 139 137 137 135 132 129 126 123 119 118 115 113 112 111 109 106 105 105 105 106 109 110 114 115 120 126 133 138 143 148 148 141 127 115 105 93 86 73 62 47 48 56 60 91 117 127 134 137 141 141 141 141 140 138 134 132 129 120 118 116 116 117 117 116 111 104 100 99 95 93 89 86 82 79 73 70 69 63 60 55 50 47 43 39 37 34 31 28 24 23 22 22 21 21 21 21 21 23 23 25 31 40 45 48 48 49 51 51 51 48 47 47 43 38 34 34 34 32 32 26 26 26 25 24 25 29 29 47 52 52 63 56 52 56 61 56 42 33 18 16 16 18 18 19 20 21 22 25 30 33 39 45 58 71 88 95 101 112 122 132 136 140 145 150 152 154 155 155 157 157 155 153 151 149 148 148 149 149 149 148 146 142 139 137 135 130 124 114 101 89 82 63 55 49 43 35 30 29 32 34 34 44 44 28 21 20 19 18 18 17 17 18 20 18 18 16 15 14 14 16 19 20 26 30 33 33 31 31 31 36 36 36 31 31 30 30 30 30 35 35 35 35 32 32 33 31 30 33 35 42 46 46 45 42 45 45 42 42 41 36 33 31 30 29 26 22 17 15 14 15 15 20 22 26 33 38 43 46 48 49 51 53 55 56 58 59 60 63 63 63 66 68 70 77 81 86 90 91 90 89 90 91 93 96 100 105 108 109 110 112 114 117 119 120 121 121 121 119 117 114 110 108 98 85 69 51 47 43 43 50 50 50 50 53 50 50 49 49 49 52 52 52 52 48 46 40 36 35 34 34 34 40 51 56 67 76 80 83 85 85 80 74 61 54 53 47 41 40 39 39 39 41 42 44 47 50 57 68 83 101 119 133 139 140 143 144 146 148 148 149 150 150 151 152 153 153 154 155 155 
129 127 126 126 125 123 120 118 118 117 114 112 111 111 108 106 105 105 105 105 105 108 109 111 115 118 126 134 139 148 155 157 152 141 124 112 93 73 62 48 44 44 47 58 88 115 127 131 135 141 141 141 141 139 137 133 131 128 121 120 120 118 117 112 107 101 99 96 96 95 92 88 85 81 75 73 69 68 63 60 55 50 46 42 38 36 31 25 24 23 23 24 24 25 28 31 44 49 54 55 55 55 51 49 48 48 49 51 51 51 48 47 47 43 38 34 32 31 23 21 19 19 21 22 22 22 23 23 23 25 27 29 44 44 56 61 61 61 61 41 33 20 20 19 19 19 20 21 24 28 33 37 45 56 65 81 91 99 112 124 132 136 139 146 151 153 155 157 158 161 161 157 156 155 150 148 148 149 149 149 149 147 145 143 140 135 130 125 113 91 84 74 60 52 49 43 37 34 34 50 49 44 34 28 20 18 16 12 12 14 14 16 18 19 19 18 18 16 16 17 18 19 20 26 30 33 33 32 31 27 27 26 21 21 21 25 29 30 34 38 35 33 33 30 22 21 15 13 27 28 28 28 42 33 20 41 45 42 45 44 36 33 31 30 29 26 23 22 18 15 15 18 20 26 31 35 40 45 47 49 52 54 57 57 60 63 64 65 65 66 67 68 70 73 77 81 86 88 91 91 91 93 93 94 97 100 103 108 109 110 112 117 117 119 120 121 120 117 116 113 108 101 98 85 65 47 40 41 41 46 50 52 52 50 50 49 48 44 44 44 44 48 48 50 46 41 40 37 36 36 36 40 44 52 62 67 71 76 78 80 74 68 61 58 54 53 48 45 41 40 40 41 43 44 47 50 55 61 71 86 104 122 136 140 143 145 146 148 150 150 152 152 152 152 153 153 154 155 155 157 
118 116 114 113 113 112 110 109 109 107 106 105 105 105 104 102 100 102 103 104 104 104 104 101 101 108 117 127 143 153 157 159 155 147 126 105 77 55 44 33 33 40 44 56 87 114 126 129 134 135 140 141 140 133 133 131 128 126 125 125 121 119 117 111 104 101 99 96 96 96 95 93 87 85 81 75 72 69 65 60 51 47 43 39 33 29 24 22 22 23 23 25 31 42 52 58 60 60 60 56 55 55 51 49 48 48 49 51 51 51 48 47 47 43 38 34 32 31 23 21 19 18 18 18 20 20 21 20 18 18 19 19 19 27 37 42 61 61 62 61 57 42 27 20 19 19 20 21 24 28 34 42 47 58 65 81 89 96 109 120 132 134 138 148 151 155 161 162 162 164 164 164 164 164 159 149 149 154 151 150 150 150 148 148 146 137 131 125 113 91 83 74 60 49 48 44 44 49 52 59 52 44 25 20 17 16 16 13 12 13 14 14 16 17 18 19 19 18 18 18 18 18 20 25 29 30 30 31 29 27 24 21 15 18 20 25 29 31 38 38 35 32 30 21 19 15 11 11 18 20 20 27 34 33 20 24 35 28 28 28 24 24 24 25 25 23 22 21 18 18 18 20 22 29 32 38 43 47 51 54 57 59 61 64 67 69 70 70 70 70 70 72 75 76 79 81 83 86 90 93 94 94 97 97 100 103 104 109 110 112 117 118 120 121 121 121 119 115 113 106 102 99 86 69 51 39 38 40 43 50 52 52 50 48 44 43 42 40 38 38 30 30 30 29 32 34 35 36 36 40 42 43 46 56 63 67 69 71 71 69 63 60 58 57 55 54 53 50 47 44 43 43 45 47 48 53 57 63 72 88 107 125 139 141 145 147 148 151 153 154 154 154 154 154 154 155 156 157 158 158 
107 107 107 106 105 103 100 99 98 97 95 94 94 94 96 96 97 98 99 100 100 99 98 90 86 85 90 108 123 143 155 159 153 141 115 77 45 33 30 26 26 30 37 47 85 112 125 129 133 134 135 133 130 129 129 126 126 126 125 125 121 119 117 112 107 102 101 99 99 97 96 96 93 87 84 77 74 69 63 58 48 44 39 33 29 24 23 22 22 28 34 44 54 56 58 60 60 60 60 56 55 55 49 38 32 25 25 25 24 24 25 32 34 35 34 34 34 30 23 21 15 15 15 18 18 18 18 17 15 15 15 15 14 15 15 18 29 42 57 57 62 57 55 39 22 19 21 24 27 30 35 42 49 58 65 79 89 97 109 120 132 137 145 150 154 160 163 164 164 169 173 173 173 173 173 170 167 167 161 156 156 154 151 151 149 143 132 127 113 89 83 71 58 48 48 45 50 55 55 55 48 26 21 18 17 16 16 14 13 14 14 15 18 18 19 19 19 19 18 18 18 18 19 24 26 29 30 31 29 26 23 15 15 15 20 29 34 47 55 55 48 35 23 12 12 11 9 11 18 19 19 30 50 47 20 24 28 23 21 21 18 16 16 16 16 17 18 18 18 18 20 22 26 31 34 39 45 49 54 59 60 63 66 68 69 70 71 73 74 75 75 76 78 79 81 83 86 87 90 97 101 104 105 110 104 104 104 108 110 115 117 118 119 120 117 117 113 106 104 101 99 87 81 58 40 34 34 39 44 49 50 50 46 43 40 38 37 34 29 26 26 26 29 29 32 33 34 36 40 43 44 46 51 61 64 67 68 68 64 60 54 55 56 57 58 59 58 55 53 50 47 47 47 49 53 56 60 67 76 90 109 126 139 144 146 148 151 153 154 155 156 156 156 156 156 157 158 159 163 164 
97 97 97 96 94 92 90 90 89 89 87 87 87 88 90 90 91 91 95 97 95 90 88 84 82 82 71 82 96 118 136 140 140 115 78 45 31 25 23 23 22 25 30 41 80 111 123 129 131 132 129 122 117 117 124 125 125 126 126 125 123 122 119 117 113 112 107 103 103 102 99 96 93 89 84 77 74 68 63 54 47 40 33 29 27 24 24 24 34 41 45 49 54 56 58 60 60 60 60 51 41 34 25 25 25 23 22 22 21 22 24 26 34 35 38 38 37 30 21 16 15 15 14 14 13 12 13 13 13 14 15 14 13 13 13 13 16 18 29 41 55 55 60 55 49 39 27 28 29 34 37 42 54 59 70 81 89 99 112 120 132 139 149 154 160 162 164 166 171 173 173 174 175 177 178 178 175 172 170 169 165 161 158 156 152 146 134 129 116 89 80 71 58 52 52 52 64 74 64 55 35 24 21 18 17 16 16 14 14 14 15 17 19 19 19 19 19 18 18 17 16 18 19 24 26 29 34 44 32 27 26 26 18 20 34 57 93 98 96 75 58 45 30 15 11 11 9 11 19 31 34 49 58 58 49 45 42 30 23 21 18 14 14 13 11 13 15 15 15 17 20 22 26 31 35 40 47 52 58 63 65 67 68 70 71 72 74 76 77 78 79 79 81 85 86 86 86 88 96 97 103 105 105 104 103 101 101 101 104 113 114 115 115 115 113 107 102 101 99 91 86 82 61 51 40 34 34 38 44 48 46 46 43 38 34 33 29 26 24 24 25 26 29 29 32 33 35 41 43 44 46 51 57 61 64 65 66 62 54 50 50 52 55 59 61 67 66 61 58 55 52 50 51 53 56 59 63 69 76 91 109 126 139 146 147 151 153 155 156 157 157 157 157 157 158 159 160 161 164 165 
87 87 87 86 85 84 81 80 79 78 78 78 78 80 81 83 84 85 87 89 88 84 83 82 81 71 67 67 71 92 99 118 99 77 45 27 24 23 21 20 20 21 26 34 75 106 116 122 124 122 117 114 114 116 123 125 126 133 131 129 126 125 123 122 118 117 113 112 110 107 103 100 96 92 87 81 75 67 62 51 44 37 35 30 29 29 29 35 41 44 45 49 54 54 54 48 32 30 30 30 26 26 25 25 25 23 22 22 21 22 24 26 34 35 39 42 42 40 21 15 14 13 12 12 12 11 11 11 11 13 14 14 14 13 13 13 13 16 19 23 30 49 57 60 60 57 49 35 34 35 42 53 56 62 70 83 95 103 113 125 133 143 150 159 161 164 169 173 173 174 175 179 181 183 185 185 183 179 175 172 170 170 161 161 156 152 143 130 119 102 88 73 65 65 58 64 67 64 55 35 27 23 21 18 17 17 16 16 16 17 18 18 19 19 19 19 19 19 18 18 16 18 23 28 50 56 68 55 50 44 32 30 29 36 56 63 93 98 96 75 58 45 16 9 9 11 13 19 30 34 34 49 53 58 58 49 55 41 30 27 19 14 14 11 11 11 13 13 13 14 16 17 23 29 34 38 48 54 60 64 67 69 70 71 73 74 76 78 79 82 85 85 85 86 88 90 94 97 97 99 104 105 105 104 103 98 98 98 101 104 104 114 114 104 92 84 78 78 78 82 82 61 58 51 41 38 37 39 44 46 44 42 35 33 32 29 28 24 24 23 24 25 31 33 34 41 42 44 45 46 51 57 61 63 64 64 62 54 45 44 46 50 56 64 69 73 71 67 63 58 57 55 55 57 59 63 67 76 84 96 110 127 140 147 151 154 155 156 157 158 158 158 159 159 159 161 162 164 165 166 
76 76 76 76 74 72 71 70 67 67 67 67 68 71 73 75 78 79 80 81 83 83 82 78 75 69 65 64 62 65 76 83 58 44 27 25 24 21 20 20 19 20 23 32 70 92 106 111 116 110 110 112 113 117 125 134 135 136 135 133 131 128 126 124 122 120 118 116 113 110 107 104 98 93 89 81 75 67 59 54 47 39 36 33 32 34 34 35 41 44 44 41 36 31 26 26 26 26 26 30 26 26 34 34 35 33 24 24 24 26 32 41 73 93 99 94 78 47 40 16 11 11 11 11 11 11 11 10 11 12 13 13 14 14 13 13 15 16 18 22 27 32 41 57 60 66 66 60 49 44 54 58 59 67 73 85 96 106 114 125 137 145 152 160 162 165 172 174 177 179 180 183 185 186 186 186 186 186 181 175 173 170 165 161 159 154 144 131 119 106 88 80 67 65 65 70 67 59 36 32 25 22 20 18 18 17 17 18 20 21 20 18 18 18 18 18 17 17 18 18 20 28 50 57 77 90 90 80 63 49 32 30 32 49 62 67 93 98 96 55 40 16 9 8 9 17 19 30 34 34 34 34 49 53 59 59 63 63 42 30 27 25 19 15 11 11 13 13 13 14 16 17 21 24 30 38 46 55 60 65 67 69 70 71 73 74 76 79 80 85 85 86 89 90 93 96 97 101 101 103 103 97 88 85 75 78 75 75 75 78 69 69 69 68 50 35 23 23 32 50 61 55 54 50 42 40 39 44 48 48 45 42 35 33 32 28 26 23 22 22 24 32 35 41 43 45 46 50 51 52 57 60 63 64 63 62 54 45 43 43 44 50 61 72 79 79 77 72 67 62 59 59 58 59 62 66 70 77 91 103 115 129 142 149 153 156 159 160 160 160 160 161 161 161 161 163 164 165 166 167 
59 60 60 60 60 59 59 58 58 58 59 59 60 63 66 68 71 72 73 74 75 78 78 76 75 71 67 65 61 59 59 58 44 27 26 25 24 23 20 20 18 19 20 27 58 75 93 105 106 107 109 110 121 127 135 141 142 141 140 137 134 131 129 126 125 123 121 119 117 114 110 107 102 95 89 83 77 71 64 55 50 45 38 35 35 35 35 35 35 35 30 24 24 22 22 24 24 26 26 30 35 43 52 60 57 43 35 28 28 33 41 73 92 99 100 96 91 59 41 25 11 11 11 11 12 12 11 10 11 12 13 15 16 18 16 16 16 18 19 22 23 27 33 50 57 71 75 75 74 60 60 60 67 71 79 89 97 106 114 125 137 145 152 160 165 167 172 175 177 179 181 183 185 186 186 186 186 186 181 175 173 170 164 161 159 152 140 129 116 106 89 87 80 74 74 74 64 46 36 31 24 23 21 20 20 20 24 25 28 27 26 21 19 18 18 18 18 19 20 23 39 57 76 90 93 95 97 90 76 55 36 36 44 49 63 71 82 71 51 37 19 16 11 9 11 19 31 37 38 37 34 34 46 58 67 69 69 72 63 56 49 32 25 19 15 13 14 14 14 14 17 20 22 26 31 38 46 55 60 66 68 70 70 71 73 74 76 79 82 85 87 89 90 94 97 99 103 105 106 105 103 88 75 59 53 61 61 61 61 67 59 57 50 38 23 21 19 19 23 32 51 54 54 54 50 46 44 48 49 49 47 42 35 35 33 31 28 26 26 27 31 36 43 44 48 49 50 51 53 57 59 64 65 64 61 59 47 38 38 39 44 56 68 79 85 88 85 78 72 66 62 61 60 61 65 70 76 84 93 108 122 135 146 151 157 160 163 164 164 165 164 164 164 164 164 164 165 166 167 169 
50 51 51 51 50 49 49 49 49 49 50 50 51 54 57 58 62 64 65 66 67 69 74 75 74 71 67 65 62 59 58 44 29 26 26 26 25 24 20 20 18 18 20 26 50 70 86 93 99 106 109 121 125 134 141 142 143 143 142 142 139 136 133 130 127 126 123 121 119 117 114 108 104 98 93 87 80 74 68 63 55 50 43 39 38 36 34 32 29 29 26 24 24 22 22 24 26 27 46 58 67 76 89 94 75 60 43 35 35 36 51 73 92 99 100 96 91 59 27 11 9 11 12 13 15 23 23 16 13 16 18 20 23 25 24 21 21 21 21 22 22 27 32 41 57 71 78 80 81 80 74 72 73 77 85 95 96 103 112 120 131 143 148 155 162 167 170 174 177 177 179 182 185 185 185 185 185 185 178 175 172 165 161 159 152 140 131 124 118 107 106 91 88 87 82 72 63 46 36 33 28 24 24 22 22 25 34 35 33 29 27 24 21 19 18 18 19 23 36 42 59 76 90 99 105 105 106 97 84 56 45 36 45 46 62 67 71 64 51 36 28 19 15 17 19 37 42 46 46 41 31 29 29 49 59 72 75 75 72 68 58 56 45 29 21 20 20 21 20 21 21 22 23 30 33 38 49 57 62 67 69 70 72 73 74 76 77 80 82 87 89 91 94 97 101 103 107 108 108 106 97 85 59 48 38 38 35 39 49 50 50 38 37 30 22 21 19 19 23 32 50 58 59 61 61 54 57 58 65 58 49 43 39 37 37 36 34 31 31 31 39 43 46 48 48 49 51 52 55 58 60 66 66 65 61 54 45 37 37 39 46 60 77 87 93 97 93 87 77 69 64 64 63 64 69 74 78 86 100 115 127 138 150 155 160 164 165 168 168 168 168 167 166 166 166 166 167 167 168 170 
42 43 43 43 43 42 41 41 40 40 40 40 42 44 46 48 52 54 56 57 57 62 66 69 71 70 67 65 62 58 44 28 28 25 28 29 32 28 22 20 18 18 20 26 39 62 83 92 93 99 109 123 129 137 142 144 146 147 147 147 146 144 139 135 132 130 126 124 122 120 116 111 107 101 95 89 82 79 74 68 62 55 49 42 39 35 30 29 26 26 26 24 24 24 26 32 46 58 67 76 91 98 101 101 99 79 57 37 37 37 51 72 79 91 91 84 50 28 21 11 9 11 13 22 26 36 34 28 24 24 24 25 31 41 46 35 28 22 22 22 25 28 33 40 56 71 80 83 90 90 88 84 83 94 95 96 96 98 106 115 122 136 145 149 155 162 167 168 173 173 174 177 174 174 174 171 171 169 165 163 144 128 118 124 128 128 124 119 113 111 110 106 97 92 82 70 48 46 42 35 32 28 26 25 29 37 41 40 39 33 28 26 21 19 18 19 28 42 58 64 72 83 99 108 110 110 112 108 99 86 56 45 45 46 56 63 67 63 51 37 32 28 19 20 38 47 50 49 47 38 28 27 28 46 72 78 78 77 77 75 69 68 63 56 32 23 23 23 23 30 31 31 31 33 38 46 55 59 64 67 69 70 73 73 74 76 79 81 85 89 91 95 99 103 107 108 112 115 115 112 107 71 53 44 35 35 31 35 39 50 50 46 40 38 30 30 21 21 32 46 61 62 75 82 85 85 92 91 82 70 65 56 45 43 39 38 37 37 36 39 43 47 48 48 49 50 51 54 57 60 66 68 68 66 60 51 46 38 38 44 56 72 85 95 101 105 102 92 81 71 67 66 66 67 73 77 84 93 104 115 127 138 150 158 162 165 168 168 168 169 168 168 168 168 168 168 168 169 170 171 
34 34 34 34 34 34 34 34 34 34 34 34 35 37 39 41 44 47 50 50 51 53 57 60 64 66 66 64 61 45 28 28 28 28 30 36 39 36 28 22 19 19 20 23 34 54 80 86 89 96 107 122 130 138 142 146 148 148 150 150 149 149 147 145 140 137 133 129 125 123 118 115 108 103 98 92 87 80 76 71 64 59 52 45 40 34 30 29 26 29 29 29 29 33 50 60 74 85 92 98 99 110 115 115 113 99 67 40 39 39 49 61 70 71 70 54 38 28 23 19 10 18 23 28 42 45 42 34 29 28 30 33 46 57 56 49 42 33 28 27 28 33 38 44 56 71 80 90 94 94 97 97 97 97 96 96 96 95 95 95 109 117 129 139 143 143 148 145 143 138 132 130 130 128 130 130 136 136 136 118 105 93 88 101 113 113 111 110 107 106 106 104 96 87 72 59 49 48 45 42 36 33 32 34 37 48 48 44 40 33 29 26 24 23 27 37 52 60 64 66 76 83 95 108 111 113 118 118 115 113 90 54 46 46 57 60 64 60 57 54 51 38 38 38 47 50 51 49 46 38 29 29 38 61 84 84 84 84 81 78 75 69 68 63 58 39 39 39 35 35 37 35 38 44 51 58 64 67 67 69 73 75 76 77 77 77 82 86 90 95 99 103 107 110 114 117 119 119 119 117 115 87 59 48 40 38 32 35 56 59 61 61 62 46 42 40 40 42 58 74 87 90 104 110 112 112 107 96 93 87 76 63 53 47 43 40 39 39 39 43 48 49 50 50 49 49 52 52 56 60 67 69 69 69 64 56 49 46 46 56 68 79 92 101 108 110 109 102 91 77 70 70 70 72 76 83 91 94 104 115 126 138 148 158 163 166 168 169 169 169 169 169 169 169 169 169 169 170 170 171 
33 34 34 34 33 32 31 29 29 28 29 29 29 29 31 31 34 35 38 41 44 46 48 50 56 58 60 60 54 41 25 25 26 28 35 40 41 41 39 29 22 20 22 27 41 54 80 83 89 93 105 121 126 135 140 147 148 151 152 152 152 152 151 150 149 145 140 136 132 129 123 118 114 108 101 95 92 86 79 74 69 62 59 52 42 37 31 29 29 34 40 42 45 50 60 74 86 96 105 109 114 122 128 129 128 119 94 46 39 35 43 54 61 64 61 53 38 32 24 23 23 24 36 42 47 48 45 39 31 31 34 48 58 64 63 56 48 46 42 33 33 38 49 56 62 72 80 94 100 106 101 100 97 96 95 94 91 90 87 86 83 90 100 104 112 121 123 126 127 128 130 130 130 128 130 130 136 133 129 118 103 92 79 77 88 92 105 105 105 104 104 96 93 75 63 59 53 51 48 47 47 44 42 42 51 56 53 49 40 33 30 27 27 28 37 43 52 60 64 65 72 81 91 100 110 114 121 122 122 122 118 90 61 58 58 60 61 59 57 56 54 54 53 51 51 47 47 47 38 38 38 46 61 87 88 88 87 87 86 82 78 73 70 68 63 61 52 47 39 41 41 41 51 58 64 68 77 85 85 85 87 87 87 88 90 92 94 95 105 106 109 112 115 118 120 122 123 130 132 125 117 107 71 54 41 39 35 35 56 61 67 73 73 74 74 75 81 86 93 97 108 110 114 119 117 116 112 107 100 93 82 70 57 49 45 43 43 43 43 47 51 51 51 52 50 49 50 52 55 58 66 68 69 70 66 64 56 53 60 68 78 92 101 112 116 116 115 109 92 81 76 73 73 76 79 85 93 97 105 110 119 131 144 153 161 165 169 169 169 169 169 169 170 170 170 170 170 170 170 170 
34 34 34 33 32 31 30 29 28 28 27 26 25 25 26 27 30 31 32 34 37 40 43 46 48 50 50 48 44 37 28 28 28 35 40 48 48 48 48 41 36 26 27 41 51 80 82 83 88 89 96 112 123 131 137 144 148 151 152 152 152 153 153 153 153 152 149 145 141 139 132 125 118 114 108 101 95 92 86 79 74 68 62 59 51 42 39 37 41 44 46 47 53 60 74 86 95 101 110 114 121 128 131 132 131 129 99 59 43 39 43 50 54 59 60 53 46 38 36 36 36 40 47 52 50 45 42 35 34 37 45 58 65 65 64 59 49 48 46 45 48 53 59 64 73 80 88 106 110 112 110 101 97 96 95 92 90 88 87 86 83 90 100 104 112 121 123 126 127 128 130 130 130 128 130 130 136 133 129 118 103 92 79 77 88 88 88 88 88 84 83 83 69 62 60 60 59 54 52 50 50 51 51 57 63 67 57 53 45 34 31 31 31 40 43 45 54 58 60 64 68 72 81 93 95 111 121 122 123 131 124 118 90 63 61 61 63 64 64 60 58 56 56 56 55 54 51 47 46 46 53 61 88 96 91 89 87 87 87 84 83 81 80 72 67 63 59 55 48 48 50 51 59 68 77 82 90 97 100 101 102 102 102 102 103 104 106 108 116 117 118 119 120 122 128 130 132 134 136 134 131 117 76 68 44 44 59 105 106 107 108 111 116 117 117 117 120 123 128 128 128 126 125 122 120 119 116 112 104 96 88 76 58 51 45 44 44 45 45 51 52 53 54 55 55 51 52 52 55 58 64 66 68 70 69 67 67 67 77 85 93 101 112 116 119 119 119 110 96 84 80 78 77 79 84 91 95 100 105 110 118 127 139 150 161 165 168 169 169 169 169 169 169 170 170 170 170 170 172 171 
34 34 34 33 32 30 29 29 28 27 26 25 25 24 24 25 25 26 27 29 31 34 37 40 44 46 48 46 44 41 36 28 39 44 50 52 52 52 52 48 42 42 46 52 82 89 89 88 83 89 89 98 115 126 135 139 144 151 152 152 152 154 154 155 156 155 153 152 148 145 139 132 127 121 114 108 101 95 92 86 79 72 66 61 59 59 57 54 48 47 50 56 67 79 86 93 97 101 110 114 121 126 130 132 136 131 129 94 59 50 49 50 54 57 60 59 56 54 53 53 53 54 52 52 50 49 45 39 39 45 58 68 68 68 64 61 55 50 50 53 60 64 69 76 80 90 106 117 118 118 115 112 89 89 92 92 92 92 87 86 83 90 100 104 112 121 123 126 127 132 136 141 142 144 147 147 147 142 137 133 129 118 103 101 100 92 88 88 87 83 82 72 63 62 60 62 62 60 56 54 54 56 62 68 72 69 68 63 53 44 34 36 43 43 45 50 57 60 64 65 68 73 75 82 89 98 111 119 122 123 124 123 115 97 84 82 73 73 73 65 64 64 60 60 60 60 60 53 53 61 81 93 99 98 94 91 88 87 88 87 88 88 83 79 70 63 62 60 58 57 59 61 68 76 80 85 95 103 105 115 118 118 117 117 117 119 121 122 126 126 127 128 129 130 131 137 137 137 141 137 134 125 80 72 59 56 92 113 141 141 141 140 139 139 138 136 134 132 131 131 128 127 125 125 123 120 116 112 104 96 91 79 65 53 48 45 45 48 51 52 53 55 59 61 61 54 53 53 55 59 62 65 68 70 70 72 79 87 93 98 107 112 117 119 121 121 120 115 102 90 84 81 82 84 89 93 97 102 105 110 117 126 139 148 160 164 167 168 168 168 167 167 169 170 170 170 170 170 170 169 
35 35 34 34 33 31 30 29 28 27 26 25 24 24 24 24 24 24 25 26 26 28 30 34 40 43 45 46 46 42 41 41 46 53 67 88 88 89 94 94 98 98 98 98 101 98 92 88 75 75 75 96 109 123 131 135 144 149 152 152 154 154 155 156 156 155 154 154 152 150 147 140 135 129 122 117 112 106 100 95 91 91 90 82 78 78 74 73 59 58 58 67 79 88 93 96 97 99 107 112 118 125 130 132 136 131 125 117 94 59 54 54 59 61 62 62 60 60 58 57 57 57 55 54 52 52 48 45 48 58 70 72 70 70 68 63 59 57 60 63 69 77 79 81 88 100 121 129 129 121 112 98 83 83 83 87 93 95 95 95 114 122 124 128 129 131 135 143 147 149 151 157 165 168 168 165 163 162 160 155 142 136 129 122 116 112 100 88 87 83 78 72 63 63 63 64 67 66 62 62 62 63 67 72 73 72 70 68 65 63 45 45 45 46 55 64 64 64 64 65 73 74 75 82 89 95 109 109 114 119 122 122 119 114 106 97 88 84 82 79 79 79 78 76 74 73 73 73 80 81 88 95 99 96 93 91 88 87 88 88 88 88 83 81 72 67 63 62 61 61 71 73 77 86 90 92 100 110 115 120 124 125 125 125 125 126 130 132 133 133 134 136 138 140 140 141 141 142 144 141 137 131 83 80 71 72 106 141 143 144 143 142 142 141 140 139 138 135 133 132 131 128 126 125 125 122 117 113 106 101 93 80 66 57 50 47 47 49 51 53 55 59 67 67 64 58 54 54 55 57 61 64 68 70 72 81 87 96 107 111 117 118 120 122 123 122 122 119 108 95 87 84 85 87 91 96 100 104 107 110 116 126 138 148 159 163 166 167 167 167 166 166 167 167 167 166 166 166 166 165 
36 36 35 34 33 32 30 29 29 28 27 25 24 24 24 23 23 23 24 25 26 26 27 29 37 40 44 48 61 68 71 71 73 89 94 94 94 94 94 94 98 98 98 98 101 98 92 89 70 70 70 93 103 117 126 135 141 146 150 152 154 154 156 156 156 156 155 154 154 152 150 147 141 138 132 128 127 124 120 116 114 112 105 91 89 84 82 78 78 78 78 83 92 97 98 98 99 99 99 101 104 105 115 123 125 125 124 119 115 98 81 61 61 67 67 67 66 66 65 65 65 64 60 60 60 54 54 57 65 72 75 75 75 74 72 64 63 63 68 77 83 85 85 90 112 121 129 134 132 126 111 85 80 80 83 83 95 113 121 121 121 123 126 129 131 135 143 147 150 154 160 165 168 169 169 168 167 163 162 160 155 142 136 131 123 117 114 107 97 87 82 73 69 69 69 70 71 71 68 64 64 64 68 72 73 72 68 68 64 63 63 63 63 66 71 72 74 77 80 80 77 77 81 86 89 96 106 109 111 111 111 112 112 111 111 111 111 120 115 109 101 96 96 96 101 104 98 85 82 85 92 95 99 96 93 92 88 87 88 88 88 88 83 80 72 67 64 63 64 72 78 80 88 97 104 107 113 118 123 126 126 127 127 127 131 133 138 139 140 140 141 143 144 146 146 147 147 147 149 148 141 131 92 83 80 99 142 144 145 145 144 144 143 142 141 140 138 136 134 132 131 128 126 125 124 122 118 115 109 104 94 81 67 59 53 50 50 52 53 55 61 67 69 68 67 58 55 53 53 55 57 62 65 70 77 87 95 104 111 117 120 120 122 122 123 123 123 120 110 98 90 88 88 90 94 98 102 105 108 112 115 126 137 147 158 162 165 166 166 165 165 165 165 165 165 164 164 164 164 163 
36 36 36 35 34 33 31 30 29 29 27 26 25 24 24 23 23 23 23 24 25 25 26 27 30 39 44 55 61 68 71 72 85 98 102 105 106 106 106 103 100 98 98 98 98 96 92 89 74 74 74 92 100 112 123 134 139 144 148 151 152 154 155 156 157 157 156 155 154 154 152 150 148 145 140 140 138 138 138 134 127 123 114 114 105 100 91 89 92 94 98 103 105 107 107 103 103 101 99 101 104 104 105 108 115 116 119 119 119 119 114 98 81 81 81 82 87 91 92 92 92 87 79 79 79 79 81 82 82 84 85 89 85 79 79 79 78 79 79 79 87 95 99 110 120 126 129 135 134 130 125 99 80 80 83 95 121 122 123 122 122 124 128 131 135 143 148 151 155 162 167 168 170 171 172 171 171 167 165 162 160 151 142 136 129 122 117 114 107 95 84 78 75 73 73 77 78 78 77 69 68 66 68 69 69 68 67 65 63 63 63 63 63 66 71 72 74 77 80 80 81 81 84 86 89 98 108 109 110 111 111 111 111 111 108 114 119 122 122 115 109 103 103 103 106 108 108 101 98 93 93 95 95 95 95 93 92 91 91 91 88 88 82 72 69 66 65 66 71 79 88 95 100 109 113 114 122 126 127 127 128 129 131 133 138 141 144 145 148 148 148 148 148 149 149 149 149 151 154 151 145 131 99 83 80 92 144 148 150 149 146 145 144 143 141 139 136 134 132 131 128 126 125 124 123 120 116 115 109 105 96 82 70 61 56 54 54 55 55 60 67 73 72 69 67 58 54 52 51 53 55 59 62 65 77 89 100 107 111 117 120 120 122 122 124 123 123 120 113 101 92 91 91 92 96 101 104 108 111 115 117 126 138 147 158 162 164 165 165 163 163 163 163 164 164 164 164 163 163 163 
37 37 36 36 35 33 31 30 30 29 28 26 26 25 24 24 24 23 24 25 25 26 26 26 28 38 51 55 61 68 71 72 85 98 102 105 106 106 100 88 81 81 72 84 91 94 89 86 78 78 78 90 97 107 118 129 137 141 145 148 151 153 154 155 156 156 156 156 155 154 154 153 151 149 147 147 151 151 149 143 138 130 127 124 118 112 103 103 103 103 108 109 110 111 111 112 111 109 104 104 104 104 105 108 115 116 120 122 124 124 123 123 114 113 107 106 106 106 106 107 112 113 114 104 99 93 89 89 89 89 86 89 85 79 79 79 78 79 79 82 90 96 103 112 122 126 128 135 132 128 125 111 85 85 85 111 122 123 125 124 123 124 128 132 137 146 150 155 161 166 168 170 172 174 174 174 174 171 167 163 161 155 146 141 134 126 122 117 114 104 92 83 80 78 78 80 81 81 80 74 70 68 68 68 68 65 65 65 64 64 65 65 66 66 71 72 74 77 80 80 81 81 84 86 89 96 106 108 109 109 109 107 107 107 108 115 121 123 123 122 115 109 108 108 108 113 114 111 102 98 93 93 93 93 93 92 92 91 91 91 87 77 72 69 69 68 69 72 82 90 100 108 114 118 123 125 128 132 132 132 134 135 135 141 144 145 148 148 149 149 150 150 152 152 153 154 155 155 156 155 148 130 111 83 71 71 141 151 152 152 150 148 145 143 142 139 135 133 131 129 126 125 124 123 120 116 115 114 108 104 96 82 70 61 57 56 56 57 63 66 72 78 77 71 67 55 51 48 45 45 45 47 54 60 70 83 95 104 111 115 120 120 121 122 122 121 120 116 113 105 98 94 93 96 100 104 108 110 114 115 123 126 138 148 158 161 162 163 163 162 162 162 162 163 163 163 163 163 163 163 
37 37 37 36 36 34 32 31 30 29 28 27 26 26 25 25 24 25 25 26 26 26 26 26 28 34 49 55 61 66 66 66 67 73 87 89 94 88 79 72 72 71 71 72 84 89 87 87 86 86 86 90 97 104 116 126 135 140 144 147 150 152 153 155 156 156 156 156 156 156 155 155 154 153 153 153 153 153 152 150 146 143 138 130 124 122 114 112 109 109 110 111 113 115 115 115 115 115 113 110 107 107 107 113 115 116 122 124 128 129 129 129 127 123 116 114 110 112 113 116 117 117 116 112 104 98 92 89 89 89 86 89 85 79 79 79 78 79 79 85 91 97 104 112 122 126 126 127 127 126 121 111 98 92 92 102 122 123 127 124 123 124 129 136 146 152 160 166 170 174 178 180 180 181 183 183 183 178 174 171 167 161 151 144 138 132 123 117 116 110 95 83 82 81 80 82 83 83 82 77 70 68 67 67 66 65 65 65 64 65 67 66 66 67 67 67 68 69 69 72 75 77 81 84 87 93 100 107 109 109 106 104 103 103 104 108 115 120 121 121 115 109 106 106 108 108 109 109 104 93 92 92 92 92 92 92 92 90 86 78 77 73 72 70 70 71 74 83 92 105 114 119 124 127 130 133 136 139 139 142 144 144 141 146 146 148 149 149 150 150 152 152 155 157 157 160 160 159 157 157 149 130 111 83 74 112 151 154 154 154 152 150 146 145 142 139 135 132 130 128 126 124 121 120 117 116 115 112 107 103 96 82 70 61 59 57 57 63 66 70 77 78 78 77 66 54 48 45 40 36 36 36 38 49 60 70 84 94 101 110 113 113 113 114 118 119 116 115 114 108 103 100 97 100 104 108 112 115 115 121 125 128 138 148 157 160 161 162 161 161 161 160 160 160 160 160 160 160 160 160 
40 40 38 37 36 35 34 32 31 30 29 28 27 26 26 26 26 27 28 28 27 26 26 26 27 33 46 55 61 65 66 66 66 68 68 76 78 73 70 70 71 70 70 72 75 84 87 87 89 89 90 94 100 107 116 123 133 138 141 145 148 150 152 153 155 156 156 157 157 156 156 156 155 154 154 153 153 153 153 153 150 149 145 138 130 125 124 119 117 113 113 115 117 117 116 116 116 116 116 118 121 121 121 124 126 130 132 134 136 139 140 141 137 129 124 121 118 116 116 117 117 117 116 112 104 98 92 89 89 84 79 74 71 70 68 68 72 77 79 84 90 97 104 110 122 126 126 126 126 126 119 114 99 94 94 94 117 120 123 122 122 132 140 150 160 166 170 177 182 184 188 189 189 189 189 189 187 183 180 176 172 169 165 160 150 143 138 125 117 113 98 83 81 81 80 82 84 85 82 80 70 68 67 67 65 63 64 64 64 64 67 66 66 67 67 67 68 69 69 69 69 68 68 68 74 77 84 91 100 107 101 101 100 101 102 103 108 113 115 115 111 100 100 100 100 106 108 106 100 93 92 92 92 90 92 90 86 83 77 73 72 72 72 72 77 83 92 103 112 121 128 131 134 137 140 142 144 146 149 152 155 155 151 151 149 149 150 150 151 155 158 160 161 162 162 163 164 161 160 157 148 111 111 94 83 149 154 158 156 155 154 152 148 145 140 136 132 131 129 127 124 121 118 117 116 116 115 111 107 103 95 84 72 62 59 59 59 66 68 75 79 82 82 78 61 49 43 37 29 25 25 25 28 37 48 59 70 77 89 94 100 105 109 111 113 114 114 114 113 110 105 105 105 105 109 114 118 121 123 125 128 132 144 153 155 158 160 161 160 160 160 160 160 159 159 159 159 159 159 160 
42 41 40 39 37 36 34 34 32 31 30 29 28 27 27 27 29 29 29 29 29 28 27 27 28 33 44 49 51 57 57 61 63 67 68 73 78 78 73 72 71 71 71 72 75 84 87 96 98 95 95 98 105 112 118 123 132 135 140 143 145 148 150 152 153 155 156 157 157 157 157 156 156 156 156 156 156 156 156 154 154 151 149 146 142 136 130 126 123 119 118 119 118 118 117 117 116 117 117 118 121 121 121 124 126 130 132 134 136 139 140 141 137 129 124 121 118 116 116 116 116 116 114 105 97 92 89 83 77 74 67 66 66 65 67 68 72 77 79 84 90 97 104 110 122 126 126 126 126 126 121 118 102 94 94 94 117 119 123 124 132 142 150 160 170 176 179 183 186 188 192 193 194 194 193 192 191 188 184 180 178 176 173 169 162 158 146 138 125 116 98 83 81 80 80 82 84 85 80 76 70 68 65 65 65 63 63 65 68 69 70 69 69 68 68 68 68 69 69 69 69 68 68 68 68 71 71 76 82 88 88 88 94 97 99 100 103 108 112 111 100 99 98 98 99 100 106 104 99 92 92 89 86 85 83 82 80 79 77 76 76 76 77 81 97 103 114 121 128 131 136 138 140 142 146 148 150 152 155 158 158 158 158 157 156 152 156 156 157 160 162 163 163 164 165 166 166 165 161 158 143 111 101 88 84 149 155 159 158 155 155 152 148 144 140 135 132 130 129 124 121 118 117 116 116 115 115 111 106 103 95 84 72 62 60 60 62 66 69 77 84 85 85 76 57 43 37 29 24 20 21 22 24 29 38 48 59 70 77 83 90 96 100 105 109 111 113 113 113 111 110 109 109 110 114 120 123 127 128 128 132 134 145 152 154 155 157 157 157 157 157 157 157 157 156 155 155 155 155 156 
44 43 41 40 39 37 35 34 33 32 31 30 30 30 30 30 30 30 30 30 30 29 29 29 30 33 35 46 50 57 57 61 63 67 68 73 78 78 78 78 73 71 71 72 72 84 98 100 103 103 102 105 110 116 121 125 132 134 138 141 144 146 149 151 153 154 156 156 157 157 157 157 157 157 157 156 156 156 156 156 155 154 151 150 147 142 137 133 129 126 123 121 120 119 117 116 116 116 116 118 121 121 121 124 126 130 132 134 135 139 140 141 137 127 121 118 116 116 115 113 103 100 96 92 88 83 77 74 66 63 63 63 63 65 67 68 72 78 84 91 97 104 109 119 128 131 131 128 125 125 121 120 111 94 94 94 116 117 124 132 142 150 160 170 176 179 183 186 188 191 194 195 196 196 196 195 194 193 190 185 181 178 176 174 170 166 161 150 138 122 103 83 81 80 77 80 80 77 72 71 67 67 65 65 65 63 66 68 71 74 74 74 75 75 75 75 76 76 76 72 69 68 68 68 68 68 69 69 70 71 73 74 84 84 86 89 92 95 98 98 98 98 97 97 96 95 92 91 89 88 85 83 83 82 81 81 79 79 78 77 78 83 97 103 113 120 127 131 136 139 141 143 148 150 153 155 157 159 159 160 160 159 159 159 158 157 159 160 161 164 165 165 165 166 167 169 169 168 165 158 134 103 101 94 125 154 159 159 158 156 155 151 147 141 138 135 132 130 127 124 121 117 117 116 116 116 115 113 108 103 95 84 72 66 62 62 63 66 70 77 82 83 82 61 49 37 29 23 18 18 19 20 23 27 32 43 50 60 70 77 83 90 96 100 105 109 111 113 113 113 111 111 111 112 118 123 127 128 132 132 134 136 145 150 153 154 154 153 153 153 153 153 153 153 152 151 150 150 150 151 
45 44 43 41 40 38 37 35 34 33 33 32 31 31 30 31 31 31 31 31 31 30 29 29 33 33 35 37 45 47 49 61 66 67 68 73 100 100 95 89 81 76 73 73 75 84 100 104 105 109 108 110 115 118 124 129 132 134 138 141 143 145 148 150 151 153 155 156 157 157 157 157 157 157 157 156 156 156 157 157 157 157 155 154 151 149 144 142 136 133 130 126 123 121 119 116 116 115 115 115 116 116 116 116 117 117 117 121 125 125 125 121 121 117 112 107 105 101 98 96 90 84 78 75 75 74 74 74 66 63 63 63 63 68 75 83 84 93 101 105 110 117 123 131 132 132 131 128 125 125 121 120 114 94 94 94 115 118 127 136 149 160 168 175 178 182 186 187 188 191 195 196 197 198 198 197 195 195 193 188 184 180 177 175 173 170 166 161 150 131 109 83 80 74 69 68 68 69 68 66 66 65 65 65 63 63 68 71 74 75 77 78 79 81 82 82 85 85 85 85 79 75 74 74 71 69 69 69 70 71 73 74 76 76 76 76 77 79 81 83 83 86 86 86 85 81 82 82 83 83 83 83 83 82 81 81 80 81 81 83 92 102 111 118 124 130 136 140 144 146 148 150 153 155 157 159 160 162 162 162 161 161 161 161 163 165 166 166 166 166 166 167 167 169 171 171 171 170 167 158 124 103 101 103 160 162 161 160 158 156 155 151 145 141 138 135 132 130 126 123 119 117 116 116 116 116 116 113 110 103 99 89 75 67 66 64 66 66 70 77 77 77 68 57 43 30 23 18 17 17 17 19 23 24 29 37 47 55 64 72 79 83 90 96 101 105 110 111 113 113 113 113 113 114 120 123 127 128 132 132 134 136 143 146 150 151 150 149 149 149 150 150 150 150 149 148 147 147 147 147 
46 45 45 44 42 40 38 37 35 34 34 33 32 31 31 31 31 32 32 32 32 33 33 33 34 35 35 35 36 35 43 46 66 68 73 100 105 105 104 95 89 81 76 76 76 81 101 105 109 111 112 114 118 123 126 130 133 137 141 142 145 146 148 149 150 152 154 155 156 157 157 158 158 158 159 159 159 159 159 160 160 160 159 158 156 155 151 149 144 141 137 133 130 125 122 120 116 116 115 115 114 112 107 106 105 105 105 108 108 108 107 103 97 95 91 89 86 84 81 81 80 78 78 75 75 74 74 74 67 67 67 71 78 84 95 101 102 109 114 118 123 132 134 135 134 134 131 128 125 125 120 120 111 94 94 94 107 117 127 142 155 166 173 177 179 183 186 188 189 191 195 197 198 199 199 198 196 195 193 191 187 182 179 176 174 172 170 164 155 142 122 95 76 69 65 65 65 61 64 65 66 65 63 62 60 59 65 71 75 78 80 82 84 86 88 89 90 93 93 93 90 90 89 88 82 76 71 70 70 71 73 74 76 76 76 76 77 79 81 83 83 86 86 86 85 81 82 82 83 83 83 83 83 82 82 82 92 93 96 103 103 113 121 126 130 140 146 149 153 155 155 156 157 159 160 161 162 164 164 164 165 164 163 168 170 172 172 171 170 168 167 168 169 171 171 171 171 171 167 147 117 105 103 125 162 163 162 159 158 156 155 149 144 141 138 134 132 129 125 123 119 117 116 115 115 116 115 111 109 105 99 89 75 67 66 65 66 66 70 74 76 68 57 45 38 24 19 17 16 16 17 18 23 23 29 37 43 50 57 65 73 81 87 93 98 103 107 111 113 114 114 114 114 116 122 123 127 128 132 132 132 134 138 143 146 147 147 145 145 145 147 147 147 146 146 144 143 143 143 143 
48 48 47 45 44 42 40 38 37 35 35 34 33 32 32 32 34 34 34 33 34 34 34 34 36 35 35 35 35 34 35 43 46 67 90 104 117 117 105 100 90 88 81 78 78 81 101 108 111 116 116 117 121 126 130 132 134 138 141 144 145 147 148 149 150 151 153 154 156 157 158 158 159 159 159 159 159 160 160 161 162 162 162 161 159 158 156 155 151 149 145 141 138 134 130 125 122 117 116 115 114 112 107 105 104 103 103 103 100 98 96 95 94 93 91 89 86 84 81 81 80 78 78 75 75 75 78 79 85 86 90 93 99 105 114 115 119 121 123 134 136 145 147 145 138 134 128 125 120 120 120 111 99 94 91 91 97 117 136 149 165 172 173 177 179 185 187 188 189 191 194 198 199 199 199 199 197 195 194 191 188 185 180 177 174 172 170 167 162 152 134 109 74 67 65 64 61 55 55 63 66 63 62 58 56 54 58 71 77 82 84 86 90 92 94 95 95 97 99 99 100 101 101 101 99 94 86 81 81 81 81 81 81 79 76 76 77 79 81 83 83 86 86 86 85 81 82 82 83 83 83 83 85 89 96 100 104 107 112 121 121 128 135 139 145 148 151 153 156 156 157 157 159 160 162 163 165 166 166 167 167 169 169 172 173 175 174 173 172 172 171 171 171 171 171 172 171 170 167 128 114 114 114 125 162 166 162 158 156 155 154 149 144 141 138 134 132 129 125 123 120 117 115 115 115 115 113 110 106 101 97 89 75 67 66 66 66 68 70 70 66 57 47 43 34 22 16 16 15 16 17 20 23 25 29 36 41 46 53 61 69 76 83 88 95 100 105 110 114 114 115 115 116 118 122 123 125 126 127 128 131 132 135 138 142 142 142 140 140 140 141 141 141 140 140 138 137 137 136 136 
52 52 50 48 47 45 43 40 38 37 36 35 34 34 34 35 35 35 35 35 35 36 37 38 39 37 36 35 35 34 35 38 45 66 87 107 117 117 116 103 95 89 84 81 81 84 101 110 116 117 120 121 126 129 132 134 137 141 144 145 146 148 149 149 150 151 152 154 156 157 158 159 159 159 160 160 160 161 162 163 164 165 165 164 163 162 161 160 157 155 152 149 146 143 139 136 133 129 123 119 116 112 107 105 104 103 103 103 100 98 96 95 94 93 91 89 86 84 81 81 81 81 83 87 90 95 101 104 111 114 118 120 122 125 131 131 135 136 136 148 149 148 148 147 138 127 114 101 100 108 108 94 94 88 86 88 89 117 142 160 168 172 174 175 179 185 187 188 189 191 194 198 199 200 200 199 196 195 193 191 188 185 180 175 173 171 170 167 162 152 146 121 83 66 65 65 61 52 52 52 62 61 60 51 50 50 53 68 80 86 90 94 97 99 101 102 104 105 106 106 110 112 114 114 114 114 110 107 106 104 103 101 96 94 90 88 88 88 90 92 92 92 92 92 92 92 92 92 95 97 100 104 107 110 117 122 122 124 128 135 135 139 145 146 149 151 155 156 157 159 159 160 161 163 164 166 167 169 169 170 170 172 173 175 175 176 176 175 174 173 172 173 172 172 173 173 171 170 148 114 105 114 124 150 162 163 162 156 156 155 152 147 145 141 138 134 131 127 125 123 121 117 116 115 114 113 111 109 106 101 94 87 77 67 66 65 66 66 66 58 57 49 47 44 34 22 16 16 15 16 17 20 23 25 29 35 39 44 50 56 61 69 77 83 91 98 104 110 114 115 115 115 118 120 123 124 124 124 124 124 125 128 129 132 135 135 134 134 133 133 133 132 132 132 132 130 128 128 128 128 
55 54 53 52 50 49 46 43 40 39 38 37 36 36 36 36 36 36 36 36 38 39 39 40 40 40 39 38 36 35 38 40 44 59 78 99 112 112 111 103 95 90 86 84 84 89 98 112 116 120 126 128 130 132 134 138 142 144 146 147 148 149 149 149 150 151 153 155 157 158 159 160 160 161 161 161 162 163 165 166 167 167 167 167 166 166 165 163 161 160 158 155 153 150 147 143 141 140 137 131 125 120 117 115 106 105 103 103 100 98 96 95 94 94 94 94 97 99 99 99 99 100 105 106 107 111 117 121 122 125 129 131 131 136 138 142 142 147 148 150 152 152 150 147 127 101 99 98 94 98 94 91 88 83 86 86 89 118 146 165 172 173 175 175 178 185 188 188 189 191 194 198 200 201 200 199 195 195 192 191 188 185 180 175 172 170 168 165 159 152 150 131 96 73 66 65 62 55 50 49 48 51 51 50 50 51 51 59 83 89 94 97 102 102 106 107 108 112 113 114 117 118 118 118 118 118 122 122 122 120 114 110 107 106 102 99 99 99 101 102 103 103 104 103 103 103 100 100 102 104 111 116 119 122 127 131 140 140 141 145 147 147 149 150 153 156 156 157 159 160 162 163 165 166 168 169 170 172 172 173 173 175 176 177 177 177 177 177 177 176 175 175 175 175 175 174 171 167 131 114 114 128 159 162 165 165 163 161 156 155 152 147 145 142 138 133 130 126 124 123 122 119 116 115 114 112 111 108 105 101 94 85 73 66 62 62 58 58 50 49 49 49 49 45 36 22 17 17 16 17 18 20 23 26 29 34 38 42 46 52 57 63 69 78 88 95 104 110 114 115 116 119 122 123 125 124 124 122 121 120 120 121 124 127 129 129 128 128 128 127 127 127 127 125 125 123 123 122 121 121 
59 58 55 54 52 51 49 46 43 41 39 39 39 38 39 39 39 39 40 40 40 40 40 40 40 40 40 39 39 38 39 41 45 54 70 88 107 107 104 103 95 90 87 85 85 89 95 110 116 123 129 132 133 135 136 142 144 146 147 149 151 151 150 150 151 154 155 156 158 159 160 162 163 164 165 166 167 168 168 168 169 169 169 169 169 168 167 166 165 164 161 160 158 157 157 157 155 154 153 151 147 145 143 142 136 135 134 132 130 128 127 127 127 127 128 130 130 130 132 132 132 132 133 134 135 135 135 134 134 134 136 138 141 142 142 147 150 150 150 154 156 155 152 138 113 98 93 89 86 89 89 88 83 80 83 86 89 134 162 172 174 175 175 177 178 183 187 188 190 193 198 201 202 202 201 199 195 194 192 191 188 185 180 175 172 170 168 163 157 152 150 139 119 83 73 69 65 62 60 49 41 45 45 45 50 51 54 66 87 91 97 102 106 108 110 113 117 117 118 118 119 119 121 121 122 123 123 126 127 127 128 127 125 123 123 122 122 123 123 123 124 125 125 125 125 122 122 122 123 128 132 133 135 135 140 145 148 149 150 152 154 154 156 156 156 157 159 162 164 166 167 167 172 173 174 175 176 177 177 178 180 180 180 180 180 181 180 179 179 178 177 176 176 176 176 173 170 148 126 114 126 159 165 166 166 165 163 160 160 155 150 147 144 142 138 133 128 125 124 123 123 121 117 114 113 112 110 108 105 101 94 84 71 62 58 54 50 48 46 46 48 49 53 53 43 32 20 17 17 18 20 22 23 26 30 34 37 40 45 50 54 59 65 75 83 91 104 110 114 115 118 120 123 126 126 124 123 120 117 114 113 114 116 116 116 116 116 116 116 117 117 117 116 115 115 115 114 113 113 113 
60 59 58 56 54 52 51 49 46 43 41 41 40 41 41 42 42 42 42 42 42 42 41 41 41 40 40 39 39 39 39 42 44 49 61 79 98 103 104 103 97 90 89 86 87 89 98 103 116 128 132 134 136 136 141 142 146 149 151 151 153 154 154 155 155 155 158 159 160 163 163 165 166 166 167 168 169 170 170 170 170 170 170 170 171 172 172 172 172 172 169 168 167 166 166 166 165 164 163 161 159 157 156 155 151 150 150 147 145 143 143 143 143 143 143 145 145 145 144 141 140 140 140 140 141 141 141 141 141 141 143 144 146 148 150 150 151 153 154 157 157 156 156 143 120 99 90 86 83 83 83 83 83 80 83 86 105 146 168 175 175 176 176 177 178 179 185 188 190 193 198 202 202 202 202 199 195 194 193 191 188 186 180 175 170 170 167 160 154 151 150 148 132 96 79 70 66 65 64 62 48 45 51 51 51 54 60 79 86 94 99 105 110 115 119 121 121 121 121 121 122 122 122 123 123 124 127 129 130 130 130 130 129 130 130 132 134 136 136 136 137 138 137 137 137 134 134 134 135 140 144 144 145 145 151 155 155 155 156 157 160 160 160 162 163 165 167 167 170 171 172 173 178 178 179 179 179 179 180 181 182 182 183 184 184 184 183 182 181 180 179 177 176 176 176 172 157 131 126 126 144 166 166 166 166 163 161 160 160 155 150 146 144 141 138 133 128 126 125 124 123 122 117 114 113 112 110 108 105 101 94 82 68 58 54 47 44 43 43 43 49 55 65 65 53 34 22 20 19 20 22 23 26 29 31 35 38 41 45 48 53 56 60 67 78 89 100 107 114 117 119 122 124 126 126 124 120 114 109 106 106 106 108 108 108 109 109 109 109 110 110 110 108 108 108 108 108 107 107 107 
62 61 59 58 56 54 52 51 49 45 44 43 43 43 43 43 43 43 43 43 42 42 42 42 41 41 41 40 40 40 39 42 43 47 55 70 89 103 104 103 103 94 90 89 89 90 98 103 113 130 133 136 141 141 142 144 149 152 153 154 155 156 156 159 160 160 164 164 164 165 167 167 169 170 171 172 172 173 173 173 171 171 171 172 174 175 177 179 180 179 178 177 176 175 175 174 174 174 174 172 171 170 169 168 168 167 166 165 163 162 161 160 159 159 159 160 160 160 158 156 150 148 148 148 148 148 149 149 149 149 149 150 153 154 156 157 157 157 157 162 162 159 156 145 128 101 90 88 83 84 87 83 80 80 86 88 128 162 172 176 178 178 178 178 178 179 183 188 190 193 198 202 202 202 202 199 196 195 194 192 189 187 180 175 170 168 165 159 154 151 150 149 136 119 85 73 69 69 65 65 62 48 51 53 56 60 69 83 87 91 103 110 114 119 124 124 124 124 124 124 124 124 124 124 127 130 132 133 134 134 134 134 134 134 137 141 144 149 149 150 150 151 151 151 151 150 150 150 151 154 155 155 155 156 161 163 165 165 165 165 167 167 167 167 167 170 172 172 176 180 181 181 183 183 183 183 182 182 182 182 184 184 184 184 184 184 184 183 183 181 179 178 176 176 175 156 146 126 126 131 165 168 168 166 165 163 160 159 157 153 148 144 141 140 138 134 131 126 126 124 124 123 118 115 113 112 110 108 106 103 95 82 63 54 46 41 41 41 42 43 52 66 70 70 66 41 28 23 21 21 24 26 29 31 34 37 39 43 45 48 52 57 60 67 78 89 100 107 114 116 119 122 124 124 124 124 114 107 100 95 93 93 94 95 96 96 97 99 99 99 98 97 97 97 97 97 98 98 98 98 
64 64 61 59 56 54 53 52 50 46 45 44 44 44 44 43 43 43 43 43 42 42 42 42 41 41 41 40 40 40 40 42 43 46 51 63 80 100 104 104 103 96 94 90 90 95 99 103 112 121 134 137 142 142 144 149 152 153 155 156 157 159 160 162 163 164 167 167 168 168 169 169 171 173 174 175 176 177 177 177 176 176 175 176 177 179 180 181 181 181 181 180 179 178 178 179 178 178 178 176 176 176 176 176 175 175 175 174 173 173 172 170 168 168 168 168 166 162 162 161 159 157 155 155 155 155 155 155 154 154 154 156 158 159 160 163 164 163 162 162 162 160 157 149 134 119 100 90 88 89 89 86 83 86 87 103 145 170 172 176 178 178 178 179 180 181 182 186 191 194 198 202 202 203 203 200 197 196 194 194 192 187 180 174 171 168 165 159 154 151 149 148 144 125 106 77 71 69 69 68 68 68 64 66 69 74 83 86 90 93 99 110 117 123 127 128 128 128 129 130 133 133 133 133 133 133 134 134 134 135 135 136 141 142 147 149 152 153 154 155 156 157 158 159 159 159 159 159 161 162 162 162 163 165 166 167 169 170 170 170 172 175 178 177 174 176 178 178 181 186 185 185 185 185 185 185 186 186 186 186 186 186 185 185 185 185 185 185 183 182 181 181 177 176 163 141 126 126 131 158 168 171 168 168 165 163 160 158 155 150 146 143 141 140 138 136 131 129 127 126 124 123 118 115 113 112 109 107 104 101 95 79 57 47 40 39 38 41 42 43 55 72 72 72 70 44 35 29 27 28 30 30 32 35 37 39 42 44 46 51 54 59 65 73 80 90 101 107 114 116 117 119 121 123 121 117 107 97 92 87 82 82 81 82 83 83 85 88 88 88 86 86 86 86 86 87 88 88 89 89 
66 65 62 60 58 56 54 53 51 48 45 45 44 44 44 43 43 43 43 43 42 42 42 42 41 41 41 40 40 40 40 42 43 44 46 55 72 94 106 106 106 97 95 95 95 98 101 111 111 114 130 139 142 146 149 150 153 155 157 157 160 161 163 165 165 167 168 168 169 169 170 171 173 174 176 177 178 179 180 180 179 179 177 178 179 180 182 183 183 183 183 182 182 182 182 181 181 180 180 180 180 179 179 179 179 179 179 178 178 177 176 175 172 171 170 170 169 167 164 162 162 160 159 159 159 159 159 159 159 158 159 159 163 164 165 165 165 165 164 164 163 162 157 153 143 134 119 112 101 101 93 91 89 91 93 128 163 172 172 176 176 178 179 180 181 182 184 188 192 195 199 202 203 204 204 201 199 197 196 194 192 187 179 173 171 170 167 162 156 150 149 148 144 133 119 98 76 71 70 70 76 87 94 84 87 87 90 90 93 95 98 110 121 127 128 130 133 133 134 137 138 140 142 142 142 142 142 144 146 146 146 147 147 150 152 154 155 157 157 157 160 161 162 163 164 165 165 165 166 167 167 167 167 170 170 172 172 173 174 175 178 181 183 181 179 181 183 185 187 188 188 187 186 186 186 186 186 187 188 188 187 187 187 186 186 186 186 185 185 185 182 181 175 163 152 127 120 131 150 168 170 171 170 166 163 159 157 155 152 148 144 141 140 139 138 136 132 131 129 127 126 124 122 117 113 111 108 106 104 100 95 76 54 40 38 38 34 38 41 43 57 73 73 73 70 47 42 36 35 35 38 38 39 39 41 43 45 46 48 54 59 64 68 76 87 98 103 113 116 116 117 118 118 118 117 109 97 88 81 79 72 72 72 72 72 73 75 78 78 78 77 77 77 77 77 78 79 79 80 80 
67 66 64 62 58 56 54 53 51 48 45 45 44 43 43 42 42 42 42 42 42 42 42 41 41 41 40 40 40 40 40 41 42 43 44 51 69 92 107 107 107 99 96 96 96 103 107 111 111 112 120 139 144 149 151 152 155 157 157 159 161 163 165 166 167 168 169 169 170 171 171 173 174 175 177 178 179 180 181 181 181 181 180 180 182 183 184 184 184 186 186 185 185 185 185 185 185 185 185 184 184 183 182 182 181 181 181 181 181 181 180 179 176 176 173 172 171 169 166 164 162 161 160 160 160 160 162 162 164 164 165 165 165 166 166 166 165 165 165 165 164 162 157 153 145 142 139 126 116 110 102 93 92 93 103 149 173 174 173 176 176 176 179 180 181 182 185 188 193 195 199 202 204 205 205 203 199 197 196 195 192 186 178 173 171 170 167 162 156 150 149 147 144 134 124 112 86 74 71 74 87 104 107 104 102 102 96 95 95 96 98 106 119 128 130 133 136 137 140 142 142 142 143 145 147 147 147 150 152 154 154 154 154 156 157 158 159 159 160 166 166 167 167 168 169 170 170 171 173 173 174 175 175 176 176 176 177 177 179 181 185 187 187 187 187 187 187 188 188 188 188 188 187 187 187 187 188 188 188 188 188 187 187 186 186 186 186 186 186 186 185 182 173 157 133 127 133 150 168 170 170 170 168 166 161 158 155 152 150 147 145 141 140 139 137 135 132 131 130 128 126 125 123 120 115 110 107 105 102 99 91 72 52 40 34 32 32 34 40 43 59 77 77 77 70 55 47 45 42 45 47 47 45 45 45 45 48 50 54 59 64 68 74 80 90 101 109 114 117 117 117 117 117 116 112 100 88 80 74 72 66 65 65 65 65 65 67 69 70 70 70 70 70 70 70 70 71 71 71 71 
68 67 64 62 58 56 53 52 49 47 45 44 43 42 42 42 42 42 42 42 41 41 41 40 40 40 40 39 40 40 40 41 41 42 43 50 67 91 111 113 113 103 96 94 94 103 111 113 113 112 115 130 144 148 150 152 156 157 157 160 163 164 165 167 168 170 170 170 171 171 173 175 176 177 178 179 180 181 181 181 182 182 182 183 184 184 184 186 186 187 187 188 188 188 189 190 190 190 188 187 186 186 185 184 184 184 184 184 184 184 183 181 180 178 176 175 173 172 169 166 164 162 162 161 161 162 164 165 165 166 168 168 168 168 168 168 167 167 167 165 164 162 156 150 144 143 142 138 126 116 105 93 93 93 120 166 174 174 173 176 176 176 180 182 183 184 185 188 193 195 199 202 204 205 205 205 201 198 196 195 192 186 178 173 171 170 167 162 156 151 149 147 141 134 129 120 101 83 74 74 83 104 107 104 103 102 99 96 96 96 98 106 119 130 134 137 141 143 143 143 145 146 148 150 150 152 156 156 156 158 159 159 159 160 160 161 162 166 166 170 171 172 173 173 173 175 175 177 178 178 180 181 184 184 183 183 183 183 183 187 188 189 189 188 188 188 188 189 189 189 189 188 188 188 188 188 188 188 189 189 188 188 187 186 185 185 185 185 186 186 185 181 161 133 133 133 150 166 170 170 168 168 166 164 161 156 152 150 148 146 144 140 139 138 135 134 132 131 130 128 126 125 123 120 115 112 106 103 99 95 86 67 48 39 32 30 31 32 38 45 63 81 83 83 72 63 55 51 49 52 54 54 51 51 51 51 52 55 60 65 69 74 80 88 98 107 114 117 117 117 117 116 115 112 104 93 80 74 67 65 61 60 59 59 60 60 60 61 63 64 65 65 65 65 65 64 64 64 64 63 
68 66 64 62 58 55 53 50 48 46 44 43 41 41 41 41 41 41 41 41 41 40 40 40 40 39 39 39 39 40 40 40 41 41 42 49 66 91 113 113 113 110 96 91 91 103 111 115 117 117 115 117 139 148 150 152 157 157 158 163 165 165 166 167 168 170 171 171 172 174 175 175 177 178 179 180 181 182 182 182 183 183 184 186 186 186 187 187 187 188 188 189 190 191 191 192 192 191 190 190 189 188 186 185 185 185 185 185 185 185 184 183 181 180 178 177 176 175 173 170 166 165 164 162 164 165 166 167 168 168 168 168 168 168 168 168 168 169 170 169 166 164 156 146 144 143 142 142 138 119 105 91 91 93 143 170 175 174 174 176 178 179 182 183 184 185 187 188 191 193 196 199 202 205 205 204 201 199 196 193 192 186 178 173 171 169 167 161 157 152 149 146 140 134 130 127 116 94 78 74 70 83 104 103 102 102 99 97 96 97 99 106 119 130 136 141 143 145 147 147 148 152 153 153 155 156 158 161 162 162 163 164 164 164 164 166 166 168 171 172 173 173 175 175 176 177 178 179 180 184 184 187 187 187 186 186 186 187 188 190 190 192 192 192 192 191 189 189 189 189 189 189 189 188 188 188 188 188 188 188 188 188 187 186 185 185 185 185 185 185 182 161 153 133 133 153 168 168 168 168 168 166 164 163 159 155 150 148 147 145 143 139 137 135 134 133 131 130 129 128 126 125 123 119 115 112 105 99 98 91 83 64 42 33 26 25 28 30 34 47 66 83 83 83 76 64 61 57 56 59 59 59 59 59 57 57 60 64 66 69 74 78 84 93 103 114 121 122 121 118 117 115 113 108 99 86 74 67 61 57 57 57 56 56 56 56 56 57 58 60 62 62 62 62 61 61 60 59 59 59 
64 64 62 59 56 54 50 48 47 45 43 42 41 40 40 40 39 40 40 40 40 40 40 39 39 39 38 38 39 40 40 40 40 41 42 49 65 88 113 120 123 123 103 91 91 103 111 125 125 129 117 117 117 144 150 152 157 158 160 163 166 166 167 168 170 172 172 174 175 175 176 177 178 180 180 181 182 183 184 185 187 187 187 187 187 187 188 189 189 189 191 191 191 191 192 192 193 192 192 191 190 190 189 188 186 185 185 185 185 185 185 184 183 181 180 178 177 176 176 174 172 170 170 170 170 170 169 169 169 169 169 169 170 170 170 171 171 171 170 170 169 166 156 146 144 143 142 142 138 122 103 91 93 108 166 172 176 175 174 177 179 180 183 184 185 187 187 188 189 192 194 196 199 202 203 202 200 197 195 193 191 187 179 173 171 169 164 161 158 155 150 146 140 138 133 129 121 112 94 76 64 67 87 99 99 99 99 96 95 97 102 111 119 130 139 143 147 149 152 153 153 154 155 157 159 162 162 162 163 163 164 165 165 166 166 167 170 172 173 173 175 175 176 177 179 182 184 185 188 190 192 192 191 190 189 189 190 190 192 194 197 197 194 193 193 192 191 191 191 191 191 191 191 189 189 189 188 188 188 188 188 188 187 186 185 184 185 184 184 181 161 153 133 133 157 168 168 168 166 166 165 164 163 161 156 150 148 148 146 144 142 137 135 133 133 132 130 130 128 126 125 124 120 117 114 108 102 98 92 91 74 50 41 26 24 23 24 28 35 53 72 81 83 83 78 70 63 63 63 63 64 68 68 68 67 66 67 69 71 74 77 83 92 100 114 122 126 125 122 120 117 114 109 101 87 75 67 57 56 53 50 49 50 50 50 50 52 52 54 54 56 56 56 55 54 54 54 54 54 52 
65 64 62 59 55 52 49 47 46 45 43 41 40 39 39 39 39 39 39 39 39 39 39 39 38 37 37 38 38 39 40 40 40 40 41 47 64 87 113 126 130 130 110 99 99 100 110 125 130 134 128 117 117 123 144 150 157 158 160 164 166 167 168 171 172 174 174 175 176 177 178 180 180 181 181 182 183 184 185 187 187 187 187 188 188 188 189 189 190 190 191 191 191 192 192 193 193 193 193 193 192 191 190 190 189 188 188 188 187 187 186 185 185 183 181 180 179 178 177 176 175 174 174 174 174 174 173 172 170 170 170 170 172 172 173 174 173 173 171 170 169 166 159 149 144 143 140 138 135 108 98 92 98 148 167 172 175 175 174 177 180 181 183 184 185 186 186 187 188 189 193 194 196 199 200 199 197 195 193 192 190 189 181 176 171 168 164 161 158 156 153 147 140 138 134 130 127 117 102 82 64 64 66 83 94 95 96 95 96 99 103 113 119 130 139 145 149 152 153 153 155 156 159 162 162 162 163 164 164 164 165 166 167 167 168 170 173 176 176 177 177 179 182 182 184 185 188 190 192 193 194 194 194 193 192 191 193 193 194 197 198 198 197 194 193 193 193 192 192 191 191 191 191 190 189 189 188 188 188 188 188 188 188 186 185 184 183 182 180 158 146 140 153 159 171 171 171 168 166 165 164 163 161 158 154 149 148 146 145 143 139 135 133 133 133 132 130 128 126 125 124 121 117 114 109 106 99 96 91 88 69 44 32 24 22 22 22 25 36 55 72 78 80 80 75 70 68 64 64 68 69 72 73 73 72 71 71 73 76 76 82 89 98 108 120 128 128 127 123 119 114 110 104 94 79 69 57 53 48 47 47 47 47 47 48 48 48 50 51 52 52 52 51 51 51 50 50 49 49 49 
65 64 62 58 54 50 47 46 45 43 42 40 39 38 37 38 38 39 39 39 39 39 39 38 37 37 37 37 38 38 39 39 39 39 39 47 62 84 112 132 133 133 130 103 100 100 110 129 134 138 139 128 117 121 124 143 150 158 162 165 166 168 170 172 173 174 175 176 177 178 180 181 181 181 182 183 184 185 187 188 188 188 188 188 188 189 189 190 190 191 191 191 191 192 192 193 193 194 194 193 193 193 193 193 193 193 191 190 189 188 188 186 186 185 183 182 181 180 179 178 177 176 176 176 176 176 175 174 173 172 173 173 174 175 175 176 175 174 173 171 169 166 162 154 144 143 138 135 121 103 98 98 121 164 167 171 173 174 175 178 180 181 184 184 185 185 186 186 188 189 191 193 194 197 197 197 197 194 193 191 190 189 182 177 171 168 163 160 159 158 155 150 142 139 134 132 129 125 117 96 66 64 64 66 82 93 94 94 96 102 107 114 122 128 137 145 150 152 153 155 156 159 162 162 164 164 164 164 165 166 166 167 168 170 173 176 178 180 182 182 182 182 184 186 188 189 191 193 195 196 197 197 197 196 194 194 194 194 195 197 198 198 197 195 194 194 193 193 192 192 192 191 191 190 188 188 188 186 186 187 187 188 188 185 184 183 181 176 156 152 146 153 159 174 174 172 171 168 165 164 163 161 158 155 151 148 146 145 143 141 137 133 133 132 132 130 129 127 125 124 121 117 114 111 107 104 98 92 91 82 61 37 25 23 22 22 22 24 41 59 72 75 78 78 73 70 69 69 69 69 74 76 78 78 76 75 75 76 76 81 87 95 107 118 128 131 131 128 125 115 110 106 100 87 74 59 53 47 44 44 44 44 44 44 45 45 46 46 48 49 49 49 48 48 47 47 46 46 46 45 
65 64 61 58 54 49 47 46 45 43 41 39 38 37 37 37 38 38 39 39 39 39 38 38 37 37 37 37 37 38 38 38 38 38 39 44 57 78 108 132 136 143 143 122 104 104 110 124 135 139 144 143 128 123 123 126 143 158 162 165 167 169 171 172 173 174 176 176 178 180 181 181 181 182 183 184 186 187 188 188 188 188 188 188 188 189 189 190 191 191 191 191 192 192 192 193 194 194 194 195 195 195 195 195 194 193 193 192 191 190 189 188 188 186 185 185 184 183 182 180 179 179 178 178 178 178 178 177 175 175 176 177 178 178 178 178 176 175 173 170 167 165 163 159 149 140 136 121 103 103 105 121 156 165 168 171 173 173 175 178 180 182 184 185 186 187 187 187 188 189 191 193 194 197 197 197 195 193 191 190 190 189 182 177 171 168 163 160 159 158 157 153 144 139 137 134 132 127 118 112 88 70 64 65 67 82 87 93 94 102 111 115 123 129 137 145 149 152 154 156 159 161 162 164 164 166 166 167 167 170 170 171 173 175 178 179 180 182 183 184 184 185 186 188 189 191 193 194 196 197 198 199 199 199 197 195 195 194 194 195 197 197 195 194 194 194 193 193 193 192 192 192 191 190 189 189 188 186 186 187 187 187 186 185 183 178 172 155 152 152 156 162 172 175 175 172 171 168 165 163 161 158 154 151 149 146 145 144 142 138 135 133 132 131 130 129 127 126 124 121 118 114 111 107 105 102 96 91 88 72 54 33 24 24 22 22 22 26 46 66 72 74 75 73 70 70 70 70 73 76 80 80 80 78 77 77 76 77 81 86 93 101 113 124 133 133 132 128 120 113 108 103 94 79 67 54 47 42 40 41 42 43 43 43 43 43 44 45 46 47 47 47 48 47 47 47 46 46 43 43 
63 62 59 57 53 49 46 45 44 42 40 38 38 37 37 37 38 38 39 39 39 39 38 38 37 37 37 37 37 38 38 37 37 38 39 42 51 72 102 129 148 151 151 141 114 114 118 120 135 142 144 144 141 128 123 122 124 143 158 165 167 171 172 173 173 174 176 178 179 181 181 181 181 182 183 184 186 187 188 189 189 189 188 189 189 189 190 191 191 191 191 192 192 192 193 194 194 195 195 195 195 195 195 195 195 195 194 193 193 191 190 189 188 188 188 187 186 186 185 184 182 181 179 179 179 179 179 179 178 178 179 180 179 179 179 178 177 175 173 169 167 165 163 159 150 138 124 105 97 105 121 156 165 167 169 171 172 173 174 176 180 182 184 185 186 187 187 187 188 190 191 194 195 197 197 196 194 191 191 190 190 189 182 178 172 168 163 161 159 158 157 155 149 142 138 135 133 128 121 117 106 88 70 67 67 70 81 84 94 98 107 114 123 128 136 145 149 152 155 157 160 162 163 164 166 167 170 170 171 171 173 175 176 178 180 181 182 183 184 184 185 186 187 189 191 193 194 195 197 198 199 200 200 200 199 197 196 195 194 194 194 195 194 194 194 194 194 194 194 192 192 191 191 190 189 189 188 186 186 186 186 186 185 183 176 160 155 154 155 159 172 172 172 174 172 172 169 166 164 160 155 152 149 149 146 144 144 143 140 135 132 132 129 129 129 127 125 124 121 118 114 111 109 105 103 100 94 89 82 61 47 31 24 23 22 22 22 34 53 66 72 72 70 69 69 70 70 73 76 82 83 82 82 81 79 78 78 81 86 93 101 113 124 132 135 135 133 127 117 109 105 100 88 75 59 48 42 39 39 40 41 42 43 43 43 43 44 45 46 46 47 47 48 47 47 47 46 46 44 44 
61 60 58 56 53 49 46 45 43 42 40 38 38 38 37 38 38 39 39 39 39 39 39 38 38 37 37 38 38 37 37 37 37 38 41 43 47 66 98 127 151 153 153 153 129 119 119 120 133 142 145 145 146 141 126 122 122 132 143 160 166 170 172 173 173 174 175 178 181 181 182 182 182 183 185 186 187 188 189 190 190 190 189 190 190 190 191 191 192 192 192 192 192 193 194 195 195 195 196 195 195 195 195 195 195 195 195 194 194 193 191 190 189 189 188 188 188 187 187 186 186 184 184 183 183 183 183 183 182 182 182 181 181 180 179 178 177 175 172 168 167 165 163 159 150 135 108 97 97 121 146 165 166 168 169 171 171 173 174 176 180 182 184 185 186 187 187 188 189 191 193 194 197 197 197 196 193 191 191 190 190 189 182 178 172 168 166 162 160 159 157 156 153 144 139 135 134 132 127 121 116 104 88 76 70 73 74 79 82 95 103 112 122 128 136 143 149 152 155 156 160 162 163 165 168 169 170 170 171 173 175 176 178 179 181 181 183 183 184 185 185 187 188 191 193 193 195 196 197 198 200 200 200 200 200 199 197 195 194 194 194 194 194 194 194 194 194 194 194 193 192 191 191 190 189 189 188 186 186 185 185 184 177 171 160 157 160 160 169 172 172 172 172 172 171 169 168 163 160 155 152 150 149 147 146 144 143 140 137 133 131 129 127 126 125 123 122 120 118 114 112 109 106 104 102 97 91 84 76 54 42 29 24 22 21 22 23 44 60 69 69 69 68 66 68 70 75 78 83 84 85 84 83 82 81 80 81 87 93 101 113 124 132 136 135 135 130 119 110 105 101 94 83 69 54 43 39 38 39 39 40 42 43 43 43 43 44 45 46 47 47 48 48 48 48 47 47 47 46 46 
60 59 57 55 52 49 46 44 43 42 41 39 38 38 38 39 39 39 39 39 39 39 39 39 38 38 38 38 38 37 37 37 37 39 41 43 47 63 96 127 152 164 165 165 144 129 128 129 133 141 145 146 147 148 146 132 132 132 138 141 161 169 171 173 173 173 174 177 181 181 182 183 183 185 186 186 188 189 190 190 191 191 191 191 191 191 192 192 193 193 194 193 193 194 195 195 195 196 196 195 195 195 195 195 195 195 195 195 194 194 193 190 190 189 189 188 188 188 187 187 187 186 186 184 184 184 184 184 184 184 184 183 182 181 180 178 176 175 172 168 167 165 163 156 135 108 97 97 105 132 161 166 169 171 171 171 172 173 174 176 180 183 185 187 188 188 189 189 190 193 194 197 198 198 198 197 194 192 191 190 190 188 182 178 172 171 168 164 161 159 157 156 154 148 142 137 135 133 129 123 118 116 104 89 81 76 76 79 82 83 91 103 114 124 131 137 145 150 155 156 160 162 164 168 169 170 170 171 173 174 175 177 179 180 181 181 183 183 183 184 185 187 188 191 193 193 195 196 196 198 199 200 201 200 200 199 198 195 194 194 194 194 194 194 194 194 194 194 195 194 193 192 191 191 189 189 188 186 186 185 184 176 165 160 160 160 169 172 173 173 172 172 170 169 168 167 162 158 154 151 149 149 148 146 143 142 140 137 134 131 129 127 125 123 122 120 118 117 115 112 109 106 104 103 102 94 89 79 66 47 32 25 23 22 21 22 34 53 66 69 72 72 68 66 68 75 80 81 83 85 85 85 85 85 85 85 89 98 104 114 125 129 132 135 135 131 124 110 105 102 97 88 76 62 47 41 39 39 39 40 40 42 44 44 44 44 45 46 47 48 49 50 50 50 49 49 48 48 48 48 
58 58 56 53 51 49 46 44 42 42 41 40 39 39 39 39 39 39 39 39 39 39 39 39 39 40 41 40 39 39 38 38 39 40 42 43 47 61 96 126 151 165 167 167 155 132 130 130 133 139 145 147 148 150 150 151 146 138 138 138 140 160 170 172 173 173 173 178 181 182 182 183 183 183 185 186 187 190 190 191 191 191 191 191 191 192 192 194 194 194 195 195 195 195 195 195 196 196 195 195 195 194 194 195 195 195 195 195 195 195 194 192 191 190 189 189 189 188 188 187 187 187 187 186 186 186 185 185 185 185 185 185 184 181 180 178 177 175 172 169 167 163 156 136 112 101 99 105 130 155 165 168 171 171 174 174 174 174 174 177 181 184 187 188 189 189 189 190 192 194 196 198 198 198 198 197 195 193 192 191 190 189 183 178 176 172 170 167 163 160 157 155 153 151 148 142 136 134 131 126 121 119 116 106 91 80 80 80 80 82 87 91 93 103 122 133 140 149 154 155 159 162 165 168 169 170 170 171 173 175 176 178 179 181 182 183 183 183 183 184 185 187 189 191 193 194 195 196 197 197 198 199 200 200 200 200 199 197 195 194 194 193 193 193 193 193 194 195 195 195 194 192 191 191 189 189 188 186 185 173 171 170 165 165 165 166 169 172 172 172 172 170 167 167 165 160 157 154 150 149 149 146 143 142 139 138 137 135 132 129 127 125 122 121 120 117 116 115 113 110 107 104 102 102 100 93 84 74 59 42 29 24 22 22 22 24 44 59 69 72 72 73 72 72 76 79 81 83 85 86 86 86 85 87 89 98 104 114 125 125 129 130 130 130 130 124 109 104 102 99 94 84 71 57 43 41 39 39 40 40 41 43 44 44 45 46 47 48 49 50 50 50 50 50 50 50 49 49 48 48 
56 56 54 52 50 47 45 43 42 41 41 40 39 39 39 39 39 39 39 39 39 39 39 39 40 42 42 41 40 40 39 40 40 41 42 45 45 60 82 112 151 167 168 170 165 146 133 133 138 141 146 148 148 150 151 157 158 153 144 138 138 140 153 167 171 172 173 178 181 182 183 183 183 183 184 186 188 190 191 192 192 191 191 191 192 192 193 194 195 196 196 196 196 195 195 195 195 195 195 195 195 194 194 195 195 195 195 195 195 195 194 194 192 192 190 190 190 189 188 188 188 188 187 187 187 187 186 186 186 186 185 185 185 183 180 178 177 176 171 169 167 156 136 115 108 102 108 127 153 163 166 169 172 174 175 175 177 176 177 181 184 187 188 189 189 190 190 191 193 195 197 198 198 198 198 197 196 195 193 192 191 189 184 180 178 172 171 170 166 163 160 155 154 153 150 145 139 135 133 128 124 123 119 116 106 91 83 80 80 80 87 88 92 96 103 109 122 140 150 154 155 160 165 168 168 169 170 171 173 175 176 178 179 182 183 184 185 185 184 185 187 188 189 190 193 193 195 196 196 197 197 198 199 200 200 200 200 199 197 196 195 194 194 194 193 193 193 194 194 194 192 191 191 190 187 185 170 167 167 167 167 170 170 169 166 169 169 169 170 170 169 166 163 161 159 156 154 150 149 148 146 143 142 139 137 136 135 133 130 127 125 122 120 120 117 116 114 113 110 108 105 102 101 100 99 93 79 66 49 32 24 22 22 22 24 37 56 63 69 72 72 73 73 75 79 80 82 85 86 87 92 96 102 108 117 125 125 125 129 129 126 126 126 125 115 109 102 101 98 96 88 77 64 48 43 42 40 40 41 41 42 44 45 45 46 47 49 50 51 52 52 52 52 52 52 53 53 53 51 52 
55 54 52 50 48 46 43 42 41 41 40 40 39 39 39 39 39 39 38 38 38 39 39 40 41 43 43 43 42 40 40 41 42 42 43 45 47 57 80 111 147 167 170 172 172 158 146 139 139 146 147 148 148 150 152 158 159 160 159 153 140 140 140 140 156 167 171 177 181 182 183 184 184 184 185 186 188 191 192 192 192 192 191 191 192 192 194 195 196 196 196 196 196 196 195 195 195 195 195 195 195 195 195 195 195 196 196 195 195 195 195 194 194 194 192 191 191 190 189 189 188 188 188 189 190 191 192 189 187 186 186 185 185 183 181 178 177 173 171 163 156 126 120 115 112 119 127 145 159 163 167 171 174 175 176 177 178 179 181 184 187 187 188 189 190 191 191 193 195 196 197 198 198 198 198 197 196 195 195 194 192 190 187 183 179 175 172 170 169 167 161 157 154 153 152 148 142 137 134 130 125 123 122 120 116 105 91 87 83 80 86 87 90 96 103 106 106 113 121 133 150 155 162 167 168 168 169 170 172 174 175 178 179 182 184 185 186 186 186 186 187 189 189 191 192 193 194 195 196 196 197 198 199 200 200 201 202 201 199 196 195 195 193 193 190 190 190 190 190 191 191 191 187 179 169 167 165 165 165 164 165 165 165 165 167 169 169 169 167 167 163 161 159 156 154 152 149 148 147 146 144 143 142 138 136 135 133 131 129 125 123 120 119 117 116 114 112 109 108 105 102 100 100 98 97 92 76 61 42 28 23 22 22 24 37 46 59 66 71 72 73 74 74 77 79 81 84 87 92 99 107 111 123 127 132 132 132 130 130 127 125 121 115 102 99 99 99 98 96 94 84 71 57 48 45 43 42 42 43 43 44 45 46 47 47 49 50 52 53 53 53 53 53 53 54 54 54 54 53 53 
52 52 49 48 46 44 42 41 40 40 40 39 39 39 39 39 39 39 38 38 38 39 39 40 42 43 43 43 43 42 41 42 42 42 44 45 47 53 76 107 142 166 172 173 176 172 158 147 147 147 148 148 148 149 153 158 161 161 161 161 153 143 140 138 140 147 163 170 178 182 184 186 185 185 185 185 185 190 191 192 192 191 191 191 191 192 194 196 196 197 196 196 196 196 195 195 194 195 194 195 195 195 195 195 196 196 196 196 195 195 194 194 194 194 194 193 192 191 190 189 189 189 190 191 192 192 192 192 190 187 187 186 185 183 181 177 175 171 160 142 121 120 120 118 121 127 145 159 163 166 168 171 174 175 176 177 180 182 183 185 187 188 189 189 191 191 193 195 196 197 198 198 198 198 198 197 197 196 195 195 193 190 188 184 181 177 173 171 170 169 167 161 157 154 153 149 145 140 136 131 126 123 123 122 119 118 105 91 88 87 87 87 88 96 98 103 106 113 113 119 121 123 144 158 166 168 168 169 171 173 175 176 179 180 184 186 187 187 186 187 188 189 190 191 192 193 195 196 196 196 197 198 199 200 200 202 202 201 199 196 194 193 192 190 188 187 187 185 185 181 173 168 168 167 167 167 165 165 165 164 165 165 165 165 165 166 165 165 165 161 156 153 153 153 149 149 148 147 146 144 143 142 139 137 135 133 132 130 127 124 122 120 117 115 114 111 109 106 105 101 99 97 97 95 93 87 69 55 30 27 23 23 24 36 46 57 61 67 72 73 74 75 77 79 81 83 90 99 107 113 126 133 141 141 139 137 135 132 129 121 110 98 91 91 92 97 97 96 94 88 77 65 57 52 48 46 47 47 47 46 46 46 47 49 50 51 52 53 54 54 54 54 55 55 56 56 56 56 56 55 
49 49 47 46 44 42 41 40 38 38 38 38 38 39 39 39 39 39 38 38 38 39 40 41 43 44 44 44 44 43 42 42 44 44 44 46 47 49 68 98 132 165 172 178 178 178 172 158 151 149 148 148 148 148 149 155 160 162 163 163 161 161 153 140 140 140 146 149 171 178 182 184 184 184 184 184 185 186 190 191 191 191 191 191 191 191 194 196 197 197 197 196 196 196 195 195 194 195 195 195 195 195 195 195 196 196 196 196 195 195 195 194 194 194 195 194 194 192 191 191 190 190 192 192 192 192 192 192 192 191 189 187 185 183 179 176 171 158 139 128 120 120 120 120 122 145 157 162 164 167 168 171 173 175 177 179 182 183 185 188 188 189 189 190 191 192 194 196 198 198 198 198 198 198 197 197 197 196 195 195 194 190 189 187 184 180 175 171 170 170 169 167 161 156 154 151 147 141 137 134 126 124 123 123 123 122 116 100 90 88 87 90 90 98 103 106 108 113 113 119 121 123 125 127 135 141 150 160 167 169 171 173 177 179 182 186 187 187 186 187 188 189 190 191 192 192 193 195 196 196 197 198 198 200 200 200 200 200 199 196 192 188 188 187 185 184 176 168 168 167 164 167 168 167 164 164 164 164 164 164 164 164 164 163 161 161 161 160 158 155 153 153 149 149 148 148 147 146 145 144 143 140 137 134 132 132 130 128 125 122 120 117 115 112 110 108 105 104 102 98 97 95 94 92 88 81 62 48 30 27 26 26 33 43 50 59 62 71 73 74 75 77 79 83 90 96 104 113 126 133 142 143 144 144 142 138 135 127 115 104 93 88 88 91 92 97 97 94 91 80 72 62 57 53 52 52 52 53 53 52 52 52 52 52 52 53 54 55 55 55 55 56 57 58 59 59 59 59 58 58 
47 47 46 45 44 41 40 38 38 38 38 38 38 38 39 39 39 39 39 39 39 40 41 43 43 44 45 45 45 45 43 44 45 46 47 48 48 49 61 86 114 147 170 179 179 179 178 170 158 151 148 148 148 148 148 153 158 161 163 163 164 165 164 160 146 146 146 147 149 152 171 177 182 183 184 184 184 184 187 191 191 191 191 191 191 191 193 194 196 197 197 197 196 196 195 195 195 195 195 195 195 195 195 196 197 197 197 196 196 195 195 194 194 195 195 195 194 194 193 193 192 192 193 192 192 192 192 192 191 191 189 185 183 181 175 165 147 135 133 121 120 120 120 121 134 155 160 163 166 168 170 171 173 175 178 180 182 185 187 189 189 189 189 190 191 192 194 197 198 198 198 198 198 198 198 197 197 196 195 195 193 190 189 188 187 184 179 173 170 170 169 168 165 161 156 152 147 141 137 135 127 125 124 124 124 124 123 104 94 88 86 88 90 101 107 111 115 119 119 122 123 123 125 127 135 135 135 139 139 142 147 149 168 172 177 180 186 186 186 186 186 186 188 189 190 190 192 192 193 193 195 196 198 199 199 199 196 193 186 180 174 170 170 170 175 175 173 168 168 167 164 167 167 166 164 164 164 164 164 164 164 163 161 160 159 158 156 155 154 153 152 149 149 149 148 147 147 145 144 143 141 138 135 133 131 130 128 125 123 120 117 115 112 110 108 105 103 101 100 97 94 92 91 90 86 76 57 42 30 28 28 32 40 46 50 59 63 72 74 79 85 86 91 96 104 113 125 128 135 142 143 143 144 144 142 135 126 114 103 96 92 88 88 91 93 97 97 92 88 77 66 62 57 54 54 54 55 55 55 54 54 54 54 54 55 55 57 58 58 58 58 58 60 61 62 62 62 62 61 61 
46 46 45 44 42 40 38 38 38 38 38 38 38 39 39 39 39 40 40 40 40 41 42 43 44 45 46 46 46 45 45 45 47 48 49 49 49 51 56 70 98 132 164 178 179 179 177 172 164 155 150 148 148 148 148 153 155 161 163 164 165 166 165 165 166 165 151 149 149 151 152 153 170 175 179 180 182 183 184 189 191 191 191 191 190 190 191 194 195 196 197 197 197 197 196 195 195 195 195 195 195 195 197 198 198 198 198 197 196 195 195 194 194 195 195 195 195 195 194 194 193 193 192 192 192 192 192 191 190 190 188 183 177 167 155 149 135 134 130 120 118 120 121 130 150 157 163 165 168 170 171 173 175 176 178 179 182 185 187 189 189 190 190 191 191 193 195 198 198 199 198 198 198 198 198 198 197 196 195 195 193 190 189 188 187 186 181 175 171 170 169 168 166 162 156 149 144 142 139 137 135 126 124 125 126 125 124 118 100 90 84 84 86 93 106 113 118 122 125 127 129 130 130 130 135 135 135 139 139 142 147 147 149 149 152 158 166 168 170 170 180 186 186 186 187 186 187 188 189 189 189 187 183 180 175 172 167 167 167 170 170 170 170 170 175 175 173 168 166 165 164 165 166 165 165 166 165 164 164 163 162 161 159 159 157 155 154 153 153 151 149 149 149 149 148 147 147 144 143 141 138 136 133 131 129 128 125 123 120 117 114 112 110 108 106 102 101 99 98 95 93 91 91 87 83 71 53 40 36 32 32 37 40 42 50 57 63 73 79 85 91 100 104 110 118 124 126 128 135 142 143 143 143 141 135 126 111 103 96 95 93 90 91 99 99 99 97 92 79 72 64 59 57 55 55 55 56 56 56 55 55 54 55 56 58 60 61 61 61 61 61 61 62 63 64 64 64 64 64 63 
45 45 45 44 42 40 39 38 38 38 38 38 39 39 40 40 40 40 40 40 41 42 43 44 45 46 46 46 46 46 46 47 49 50 50 51 51 53 53 66 86 114 146 164 171 177 173 171 164 161 151 148 148 147 148 153 154 161 163 165 167 168 168 169 169 169 168 168 153 152 152 152 153 158 163 172 179 180 183 183 189 190 190 190 189 189 191 193 194 196 196 197 197 197 197 196 196 196 196 196 197 197 198 199 199 199 199 198 197 196 195 195 194 195 195 195 195 195 195 194 194 193 193 192 191 190 190 189 189 188 177 165 157 155 149 143 134 133 128 118 117 120 127 140 156 162 165 167 170 170 172 173 173 176 178 179 182 185 188 189 190 191 191 192 192 195 198 199 200 200 200 199 200 199 198 198 198 197 195 195 192 190 189 188 187 185 181 177 172 170 170 168 166 163 156 147 143 142 142 142 139 136 129 129 129 127 126 123 111 95 86 84 84 90 100 111 115 122 127 129 133 135 140 141 141 141 139 139 139 142 147 147 149 149 152 158 158 162 166 167 167 168 169 171 173 174 176 176 178 179 180 180 180 180 175 172 167 167 167 170 170 170 170 170 171 171 171 167 166 165 164 165 166 165 164 164 163 163 162 161 160 159 158 155 154 153 152 152 152 151 151 150 149 149 147 147 144 142 139 135 133 131 129 126 126 124 122 120 117 114 112 110 107 105 102 101 100 98 97 94 91 91 88 86 79 67 51 41 39 37 36 40 40 41 43 50 62 71 80 86 95 101 104 110 118 124 126 128 134 140 142 142 135 127 118 111 104 102 99 98 96 101 107 106 102 99 97 86 78 66 62 60 58 57 57 57 57 57 57 57 56 57 59 60 62 62 63 63 63 63 63 63 64 65 65 66 66 65 65 64 
45 45 44 42 40 40 39 39 38 38 39 39 39 40 40 41 41 41 41 42 43 44 44 45 46 48 48 48 48 47 48 50 50 51 52 52 52 52 53 60 76 100 123 147 163 168 171 166 163 158 151 148 148 146 148 151 153 158 162 164 166 168 168 168 169 169 169 169 169 169 158 153 153 156 156 156 160 167 177 181 184 187 189 187 187 188 189 191 193 194 194 196 197 197 197 196 196 196 196 197 198 198 198 199 199 199 199 199 198 197 195 195 194 195 195 195 195 194 194 194 194 193 192 191 189 188 187 186 172 160 158 157 155 150 147 143 134 133 126 118 115 121 130 149 160 165 167 170 170 171 172 173 174 175 177 179 181 185 188 191 191 191 193 193 195 197 200 201 202 202 201 201 200 200 199 199 198 196 195 193 190 189 188 187 185 184 181 177 171 170 169 167 166 163 156 149 147 144 144 144 144 144 142 137 135 130 129 126 121 100 92 84 84 90 93 106 115 121 128 131 135 140 141 144 146 147 147 148 148 150 152 152 149 149 152 158 158 162 164 164 164 167 169 171 173 174 176 176 178 179 180 180 180 180 175 172 167 167 167 171 171 171 172 172 171 171 171 167 166 165 164 164 162 162 161 160 160 160 159 159 159 158 154 153 152 150 151 151 151 151 151 151 150 150 148 146 143 139 135 133 131 129 126 124 123 122 120 117 114 113 111 108 106 102 101 100 98 97 95 93 91 88 86 84 77 67 51 45 41 40 40 40 40 40 39 42 50 63 74 82 95 101 104 110 118 123 125 127 128 128 128 127 118 111 105 104 103 103 103 104 110 112 112 110 106 102 92 80 74 64 62 60 60 59 59 61 61 61 60 60 60 62 63 63 64 64 64 64 64 64 64 65 65 66 67 67 67 67 66 65 
45 44 43 41 40 40 40 40 39 39 39 39 40 40 41 42 43 44 44 44 45 46 46 46 48 48 48 49 49 49 50 50 51 51 52 52 51 52 53 53 67 86 115 132 147 155 162 162 158 154 151 147 147 147 148 151 153 156 159 162 165 166 167 168 168 168 169 169 170 172 170 167 160 158 156 156 160 159 163 167 168 176 181 181 183 184 185 188 191 193 194 194 196 197 195 195 195 195 196 197 198 198 198 198 199 199 199 198 198 196 195 194 194 194 193 194 194 193 192 192 192 191 188 187 179 168 166 164 161 160 158 156 155 150 146 142 134 130 121 117 115 121 139 157 164 167 170 170 170 171 172 173 173 175 176 178 180 183 187 191 191 193 195 195 196 198 200 201 202 202 201 201 200 200 199 199 197 196 193 191 189 187 186 185 184 183 179 175 170 168 168 166 165 158 149 147 147 147 147 148 148 148 146 145 140 135 132 130 126 111 95 84 84 88 93 102 112 118 122 129 136 141 143 146 147 148 148 150 152 152 153 155 156 157 158 158 159 161 163 163 163 163 168 169 172 174 175 175 176 177 178 177 177 177 177 177 172 172 172 172 171 171 172 172 171 171 171 167 166 164 162 162 160 160 159 159 159 159 158 157 156 155 154 152 150 149 149 149 150 151 151 150 150 150 147 143 141 135 133 131 130 127 125 123 122 120 117 114 113 110 108 106 103 101 100 99 98 96 94 92 90 87 85 83 76 67 53 49 45 42 41 40 37 36 34 34 40 50 63 72 80 89 96 98 98 98 98 98 100 100 100 98 98 98 98 99 102 103 108 114 117 116 113 110 107 97 86 78 69 64 63 61 60 60 62 63 64 65 65 63 63 64 65 65 65 65 65 65 65 65 65 66 67 69 69 69 69 70 71 72 
44 43 42 40 40 40 40 40 40 40 40 40 41 41 42 43 44 45 46 46 47 48 48 48 49 49 49 49 50 50 51 51 51 51 51 51 51 51 52 53 62 77 100 123 142 149 154 155 155 154 151 147 147 147 149 151 152 154 156 160 162 165 166 167 167 168 168 168 170 173 173 173 173 167 160 160 160 159 163 167 168 169 172 173 173 177 181 183 184 190 193 193 194 194 194 194 194 195 195 195 196 197 198 198 197 197 197 197 196 195 194 193 193 192 192 192 189 186 184 182 174 171 171 168 167 167 166 163 160 156 152 152 151 149 146 142 133 127 121 119 119 130 149 164 167 170 170 170 170 171 171 172 173 174 174 176 178 181 185 189 191 193 195 195 196 197 199 200 202 200 200 200 200 196 195 192 191 191 190 188 185 185 184 183 181 179 175 170 161 165 165 161 157 150 140 139 144 147 147 148 148 148 146 145 142 137 135 133 131 124 109 92 87 87 90 100 111 115 122 129 137 141 143 146 147 148 150 152 154 156 156 157 157 158 159 160 162 163 163 163 164 167 169 172 173 174 175 175 176 177 178 177 177 177 177 177 175 172 172 172 171 171 169 169 167 167 167 167 164 163 162 161 160 159 159 159 159 158 158 157 155 154 153 151 149 148 148 148 149 149 150 149 148 145 143 141 136 135 131 130 127 125 122 120 119 117 114 112 110 107 105 103 102 100 99 98 96 94 92 91 88 85 84 82 76 67 59 53 48 45 42 41 36 34 32 31 33 39 49 53 63 72 75 78 78 78 79 79 84 89 89 89 90 94 96 98 104 111 114 118 118 117 114 109 101 89 80 74 70 66 64 63 63 63 64 66 67 67 68 66 66 66 66 67 67 67 66 66 66 66 67 69 70 70 70 70 71 72 72 73 
43 42 41 40 40 40 40 41 41 41 41 41 42 42 43 44 45 46 47 47 48 48 48 49 49 50 50 50 51 51 51 52 52 51 51 51 51 51 53 53 56 70 92 115 132 149 154 155 155 155 153 149 147 147 148 150 152 154 154 156 160 164 165 166 166 166 167 168 170 173 174 174 175 175 175 175 174 163 159 159 163 168 169 172 172 172 173 176 182 183 183 185 186 187 187 188 191 191 192 192 192 192 192 193 193 193 191 191 191 189 186 184 179 179 176 173 169 167 165 165 165 165 167 167 162 161 158 156 153 152 149 151 151 148 146 142 133 127 125 122 124 140 158 167 169 170 170 170 170 170 170 170 171 172 173 173 175 178 182 187 189 191 195 195 195 196 197 199 199 196 192 191 190 186 186 186 183 183 183 182 181 179 177 174 162 160 161 160 152 159 159 152 150 149 141 140 140 147 147 148 148 148 145 143 141 137 135 134 132 130 122 107 91 88 90 96 110 115 122 129 136 141 142 146 148 149 151 153 156 156 157 158 159 160 160 163 164 164 165 167 167 169 172 173 174 175 176 176 176 177 178 177 177 177 177 177 177 175 172 172 169 167 167 167 167 167 167 166 164 163 162 160 160 159 159 159 159 158 158 157 155 154 153 151 149 148 148 147 147 147 149 146 144 142 138 136 135 133 131 130 126 122 119 118 115 112 110 109 106 104 103 102 100 99 97 94 93 91 89 88 85 84 83 81 76 69 65 59 52 46 43 41 34 32 30 29 31 34 39 44 50 53 53 53 59 59 62 68 75 79 81 83 88 90 96 99 107 112 114 117 117 114 109 101 92 84 79 74 72 69 66 64 64 65 68 68 69 69 69 69 69 70 70 70 70 70 70 70 70 70 70 71 72 72 72 72 72 73 74 75 
42 41 41 40 40 40 41 42 42 42 42 42 42 43 44 44 46 47 47 48 48 48 48 49 50 50 50 51 51 52 52 52 52 52 51 51 51 51 53 54 56 68 90 113 132 146 152 155 155 155 154 149 147 147 147 148 151 152 154 154 158 162 164 165 165 166 166 168 170 171 172 173 174 175 175 175 176 175 169 163 163 163 169 172 172 172 173 176 179 179 179 177 176 176 176 177 177 177 177 176 176 175 175 175 175 175 174 171 171 169 168 166 165 164 164 164 164 164 164 164 164 162 161 157 157 156 153 153 151 151 149 150 150 147 146 143 136 132 132 133 139 151 164 167 169 170 170 170 170 170 170 170 169 169 169 169 171 174 177 181 185 187 187 188 188 189 190 190 190 190 180 179 179 179 179 179 176 175 174 173 170 160 160 158 153 152 152 152 150 152 156 151 150 146 141 139 140 140 140 140 142 142 142 142 138 136 134 134 133 132 128 122 99 92 93 95 104 114 122 129 136 142 143 147 149 152 156 156 156 157 158 159 159 160 163 164 165 165 166 167 169 172 173 175 176 176 176 176 175 175 174 175 175 176 175 175 175 173 172 170 169 167 167 167 167 167 167 166 164 163 161 160 159 159 159 159 159 159 158 158 156 155 153 151 149 148 147 147 146 144 144 143 141 138 136 133 132 131 129 126 123 119 117 114 112 109 105 104 103 102 100 99 95 93 93 91 89 88 86 84 83 82 82 80 76 73 69 61 55 49 46 41 33 30 30 29 31 34 39 44 46 48 53 53 54 56 59 62 68 75 79 81 84 89 92 104 109 112 114 114 112 108 101 92 86 81 79 75 73 72 71 71 71 71 72 72 72 72 72 73 73 74 74 74 74 74 74 74 74 74 74 74 75 75 75 75 75 76 77 77 
42 41 41 40 40 40 41 42 42 42 42 42 42 43 44 45 46 47 48 48 48 48 48 49 50 50 51 51 51 52 52 52 52 52 52 52 53 53 53 55 56 67 87 110 132 145 152 155 159 156 155 150 147 146 146 147 149 152 152 154 156 161 162 163 165 165 165 168 169 170 171 172 174 175 175 176 177 177 176 176 176 173 176 176 176 176 176 176 179 179 179 177 176 176 175 175 171 171 171 171 170 170 170 170 172 171 171 169 168 166 165 165 163 163 163 163 163 162 161 161 160 160 157 156 156 156 157 157 157 157 156 152 150 149 147 146 143 137 137 145 151 161 165 168 168 169 169 169 169 169 169 169 167 166 163 163 163 166 169 173 177 179 179 180 180 180 180 180 180 179 167 166 166 154 152 166 152 158 160 160 157 152 152 152 147 147 150 150 150 151 152 150 143 140 134 130 132 133 133 133 134 135 136 136 134 132 131 131 131 131 131 126 113 96 95 95 101 110 122 129 136 142 145 149 152 156 158 159 161 161 161 161 161 163 164 165 165 165 166 167 169 172 173 176 176 176 176 176 175 175 174 174 174 175 175 174 173 172 172 170 169 169 167 169 169 168 167 167 164 163 161 160 159 159 159 159 159 159 158 158 157 155 153 151 149 148 147 146 143 142 141 139 137 136 133 132 130 129 126 123 119 117 114 112 110 105 104 103 102 100 97 95 93 89 89 88 86 85 83 82 82 82 81 80 76 75 72 68 60 53 48 39 32 30 30 30 32 34 39 44 46 48 51 53 53 56 59 62 67 72 77 80 84 92 98 103 105 109 111 109 104 99 92 86 83 82 79 77 75 75 75 75 75 75 75 75 75 76 76 77 77 78 78 78 78 78 78 78 78 78 78 78 78 78 78 78 78 79 80 80 
43 42 41 40 40 40 41 42 42 42 42 42 42 43 44 44 46 46 47 48 48 46 46 48 49 50 50 51 51 51 52 52 52 52 52 53 53 54 54 55 56 62 79 101 125 145 154 158 160 160 156 152 147 146 145 145 147 151 152 152 156 160 162 162 163 164 167 168 170 171 171 172 174 175 175 175 176 177 177 177 176 176 176 178 178 178 178 179 179 179 178 176 175 175 174 171 171 170 170 170 170 170 170 170 168 167 167 166 166 165 164 163 162 159 158 159 159 159 160 160 161 161 162 162 161 161 161 158 157 157 156 152 152 152 151 151 151 149 149 153 159 165 167 168 168 167 165 165 165 165 164 164 163 161 159 159 159 160 163 164 165 165 168 168 169 169 169 169 167 166 166 166 154 147 140 140 139 139 150 151 148 147 147 146 143 143 142 142 142 142 146 142 134 130 127 124 124 124 124 125 126 127 129 129 129 129 128 128 129 129 131 129 123 104 95 95 97 107 118 128 136 142 146 150 156 157 159 161 161 162 163 163 165 166 166 166 166 167 167 169 172 174 176 176 177 177 177 176 176 175 174 174 174 175 175 175 174 173 172 171 170 169 170 170 170 169 168 167 165 162 161 160 160 160 160 159 159 159 158 158 156 155 152 151 148 146 144 143 141 139 138 137 136 134 132 129 127 126 122 119 117 114 112 110 105 104 102 101 99 96 94 91 89 87 86 85 84 82 81 81 81 81 81 80 77 76 74 71 64 59 46 35 31 30 30 30 34 37 41 46 47 50 51 52 53 56 60 64 68 75 80 84 92 97 100 103 104 105 105 103 96 92 87 84 83 82 81 79 77 77 77 77 77 77 77 77 78 78 79 80 79 79 79 79 79 79 80 81 81 80 80 80 80 80 81 81 81 81 82 83 
44 43 40 40 40 40 41 41 42 42 42 42 42 43 43 44 45 46 47 47 47 46 46 47 49 50 50 50 51 51 51 52 52 52 53 54 54 55 55 55 56 56 69 90 115 137 154 160 161 161 160 152 146 143 142 142 145 148 151 152 155 159 160 162 162 162 163 167 169 170 171 171 173 173 174 175 175 176 176 177 176 177 177 178 179 179 180 180 180 179 179 179 177 175 174 171 171 170 170 170 170 170 170 170 167 166 166 166 166 164 163 162 162 160 163 163 163 162 163 164 164 164 164 162 162 161 161 158 158 158 158 158 158 157 154 154 153 153 154 159 163 166 167 167 165 164 163 163 161 159 159 158 155 154 153 151 151 151 151 151 152 153 153 155 157 157 157 157 157 156 155 154 148 140 134 131 130 131 131 136 136 135 134 133 132 129 125 124 123 123 123 123 123 117 114 112 112 112 112 113 119 119 119 120 121 122 124 124 125 127 127 126 123 114 101 95 95 102 111 125 132 142 148 151 156 159 160 161 163 164 165 166 167 168 170 169 169 170 171 172 173 174 176 177 178 178 178 179 178 178 177 176 175 175 175 175 174 173 172 172 171 170 171 171 170 170 170 167 164 161 161 160 159 160 160 159 159 158 158 156 155 153 151 148 146 145 143 142 139 138 136 135 133 132 130 127 125 122 119 117 113 112 111 107 105 103 101 99 96 94 90 87 87 84 84 83 81 81 81 81 81 81 81 80 78 76 75 73 68 60 43 31 30 30 30 34 39 45 50 50 50 50 51 52 54 57 63 68 75 80 88 93 98 100 101 102 102 103 99 96 91 87 85 85 84 83 82 82 80 80 80 80 80 80 80 80 80 81 81 81 81 80 80 80 80 81 82 83 83 82 82 82 82 82 83 83 83 83 84 85 
45 44 40 40 40 40 40 41 42 42 42 42 42 43 43 44 45 46 46 47 47 46 46 47 49 49 50 50 50 50 51 51 51 52 53 54 54 55 55 55 55 56 64 82 103 125 146 156 159 159 157 152 144 142 140 139 142 145 149 152 155 156 159 159 160 162 162 164 167 169 170 171 172 172 173 174 175 176 177 177 176 176 176 176 178 180 181 182 181 181 180 179 178 176 175 174 172 171 171 171 171 171 171 170 170 169 168 167 166 166 165 163 163 163 163 164 164 164 164 164 164 164 164 162 162 164 167 167 167 167 167 167 167 165 161 159 156 157 159 162 166 166 166 165 164 163 161 159 159 158 154 152 147 146 145 144 143 143 143 143 141 141 141 144 145 146 146 146 148 148 147 147 137 136 128 125 125 125 119 117 119 117 105 105 110 107 95 95 104 103 103 103 103 101 99 99 99 99 101 102 111 111 111 112 113 118 121 122 123 124 125 125 123 118 104 95 95 96 107 121 131 140 148 152 156 157 160 162 164 166 166 167 169 172 173 173 173 174 174 174 174 175 176 178 178 179 180 181 181 180 179 177 176 175 175 174 174 173 172 172 172 172 172 171 170 170 168 165 162 161 160 160 159 159 159 159 158 157 156 155 152 150 147 145 145 143 142 139 136 135 134 132 131 130 127 124 120 117 114 113 112 111 108 105 103 102 99 96 94 90 87 84 81 80 80 80 80 80 80 81 81 81 81 80 79 76 76 74 69 60 41 30 30 30 32 39 45 52 52 51 50 50 50 51 54 59 65 72 80 91 99 103 102 102 101 100 99 96 91 89 88 86 85 85 84 84 84 84 84 84 84 84 84 84 83 83 83 83 82 82 82 82 81 81 82 83 84 84 85 85 84 84 83 83 84 84 84 84 86 86 
40 40 40 40 40 40 41 41 42 42 42 42 42 43 43 44 45 46 46 47 47 46 46 47 49 49 49 49 49 49 49 49 51 51 52 53 53 54 53 52 52 54 57 69 90 115 137 153 156 157 156 152 147 140 138 138 138 142 147 151 153 155 156 156 157 159 162 162 165 168 169 170 171 172 172 173 174 175 176 176 176 176 175 175 176 178 180 181 181 181 180 179 178 177 176 175 174 174 173 173 174 174 172 171 171 171 170 168 167 166 165 163 163 163 163 164 164 164 166 167 170 170 170 170 170 170 170 174 174 174 174 171 168 167 165 163 162 162 162 164 166 166 165 163 162 159 159 157 154 152 147 143 138 136 133 129 126 126 126 127 127 127 127 127 127 130 130 130 133 135 125 125 128 125 124 119 117 115 105 96 96 94 85 85 87 85 76 77 79 79 79 84 84 82 82 82 84 87 88 89 94 95 96 100 106 111 115 119 120 121 122 122 120 116 111 96 96 96 104 119 129 139 146 151 155 157 159 163 165 166 167 168 171 173 173 174 175 177 178 178 178 177 178 178 180 181 182 182 182 181 181 179 177 176 176 174 174 173 173 173 172 172 172 172 170 169 168 165 162 161 160 160 159 158 157 156 156 156 155 152 150 147 145 145 143 142 139 136 133 131 131 129 127 125 122 118 116 113 112 111 111 108 105 103 101 98 95 90 87 85 82 81 80 79 78 78 78 78 79 81 81 81 81 81 79 77 76 74 64 51 31 28 28 30 34 41 45 52 52 51 50 39 37 44 50 59 68 77 88 99 106 106 103 102 100 98 93 89 88 88 87 87 86 86 85 86 86 85 85 85 85 85 85 85 85 85 85 84 83 83 83 83 83 83 84 84 85 85 85 85 85 85 86 86 86 85 85 85 83 83 
41 40 41 40 41 41 41 41 42 42 42 42 42 42 43 44 45 46 46 46 46 46 46 46 48 49 49 49 49 49 49 49 50 51 52 53 53 52 52 52 52 53 56 64 82 103 124 141 154 156 156 152 147 143 140 137 137 139 142 147 149 152 153 154 155 157 159 161 164 167 168 169 170 170 172 172 172 173 174 175 175 175 174 174 175 176 178 179 180 179 179 179 178 177 176 175 175 175 175 176 176 176 175 173 172 171 171 169 168 167 167 167 167 168 170 170 170 170 172 174 173 173 172 171 171 172 174 174 176 174 174 172 170 167 166 165 164 164 164 165 165 165 163 161 157 154 151 149 145 139 134 130 128 126 123 120 116 114 114 114 111 111 111 111 111 111 96 93 107 108 108 109 120 114 110 105 105 102 94 77 74 71 64 64 66 64 56 59 61 61 61 70 70 70 70 73 77 80 83 84 86 87 89 94 96 102 110 113 116 118 118 119 116 113 108 96 95 95 102 117 127 136 145 151 154 157 159 162 165 166 167 169 171 173 174 175 177 178 178 178 178 178 178 180 182 182 182 182 182 182 182 180 179 177 176 175 174 174 174 174 173 172 172 172 170 168 166 164 162 160 160 160 159 157 156 156 156 155 153 150 147 146 145 143 142 140 138 134 131 130 127 125 125 122 118 116 114 112 111 110 108 105 102 99 98 94 90 87 84 82 81 80 79 79 78 78 78 79 80 81 82 82 81 81 80 77 76 73 61 47 28 26 26 30 34 36 43 45 45 35 28 28 28 29 36 47 65 80 92 102 106 106 103 101 96 92 89 88 88 87 87 87 87 87 87 88 87 87 86 85 85 85 85 85 85 86 85 85 84 84 84 84 84 84 85 85 86 86 86 86 86 86 86 86 86 86 86 86 86 86 
42 42 41 41 41 41 41 42 42 42 42 42 42 42 43 43 44 45 46 46 46 46 46 46 46 48 48 48 48 49 49 49 50 51 53 53 53 52 52 52 52 53 56 57 68 84 108 126 144 154 156 156 152 147 142 138 137 137 139 142 147 149 151 152 154 156 157 160 162 165 167 167 169 169 169 171 172 173 174 174 174 174 174 174 174 174 176 179 180 179 179 178 178 178 177 177 176 176 178 178 178 178 178 176 174 173 173 174 175 176 177 177 177 180 180 180 178 177 177 177 174 174 174 173 173 176 176 176 176 174 174 172 171 168 167 166 164 164 164 164 163 162 159 155 151 148 143 139 134 129 127 122 116 111 108 104 100 97 95 94 89 89 89 88 82 83 83 83 88 95 97 104 108 104 97 93 87 83 74 70 66 64 57 56 56 55 54 54 54 56 58 60 61 61 62 65 69 71 73 74 75 76 78 85 89 95 100 106 110 112 114 115 113 111 104 96 94 94 99 111 120 131 142 150 152 156 157 161 164 166 167 168 170 172 173 174 177 178 178 178 178 178 180 182 183 182 182 182 182 182 182 181 180 178 176 175 174 174 174 174 173 172 172 171 170 167 165 163 161 160 160 159 157 156 156 156 155 153 150 147 146 145 144 143 141 138 135 132 130 127 125 124 122 120 117 114 113 111 109 108 105 102 99 98 94 90 87 84 83 82 81 79 79 78 78 78 78 79 81 82 82 83 81 81 80 77 74 66 56 41 25 25 25 26 32 34 36 32 23 14 13 13 16 20 24 36 47 69 91 100 103 103 100 95 90 88 88 87 87 87 87 87 87 88 88 88 88 87 87 85 85 85 85 85 85 86 85 85 85 84 84 84 84 85 85 86 86 86 87 88 87 87 87 87 87 87 87 87 88 88 
43 43 42 41 41 41 41 42 42 42 42 42 42 42 42 43 43 44 44 44 44 44 44 45 46 46 47 48 48 49 49 50 51 53 53 53 53 52 52 52 52 53 54 56 61 73 95 115 133 147 155 157 157 152 147 141 137 137 137 141 145 147 149 150 152 154 156 158 161 164 165 166 167 167 167 167 169 171 172 173 174 174 174 173 173 173 174 176 178 179 178 178 178 178 178 177 177 178 179 180 180 180 180 179 177 177 178 180 181 182 182 182 183 183 184 182 181 180 180 180 177 176 176 175 176 176 176 175 174 173 172 171 170 168 167 166 164 164 164 163 162 158 154 149 145 141 137 133 127 122 117 111 108 104 100 97 93 89 86 82 78 78 78 78 78 79 80 80 83 89 92 93 95 92 87 83 78 74 68 64 59 55 55 54 54 53 53 52 51 51 51 52 54 56 58 60 62 64 65 66 69 71 74 78 81 89 94 97 102 105 106 108 108 104 99 96 93 93 95 108 117 129 139 150 152 154 157 160 162 166 167 169 170 172 172 173 175 177 178 178 179 179 181 182 183 182 182 182 182 182 181 181 180 178 176 175 175 174 174 174 173 172 172 170 168 165 164 162 160 160 159 158 157 156 155 155 153 151 149 146 145 143 142 141 138 136 133 129 126 125 124 123 120 117 114 114 111 109 107 105 103 99 98 94 91 89 86 83 83 82 82 79 79 78 78 78 79 80 81 82 83 84 83 82 80 76 71 61 48 34 23 23 23 23 25 29 23 14 10 6 6 8 10 12 18 24 37 58 78 88 92 96 91 89 88 86 86 86 87 87 87 88 88 88 88 88 88 87 86 86 85 85 84 83 84 85 85 85 84 84 84 84 85 85 86 86 86 87 88 88 88 88 88 87 87 87 88 88 88 89 
44 44 42 42 41 41 41 41 42 42 42 41 41 41 41 42 43 43 44 44 44 44 44 45 46 46 46 47 48 49 49 51 53 53 53 53 53 53 53 52 52 53 54 56 58 65 84 102 122 139 152 157 158 156 152 145 139 136 136 136 141 143 145 149 149 152 156 157 160 163 164 164 165 165 165 165 167 169 170 171 172 173 173 173 172 172 172 174 176 177 178 178 178 178 178 179 179 180 180 181 181 181 181 181 181 182 183 184 183 183 183 183 184 186 186 185 183 182 181 181 180 180 178 178 177 176 176 176 174 173 172 171 170 169 167 166 165 164 164 162 157 152 148 144 140 136 130 126 122 116 110 104 99 95 92 88 85 82 78 75 74 74 74 74 74 76 79 79 81 85 88 88 87 82 80 76 70 64 60 57 54 52 51 51 50 49 49 49 48 47 47 47 47 50 53 54 55 60 62 64 66 68 70 73 78 80 85 89 94 97 98 100 100 98 96 91 91 92 93 104 113 125 135 145 151 154 157 160 161 164 167 170 170 172 172 173 174 177 177 178 179 180 180 182 182 182 180 180 181 181 181 180 179 178 176 176 175 174 174 174 173 172 171 168 166 165 163 161 160 159 159 157 156 155 154 153 151 149 146 145 143 142 141 138 136 133 130 126 124 124 123 121 118 115 114 112 109 106 104 101 99 97 94 92 90 86 83 83 82 82 81 79 79 78 78 79 79 81 82 83 84 85 84 83 80 73 66 56 41 26 23 20 20 20 23 20 14 7 6 6 6 6 8 10 15 20 29 45 68 77 83 87 84 84 84 84 84 85 86 87 87 87 88 88 88 88 87 87 86 85 85 84 83 82 82 83 84 84 84 84 84 84 85 85 86 86 86 87 88 89 89 90 90 89 88 89 89 90 90 91 
45 45 43 42 41 41 41 41 41 41 41 40 40 41 41 41 41 42 43 43 43 44 44 45 46 46 46 47 47 48 50 52 53 53 54 53 54 53 53 53 53 54 56 56 57 59 69 86 106 127 146 156 158 156 154 148 141 135 134 134 139 141 143 148 149 151 153 156 158 161 163 164 164 164 164 165 165 167 168 169 170 171 171 171 170 170 171 173 174 176 177 178 178 178 179 179 180 181 181 181 182 182 182 182 184 186 187 187 185 184 184 184 186 187 187 187 186 184 183 182 182 182 181 180 180 179 178 176 175 173 172 172 171 170 168 167 165 164 162 157 151 147 143 137 134 129 125 121 115 108 102 92 84 79 71 66 64 62 58 55 55 55 56 58 63 69 76 77 79 79 80 80 80 78 73 68 64 60 57 53 50 48 46 44 42 42 42 42 40 37 33 33 33 35 39 41 43 47 55 59 64 65 67 69 73 76 79 82 88 89 89 92 94 94 92 87 87 87 93 104 111 120 133 144 151 154 158 160 161 162 166 170 170 172 173 173 174 176 177 177 178 179 180 180 180 177 178 179 179 179 179 179 179 177 176 175 175 174 174 173 172 171 168 166 165 164 163 160 159 159 157 155 154 153 152 151 149 147 145 142 140 139 138 136 133 131 128 124 124 122 121 118 117 114 111 106 104 103 101 99 96 94 92 90 88 84 83 82 82 82 80 79 78 78 78 79 79 81 83 84 85 86 86 85 80 69 62 48 36 22 18 18 17 18 19 14 8 6 6 6 6 6 8 10 15 20 25 43 58 73 78 80 82 83 83 83 83 83 84 86 86 87 87 86 85 85 85 85 85 85 84 83 82 81 81 82 82 83 83 83 84 84 84 85 86 86 86 87 88 89 90 90 90 90 88 89 89 90 93 93 
46 45 44 43 42 42 41 41 41 41 41 40 40 41 41 41 41 42 43 43 44 44 45 46 47 47 47 47 48 50 52 53 53 53 53 54 54 54 54 54 54 55 56 57 58 58 60 70 87 109 128 147 156 154 153 148 142 135 133 133 136 140 142 145 149 149 150 152 157 160 162 163 163 163 163 164 165 166 168 168 169 169 170 170 170 170 170 173 174 175 177 177 178 179 179 180 181 182 182 182 183 183 184 185 187 188 189 189 187 187 186 186 186 187 187 187 187 186 184 184 184 184 183 182 181 180 179 178 176 175 174 173 172 171 170 168 167 163 158 152 145 139 135 133 128 124 119 110 102 92 84 78 65 54 48 39 36 36 33 31 31 31 37 50 56 63 69 73 75 76 76 73 73 71 65 63 58 56 53 48 46 43 38 32 26 24 24 22 21 18 17 17 17 19 21 23 25 32 43 47 55 60 65 66 69 73 75 78 80 81 83 87 89 89 87 79 79 82 93 104 111 121 133 144 152 157 159 160 161 162 166 170 171 172 173 173 174 176 176 177 178 179 179 180 179 176 176 177 178 178 179 178 177 176 176 174 174 172 171 170 169 168 166 165 164 163 162 159 158 157 155 154 153 152 151 149 147 144 142 139 137 135 134 133 131 129 125 124 123 121 120 117 115 111 105 103 103 102 99 96 94 91 89 87 86 83 82 80 80 79 77 77 75 75 77 79 79 82 84 85 87 87 87 86 78 64 56 40 29 18 16 16 16 17 17 12 6 6 6 6 6 7 10 12 18 24 34 43 58 70 74 77 79 80 82 82 83 83 83 83 83 85 85 83 82 83 84 84 84 84 83 82 81 81 81 81 81 82 82 82 83 83 84 84 85 85 86 86 88 89 89 90 90 89 88 89 89 90 90 90 
46 45 45 45 43 42 42 41 41 41 41 40 40 41 41 41 42 43 43 44 44 46 47 48 48 48 49 48 50 52 52 53 53 53 53 54 54 55 55 55 56 56 57 58 58 58 59 60 72 88 111 128 146 150 148 145 139 134 133 133 133 139 141 143 147 149 149 150 155 158 160 162 162 162 162 163 164 165 166 167 168 168 169 169 169 169 170 173 175 176 177 178 178 179 180 181 181 182 183 183 184 184 185 186 188 190 190 190 190 189 188 187 188 188 187 187 187 187 186 186 186 185 184 184 181 181 180 179 178 178 176 176 175 173 173 171 168 163 156 147 139 134 128 124 121 118 110 101 92 79 67 54 46 37 34 30 24 23 22 23 23 28 32 40 54 62 69 73 74 74 73 71 66 63 60 57 55 51 48 43 39 37 32 25 22 16 16 14 13 12 11 11 11 12 12 14 17 23 30 38 46 52 57 63 65 68 71 73 74 77 78 82 83 82 82 78 78 82 93 105 112 123 138 144 153 157 159 160 161 162 166 170 173 173 173 173 173 175 176 177 178 179 179 179 177 176 176 176 176 177 178 177 176 175 174 172 171 170 169 168 166 165 165 164 163 162 160 158 157 155 154 153 152 150 148 148 147 142 139 136 134 133 132 130 129 126 124 121 121 121 118 115 111 105 103 102 100 98 96 94 90 88 87 86 83 80 79 78 77 76 75 74 74 74 75 79 80 83 85 86 87 87 87 86 77 62 48 36 24 17 16 16 16 17 17 15 9 6 6 6 7 10 16 21 24 32 37 43 58 70 73 74 77 78 80 81 82 81 81 81 81 81 81 80 80 81 81 82 83 82 81 81 81 81 81 81 81 81 81 81 81 82 82 83 84 84 84 85 86 87 88 89 88 88 88 87 86 86 85 85 
45 46 46 46 45 44 44 43 43 43 43 43 43 43 43 43 43 44 44 44 46 47 48 49 49 51 51 52 52 52 53 53 53 53 54 55 56 57 57 57 57 58 58 59 59 59 59 59 61 72 88 111 128 139 142 139 135 129 131 131 131 136 140 142 146 148 149 149 152 153 156 160 160 160 160 162 162 164 165 166 167 167 168 169 169 170 172 174 175 177 178 178 179 179 180 181 182 183 183 184 185 185 186 187 189 190 190 190 190 189 188 188 188 188 188 187 187 187 186 186 186 186 185 184 183 182 181 180 180 180 180 180 180 179 174 173 172 168 160 144 137 128 124 118 113 110 101 92 83 67 54 46 39 34 30 28 24 23 22 23 23 28 31 37 52 63 72 75 75 74 73 69 63 61 58 56 53 48 46 42 38 35 29 24 21 16 16 14 12 12 11 10 10 10 11 13 15 19 24 32 39 46 52 56 59 63 65 65 66 72 76 77 77 77 75 76 78 82 93 108 119 129 138 144 154 157 159 160 161 162 166 170 172 173 173 173 173 173 176 176 178 178 178 178 177 175 175 175 176 176 176 176 175 174 173 172 170 169 168 166 165 164 164 164 162 161 159 157 155 154 153 152 150 148 148 147 144 141 137 135 133 132 131 129 126 124 121 120 118 118 115 111 107 105 102 100 99 96 94 90 87 86 86 83 82 79 77 76 76 75 74 73 73 74 75 79 82 84 85 87 88 87 87 86 76 57 40 31 24 18 16 16 16 17 18 18 15 9 8 8 15 21 32 33 34 37 41 47 60 70 73 73 74 76 77 78 79 79 79 80 80 79 79 79 79 79 79 79 80 80 80 80 81 81 81 81 81 81 81 81 81 81 81 81 81 81 82 82 83 83 83 83 84 84 85 85 85 85 84 83 
46 47 46 46 46 46 45 45 44 44 44 45 44 45 44 44 44 45 45 47 48 48 50 51 51 52 52 52 53 53 53 53 54 55 56 57 59 60 60 60 60 60 59 59 59 59 59 59 60 61 72 87 111 121 131 133 129 129 129 131 131 136 139 140 143 147 148 148 150 150 152 155 156 156 159 160 162 163 164 164 165 166 167 168 169 171 173 175 177 178 179 179 179 179 181 181 182 183 184 184 185 185 186 187 189 190 190 190 190 189 188 188 188 188 188 187 187 187 186 186 186 185 185 185 184 183 181 181 181 181 182 182 181 180 179 178 174 173 162 149 138 127 119 116 109 101 92 87 72 57 51 46 39 34 30 28 24 23 22 23 23 28 36 50 62 72 83 83 82 78 73 68 63 61 58 56 53 48 43 41 38 35 30 25 21 16 16 14 12 12 11 10 10 10 10 12 14 18 24 32 39 46 51 55 56 58 59 62 65 65 66 70 71 71 70 71 77 89 98 110 121 129 138 144 154 157 159 160 161 163 167 169 171 172 172 172 173 173 174 176 177 178 178 178 177 175 175 175 175 175 175 174 173 173 173 171 170 168 166 165 165 164 164 162 161 160 158 155 154 153 152 150 148 148 147 145 143 140 137 133 132 131 130 127 124 121 120 118 116 115 114 107 105 103 102 100 98 94 91 87 86 85 84 83 80 77 76 75 74 74 74 74 74 74 76 80 83 85 87 87 88 88 87 85 71 52 36 30 27 21 16 16 17 18 18 20 20 18 18 22 28 33 37 41 41 42 47 54 63 71 73 73 73 73 74 74 75 76 77 77 77 77 76 76 76 76 77 77 77 77 77 77 78 78 79 79 80 80 80 80 80 80 81 81 81 81 81 81 82 82 82 83 83 83 83 84 84 83 83 83 
48 48 47 47 46 46 46 46 46 47 47 47 47 47 47 46 46 47 47 48 50 50 51 52 53 53 54 54 54 55 55 55 56 57 59 60 61 61 61 61 61 61 60 60 60 60 60 59 60 60 61 72 85 97 111 121 129 129 129 131 132 136 138 139 142 144 147 148 149 149 150 154 154 154 156 160 161 162 163 164 164 166 166 167 169 172 174 176 178 179 179 179 179 180 181 181 183 183 184 185 185 186 187 188 189 189 190 190 189 189 188 188 188 188 187 187 187 186 186 185 185 185 185 184 184 184 183 182 182 182 182 182 182 181 180 179 178 175 173 160 140 124 118 112 105 99 87 80 66 61 51 47 42 37 34 32 30 28 28 30 32 45 52 71 83 91 91 91 88 86 80 73 64 62 59 57 52 48 43 42 39 37 32 30 25 22 21 19 16 14 12 11 11 11 12 14 18 21 27 34 40 48 52 55 56 56 57 59 60 62 64 65 66 66 67 71 80 93 107 118 127 133 139 145 156 157 159 160 161 164 167 169 171 171 172 172 173 173 174 176 177 178 178 177 176 175 175 175 174 174 173 173 173 173 173 171 170 168 166 165 165 164 163 162 161 159 157 155 153 153 152 149 148 147 146 144 141 138 136 133 131 129 127 125 122 120 118 116 115 115 107 105 104 102 101 99 96 92 88 86 85 84 83 80 78 76 74 74 74 74 74 74 74 75 78 82 85 87 88 88 88 88 86 84 66 45 33 29 27 24 19 17 18 20 20 21 22 23 24 28 33 40 43 46 47 47 50 60 66 71 71 72 72 71 71 72 72 73 73 73 73 73 73 73 73 74 74 74 74 74 74 74 74 75 75 75 77 77 77 78 78 79 79 80 80 80 80 80 81 81 81 82 82 82 83 83 83 83 82 82 
48 48 48 47 47 47 47 47 48 49 49 49 49 49 49 49 49 49 50 51 52 53 53 53 56 56 56 57 57 58 58 58 60 60 61 61 63 63 64 64 64 63 62 61 61 61 60 60 60 60 60 60 68 76 90 110 121 128 129 131 133 136 137 138 139 142 145 146 148 148 149 150 149 146 154 157 159 161 162 163 164 166 166 166 168 170 173 176 178 179 179 179 179 181 182 182 183 184 185 185 186 186 187 188 189 189 189 189 189 188 188 187 187 187 186 186 185 185 185 185 185 185 185 185 185 185 184 183 183 183 183 183 183 182 181 180 179 178 175 173 160 140 119 112 104 95 87 79 66 64 61 51 51 47 42 42 42 45 47 47 52 66 71 85 93 94 94 94 93 91 88 80 73 67 63 59 57 53 48 43 42 40 39 35 32 31 30 28 24 21 18 14 14 14 17 18 23 27 33 39 45 49 51 54 55 56 56 56 58 59 60 61 64 64 68 76 89 102 111 121 129 137 142 149 156 157 159 161 163 166 168 169 171 172 172 172 173 173 174 175 176 177 177 176 175 175 175 174 174 173 173 173 173 173 173 172 171 168 167 166 165 164 163 162 160 159 155 154 153 152 150 148 147 147 145 142 140 137 135 133 131 129 126 123 121 119 117 115 115 111 106 104 103 102 100 98 95 91 87 86 84 83 81 79 77 74 73 73 73 74 74 74 75 77 80 84 87 88 88 88 88 88 85 83 63 40 31 29 27 26 22 18 19 20 20 22 24 25 27 33 39 45 47 48 49 53 56 63 68 69 71 71 71 70 71 71 71 72 72 72 72 72 72 72 72 73 73 73 72 72 72 72 72 73 73 73 74 74 74 75 76 77 77 77 78 78 78 78 79 79 79 80 80 80 81 81 81 81 80 80 
51 50 49 48 48 48 49 49 51 51 51 51 51 51 51 51 51 52 53 55 56 57 57 57 60 60 60 61 61 61 62 62 64 64 64 65 65 66 66 66 66 66 64 63 62 62 61 60 60 60 60 60 60 62 76 90 110 123 129 131 133 135 137 137 138 140 142 144 145 146 148 149 146 144 153 155 156 159 161 162 164 165 166 166 167 169 172 175 177 178 179 179 179 181 182 182 183 184 185 185 186 187 187 188 188 188 188 188 188 187 187 186 186 186 186 185 185 185 185 185 185 185 185 185 185 185 185 184 184 184 183 183 183 183 183 181 179 178 176 174 171 159 139 119 106 95 87 79 69 66 64 65 66 60 59 59 59 59 61 66 69 74 85 93 102 103 103 103 99 98 94 88 80 74 68 63 59 57 53 52 46 43 43 43 42 42 42 39 36 31 27 24 19 19 23 25 27 30 34 39 43 49 49 51 54 55 55 55 56 56 56 60 61 62 70 89 102 111 120 128 135 139 144 152 156 158 160 161 165 167 169 171 171 172 172 172 173 173 174 175 176 176 176 175 175 175 174 174 173 173 173 173 173 173 173 172 171 169 167 166 165 164 162 161 160 158 155 153 153 152 150 148 147 145 142 141 138 137 134 132 130 127 125 123 121 118 115 113 110 107 104 102 102 100 100 96 93 89 86 84 83 81 80 77 75 73 73 73 73 74 74 75 77 79 82 86 88 89 88 88 88 88 85 82 62 40 31 29 27 27 26 22 20 21 23 25 25 27 29 37 43 47 48 52 53 56 61 65 66 68 69 70 70 70 70 70 71 71 71 72 72 72 72 72 72 72 72 71 71 71 71 71 72 72 72 72 72 72 72 72 73 73 74 74 75 75 75 75 76 76 77 77 77 77 78 78 78 78 77 77 
55 54 52 51 51 51 52 53 55 55 55 55 55 55 55 55 55 56 57 59 60 61 61 61 64 64 64 65 65 65 66 66 67 67 68 67 67 68 68 67 67 67 67 66 64 63 62 61 61 60 60 59 59 60 63 76 101 115 128 132 134 135 136 137 138 138 141 143 144 145 146 147 146 147 151 154 156 157 160 162 164 165 166 166 166 168 170 174 175 177 179 179 179 181 182 182 183 184 185 185 186 187 187 187 187 188 187 187 187 187 186 186 185 185 185 185 185 185 185 185 185 185 185 185 185 185 185 184 184 184 183 183 184 184 184 182 181 179 178 174 174 169 159 139 119 106 91 80 74 69 66 66 66 65 62 60 60 61 66 69 75 85 93 105 110 119 123 121 116 114 110 104 94 88 78 68 64 63 58 54 54 54 54 55 57 57 57 54 50 44 40 34 29 27 29 29 29 31 34 39 40 45 49 48 47 47 47 47 48 49 53 59 61 67 89 105 111 120 128 135 139 144 149 154 157 159 161 164 167 168 169 171 172 173 173 173 173 173 174 175 175 175 175 174 174 175 174 174 173 173 172 172 172 173 172 172 171 170 167 166 165 164 162 161 159 157 155 153 152 150 149 147 145 142 140 139 138 136 134 131 128 127 124 121 120 117 115 110 107 106 102 101 100 100 98 95 92 87 85 83 81 80 78 76 73 73 73 73 74 75 76 77 80 80 84 87 89 89 89 89 89 88 86 82 62 40 35 29 29 29 29 27 26 25 25 27 28 31 36 42 46 48 53 55 60 61 63 65 65 66 68 69 69 69 70 70 70 71 71 71 71 71 71 71 71 71 70 70 70 70 70 71 71 71 71 71 70 70 70 70 70 70 70 70 71 71 72 72 73 73 73 73 74 74 75 75 75 75 74 74 
60 59 57 55 55 55 57 58 59 59 59 59 59 59 59 59 59 59 61 62 63 65 65 65 67 67 68 68 69 69 69 69 70 70 70 70 69 69 68 68 68 68 68 67 67 65 63 62 61 60 60 59 58 58 59 65 81 105 127 133 134 135 136 137 137 137 139 142 144 144 145 146 147 149 150 153 155 157 160 160 163 165 166 166 166 167 168 170 174 175 177 178 179 181 182 182 182 183 184 184 185 186 187 187 187 187 187 187 187 186 186 185 185 185 185 185 185 185 185 185 184 185 185 185 185 185 185 184 184 184 184 184 184 184 184 184 182 179 178 176 174 171 169 159 139 120 108 91 78 72 69 69 69 66 66 65 65 66 69 74 83 93 105 113 119 124 125 124 122 120 116 115 112 104 96 89 83 78 75 75 74 74 74 71 71 71 70 64 59 55 50 44 40 34 31 31 31 31 33 35 39 39 39 39 39 41 43 44 47 48 53 60 68 89 107 115 125 129 137 142 145 149 152 156 158 161 164 165 168 169 171 172 173 173 173 173 173 174 175 175 175 175 174 173 174 174 174 174 173 173 172 172 172 172 172 171 170 168 167 166 164 163 161 159 158 155 154 153 151 150 149 147 144 142 140 139 137 135 133 130 127 125 123 121 118 115 112 109 107 105 102 101 100 99 97 93 90 86 83 82 80 79 78 76 73 73 73 73 74 76 77 79 80 82 86 89 89 89 89 89 89 88 86 82 64 52 38 35 31 31 31 30 30 30 30 31 33 39 45 50 53 57 60 61 63 63 63 64 65 65 65 66 67 67 67 67 67 67 67 67 67 67 68 68 68 68 68 68 68 68 69 69 70 70 70 70 70 70 69 69 68 67 67 67 68 68 69 69 70 70 70 70 71 71 72 72 72 72 71 71 
64 62 60 59 59 59 61 62 63 63 63 63 63 63 63 63 63 63 64 65 66 67 67 68 69 70 70 70 70 70 70 71 71 71 71 71 70 70 70 69 69 69 69 69 69 67 65 63 61 61 60 59 57 57 57 61 77 103 127 133 134 135 136 136 137 137 138 141 143 144 145 145 147 149 151 152 154 156 159 160 161 164 165 165 166 166 167 169 170 174 175 177 178 181 181 181 181 182 182 183 183 184 185 186 187 187 187 187 187 186 185 184 184 184 184 184 185 185 185 185 185 185 185 185 185 185 185 185 184 184 184 184 184 184 184 184 182 180 178 176 174 174 171 168 153 139 128 114 95 78 74 71 70 69 67 66 67 69 74 82 89 98 110 119 124 126 126 125 122 121 121 121 120 116 113 108 100 98 95 95 94 91 87 81 79 76 75 73 70 64 59 55 48 40 35 33 33 33 34 36 39 39 39 39 39 41 43 44 47 48 60 72 91 110 121 128 132 142 144 147 150 153 156 157 158 161 165 166 168 169 171 172 173 173 173 173 173 174 174 175 175 174 173 173 173 173 173 173 173 172 172 172 172 172 171 171 168 166 165 164 163 161 160 159 157 155 154 152 151 149 147 145 143 142 140 138 137 135 131 128 127 125 123 119 113 112 111 107 106 104 102 100 99 98 95 92 89 84 82 81 80 79 77 75 73 73 73 74 76 78 79 80 81 83 87 90 90 90 90 89 89 89 87 83 68 56 52 38 38 38 38 38 39 39 39 40 46 50 55 57 58 60 61 63 63 63 63 63 63 64 64 64 64 64 64 64 64 64 64 64 64 64 64 65 65 66 66 67 67 67 67 68 68 69 69 69 69 68 67 67 66 65 65 65 66 67 67 67 68 68 68 69 69 69 70 70 70 70 69 69 
61 63 65 66 67 67 67 67 67 66 66 66 66 66 67 67 68 68 68 68 69 69 70 72 72 72 71 71 71 71 71 71 72 72 72 73 73 72 72 72 70 70 70 70 70 68 66 64 62 61 60 59 58 57 57 58 76 98 124 134 134 135 136 136 137 137 139 140 142 144 145 147 147 149 150 151 154 156 158 159 160 162 163 164 165 165 166 168 170 173 175 176 178 180 181 181 181 182 182 182 183 183 184 185 186 186 187 186 185 184 183 183 184 184 184 184 184 184 185 185 185 185 185 186 186 186 186 185 184 184 183 183 184 184 184 183 181 180 179 178 176 174 172 169 164 151 143 131 116 99 88 77 72 69 69 67 69 75 83 89 98 109 117 121 126 126 126 124 122 121 121 121 121 117 115 110 107 105 105 104 100 97 95 89 86 80 78 76 75 73 69 63 57 50 43 40 35 34 35 38 39 39 39 39 39 41 44 48 60 72 89 101 113 125 132 137 144 152 153 153 154 156 157 158 160 162 165 165 167 168 170 172 173 173 173 173 173 173 174 174 174 172 172 172 172 172 173 173 173 172 172 172 171 171 169 167 165 164 163 163 162 160 159 157 155 154 153 151 150 148 145 144 142 142 140 138 136 134 131 127 125 124 119 116 112 110 109 107 105 102 100 99 98 96 93 90 87 83 82 80 79 78 77 75 74 74 74 75 77 79 80 81 83 86 90 90 90 90 90 89 89 89 88 83 72 62 56 52 52 51 51 51 52 52 53 54 56 57 57 57 59 61 61 63 63 63 62 63 63 63 63 63 63 63 63 63 63 63 63 63 63 63 63 64 64 64 64 64 64 64 64 65 66 66 66 66 65 65 64 64 64 64 64 64 64 64 64 64 64 64 65 66 68 68 68 69 69 69 71 71 
65 66 68 69 70 70 70 70 69 69 68 68 68 68 69 69 69 69 69 70 71 72 73 73 73 73 73 72 72 72 72 72 73 73 74 74 74 74 74 73 72 70 70 70 70 70 68 66 64 62 61 59 58 57 57 58 68 90 119 134 135 136 136 136 137 138 139 140 142 144 146 147 147 149 150 151 152 155 157 158 160 161 162 162 164 165 165 167 170 173 175 176 178 179 181 181 181 182 182 182 183 183 183 184 185 185 186 185 183 183 183 183 183 183 183 184 184 184 184 185 185 186 186 187 187 186 186 186 184 183 183 183 183 184 184 183 181 180 179 178 177 175 174 171 164 159 151 145 131 126 114 99 88 86 85 85 85 85 93 98 107 115 120 125 126 126 125 123 121 120 121 121 121 116 114 110 107 105 105 105 105 104 98 95 91 87 84 80 78 76 75 72 66 61 55 50 43 43 43 43 47 49 54 57 62 66 71 75 89 101 111 121 129 135 141 148 152 153 155 155 156 157 158 160 161 164 164 165 166 168 169 171 172 172 173 172 173 173 173 173 172 172 172 171 171 171 172 172 172 170 169 169 169 166 165 164 163 163 162 162 161 159 157 156 154 153 153 150 149 146 145 143 142 141 140 138 135 131 128 126 125 117 116 113 110 109 107 105 104 101 99 98 96 94 92 89 87 83 82 80 79 77 76 76 75 74 75 76 78 80 81 83 84 87 90 90 90 90 90 90 90 89 89 83 72 63 56 56 55 55 56 57 58 58 58 57 57 57 57 57 59 60 61 62 63 62 62 62 62 62 62 62 61 61 61 61 61 62 62 62 62 62 62 62 63 63 63 63 63 63 63 64 64 65 65 64 64 64 63 63 63 63 63 63 64 64 64 64 64 64 64 64 64 66 66 67 67 67 67 67 
70 71 72 73 74 74 74 74 73 72 71 71 71 71 72 72 72 72 72 72 73 74 75 75 75 75 75 74 74 74 73 73 73 74 74 74 74 74 74 74 72 72 70 70 70 70 68 66 66 62 60 59 58 57 58 58 64 84 116 134 135 136 136 136 137 137 139 140 142 145 147 147 147 148 149 150 151 154 156 157 159 160 161 162 163 163 163 165 169 173 175 175 176 177 179 181 181 182 182 182 182 183 183 183 183 184 183 183 183 183 183 183 183 183 183 183 184 184 184 185 185 186 187 187 187 187 186 186 185 184 183 183 184 184 184 183 181 180 179 178 177 176 174 174 166 160 156 151 146 139 131 126 114 110 107 105 101 101 103 107 113 119 124 132 134 134 126 124 121 119 119 119 116 115 111 108 107 105 105 105 105 105 105 104 97 93 90 86 85 83 82 82 76 72 66 61 55 55 55 57 66 70 78 84 90 95 100 104 113 116 123 129 135 141 148 152 154 156 157 157 158 158 160 160 161 164 164 164 165 166 169 170 171 171 172 172 173 173 173 173 172 171 171 170 169 169 168 168 168 168 165 165 165 163 163 162 161 162 161 160 159 158 156 155 154 153 151 149 147 145 144 142 142 141 138 136 131 127 126 125 120 113 113 111 108 107 105 104 102 100 97 96 94 93 91 88 86 83 81 80 77 77 76 76 76 76 76 77 79 81 82 84 86 89 90 90 90 90 90 90 90 90 88 81 72 63 56 56 56 56 57 57 58 58 58 57 57 57 57 57 58 59 61 61 61 61 62 62 62 62 61 61 61 60 59 59 60 60 60 60 60 60 61 61 61 61 61 62 62 62 62 62 62 63 63 63 63 63 62 62 62 62 62 62 63 63 63 63 63 63 63 63 63 63 64 63 63 63 63 63 
74 74 75 75 76 76 76 76 76 76 75 75 75 75 75 75 75 75 75 75 76 76 77 77 77 77 77 77 76 76 75 74 74 74 74 74 74 74 74 74 73 72 70 70 70 70 68 66 66 64 62 60 58 58 58 60 64 84 115 134 136 136 137 136 137 137 139 140 142 145 146 147 147 147 148 149 151 153 155 157 158 160 161 162 163 163 164 168 170 173 175 175 175 176 179 180 181 182 182 182 182 183 183 183 183 183 182 182 183 183 183 183 183 183 183 183 184 184 185 186 187 187 187 187 187 186 186 186 186 185 184 184 184 184 184 183 181 180 179 178 176 175 174 172 166 160 158 154 151 146 143 137 131 126 115 112 110 110 111 113 120 124 132 137 140 138 134 126 121 119 118 116 114 110 103 101 101 102 104 105 105 105 106 106 106 105 98 93 90 88 88 87 86 83 79 73 72 72 72 75 82 88 93 98 105 110 113 115 117 123 129 135 141 144 149 153 156 157 157 158 159 160 160 161 164 164 164 164 165 166 168 170 170 170 172 172 172 173 173 172 171 170 169 169 168 168 168 168 168 165 165 164 163 163 161 159 159 159 159 159 158 157 155 153 153 151 150 148 145 144 143 141 140 138 136 131 127 126 125 125 117 113 112 110 107 105 104 103 101 99 96 94 93 92 90 88 87 84 80 79 77 77 77 76 76 77 77 79 81 82 84 85 88 90 90 90 90 90 90 90 89 89 86 80 70 62 57 56 56 56 57 57 58 58 58 58 57 57 57 57 57 58 58 60 61 61 61 61 61 61 61 60 59 59 59 59 60 60 60 60 60 60 59 59 59 59 60 60 60 60 60 60 61 61 61 61 61 61 61 61 61 61 61 61 62 62 62 62 62 62 62 62 62 62 62 62 61 61 60 60 
76 76 76 76 77 77 78 78 78 78 78 78 78 78 78 78 78 78 78 79 79 79 79 79 79 79 79 78 78 77 76 75 75 74 74 74 74 74 74 74 73 72 70 70 70 70 68 67 66 66 64 62 60 60 60 62 63 84 113 134 137 137 138 137 136 136 138 140 142 145 146 147 147 148 148 149 151 152 155 156 158 159 161 162 163 165 166 169 171 172 174 175 175 175 177 179 180 181 181 182 182 182 182 182 182 182 182 182 183 184 184 184 184 183 183 183 184 185 185 187 187 187 187 187 186 186 186 186 186 185 185 185 185 185 186 184 182 180 178 177 176 175 174 170 166 162 160 158 156 154 151 146 140 133 126 121 120 115 117 121 124 132 137 140 144 143 143 134 124 121 118 115 110 103 103 101 101 102 104 105 105 107 109 111 112 109 107 103 97 91 91 89 89 88 86 85 85 85 86 88 94 99 105 110 113 115 116 120 124 129 135 138 142 148 152 155 157 157 158 159 160 161 161 162 164 164 164 164 165 165 167 169 169 170 170 170 171 171 172 171 170 169 169 168 168 168 167 166 165 165 164 163 162 162 159 157 158 158 158 158 158 155 153 151 150 149 148 145 144 141 141 139 137 135 132 128 126 125 125 119 116 113 111 109 106 104 103 102 100 97 94 93 92 92 90 88 87 84 80 79 77 77 77 77 77 78 79 81 83 84 85 88 90 90 91 90 90 90 90 89 89 88 84 77 68 61 57 57 56 56 57 57 58 58 58 58 57 57 57 57 57 57 58 59 60 60 61 61 61 61 60 59 59 59 59 59 60 60 60 60 60 59 59 59 58 58 59 60 60 60 60 59 59 59 59 60 60 60 60 60 60 60 60 60 61 61 61 61 61 61 61 61 61 61 61 60 60 60 59 59 
79 79 78 78 78 78 79 80 81 81 81 81 81 81 81 81 81 81 81 82 82 82 80 80 80 79 79 79 78 78 78 77 75 74 74 74 74 74 74 74 74 72 70 70 70 70 68 67 66 66 65 63 62 61 62 63 63 81 106 129 137 139 139 139 137 135 136 138 140 144 146 146 147 148 149 150 151 152 154 156 157 159 161 163 165 165 166 169 171 172 174 175 175 175 176 177 178 179 180 180 181 181 182 182 181 181 182 182 183 184 184 185 184 184 183 183 184 185 186 187 187 187 187 186 186 186 186 186 186 185 185 185 185 187 188 187 184 179 178 177 176 175 174 171 168 163 162 161 160 157 154 152 146 143 138 133 126 124 124 126 132 135 140 144 144 144 144 136 130 124 119 115 111 103 103 101 101 102 104 105 109 111 114 115 113 112 110 109 105 98 95 95 95 94 93 90 90 90 92 98 101 106 112 115 119 120 122 124 126 129 135 140 144 149 153 156 157 158 159 160 161 161 162 164 164 165 165 165 165 165 166 167 168 169 170 170 170 170 170 169 169 169 168 167 167 167 166 165 165 164 163 163 162 161 158 157 157 157 158 157 157 154 151 149 147 146 145 143 141 139 138 136 134 132 130 127 125 125 122 118 116 113 110 107 105 103 102 101 100 96 94 93 92 91 90 88 87 84 80 79 79 78 79 79 79 80 81 83 84 86 88 90 90 90 91 91 90 90 90 89 89 88 83 75 66 60 57 57 56 56 56 57 57 57 58 58 57 57 57 57 57 57 58 59 60 61 61 62 62 61 60 59 59 59 59 59 60 60 60 60 60 59 59 58 57 57 58 59 60 60 60 59 59 59 59 59 59 59 59 59 59 59 59 59 60 60 60 60 60 60 60 60 60 60 60 60 59 59 59 59 
82 81 80 80 80 80 81 81 81 81 81 81 81 82 82 82 82 82 82 82 82 82 80 80 80 79 79 79 78 78 78 77 76 74 74 74 74 74 74 74 74 72 70 70 70 70 68 67 66 66 64 64 63 62 62 63 64 77 100 122 139 139 141 139 137 135 135 137 138 142 144 145 148 149 149 150 151 152 154 156 157 159 161 163 164 165 166 169 171 172 174 174 175 175 175 176 177 178 179 179 179 180 181 181 181 181 181 181 183 184 185 185 184 184 183 183 183 184 186 187 187 187 186 186 186 186 186 186 186 185 185 185 185 187 188 188 185 180 178 177 176 175 174 171 168 166 164 163 161 161 158 154 152 148 145 140 138 135 134 134 135 138 141 144 146 145 144 143 135 128 121 116 111 110 105 105 109 109 110 110 117 119 119 118 116 113 112 110 109 106 100 97 96 96 96 95 94 99 100 105 111 115 120 122 124 124 125 126 128 131 135 141 145 149 153 157 158 160 161 161 162 162 164 164 165 165 167 166 166 166 166 166 168 168 168 169 169 169 169 169 169 168 168 167 166 165 165 164 164 163 163 162 162 160 157 156 156 156 156 156 154 151 149 146 145 145 144 141 140 138 136 134 132 130 128 125 125 123 120 118 116 114 109 106 104 103 102 100 98 95 93 93 92 91 88 87 86 84 83 80 80 80 81 82 82 82 84 85 87 89 91 93 93 92 91 91 90 90 89 89 88 86 82 74 65 60 59 57 57 57 57 57 57 57 58 58 58 57 57 57 57 58 58 59 60 61 61 61 61 61 60 59 59 59 59 59 60 60 60 60 60 59 58 58 57 57 58 59 60 59 59 59 59 58 58 58 58 59 59 59 59 59 59 59 59 59 59 59 59 59 58 58 58 58 58 58 58 59 59 59 
84 83 82 81 81 81 81 81 82 82 81 81 81 82 82 82 82 82 82 82 82 82 80 80 80 79 79 78 78 78 78 77 76 74 74 74 74 74 74 74 73 72 71 70 70 69 68 67 66 65 64 63 63 63 63 63 63 77 97 120 137 141 143 143 139 136 135 136 137 138 142 145 148 149 150 150 151 153 155 156 156 158 161 163 164 165 166 171 171 171 172 172 172 173 175 175 175 177 178 178 179 179 179 180 180 180 181 181 182 184 185 186 185 185 184 183 183 183 185 186 187 186 186 185 186 186 186 186 186 185 184 184 185 185 187 186 184 182 178 177 176 175 173 171 168 166 164 163 162 162 161 158 154 152 148 145 144 143 139 139 140 141 142 144 145 145 144 144 139 133 128 121 116 114 113 113 115 119 119 119 124 127 126 124 122 115 113 112 111 111 110 106 106 104 104 102 102 106 110 112 115 121 123 124 125 126 126 126 129 133 138 142 147 152 155 158 160 161 161 162 163 164 165 165 167 168 168 168 167 167 166 166 166 166 166 167 168 167 168 168 168 168 167 166 165 164 163 164 163 163 163 162 162 160 158 157 156 156 155 154 152 149 146 145 144 143 143 141 138 136 134 132 131 130 127 124 122 119 118 116 116 113 107 104 103 102 101 100 97 95 93 92 91 90 88 87 86 84 84 83 82 82 83 83 85 85 87 90 91 93 93 94 94 94 93 91 91 90 89 89 88 86 82 73 64 60 59 59 58 58 58 58 59 60 59 59 58 58 58 58 58 58 59 59 60 61 61 61 61 60 60 59 59 59 59 59 60 60 60 60 60 59 59 58 58 57 58 60 60 60 60 59 59 58 58 58 58 58 58 58 58 58 58 58 58 58 58 58 58 58 58 58 58 57 57 57 57 58 58 58 
83 83 83 82 82 81 81 81 81 81 81 81 81 81 81 81 82 81 81 81 81 80 79 77 75 75 75 76 76 77 76 76 75 74 74 74 74 74 74 73 73 72 71 70 70 68 67 67 66 64 63 63 63 62 62 63 63 73 90 115 137 143 145 145 142 138 136 136 137 137 140 145 148 149 149 150 151 152 155 156 156 158 160 162 164 165 166 169 171 171 171 171 172 172 172 172 173 176 177 177 178 178 178 179 179 180 180 180 181 183 185 186 186 185 184 183 183 183 184 185 186 185 185 185 186 186 186 186 185 184 183 184 184 184 185 185 183 181 178 177 176 175 172 171 168 166 164 164 163 163 163 160 157 154 149 146 146 145 144 144 142 144 144 144 145 145 144 143 141 135 129 121 120 116 116 117 121 125 127 129 132 133 133 128 128 123 117 117 120 120 118 116 113 111 109 109 110 111 113 116 120 123 125 126 127 127 127 128 131 135 140 145 149 152 155 157 160 161 162 163 164 165 165 166 167 168 168 168 168 167 165 165 165 165 165 166 166 166 166 167 167 166 166 164 163 162 162 162 162 162 162 162 161 160 158 157 156 155 154 153 151 148 145 144 144 143 141 139 136 134 132 131 130 128 124 122 118 117 116 116 114 112 107 104 104 102 102 100 97 95 93 91 91 88 87 86 86 85 85 84 85 86 87 88 90 91 91 93 93 93 94 95 95 95 94 93 91 90 89 89 87 85 82 73 63 61 60 59 60 60 60 59 60 60 60 60 59 58 58 58 59 59 60 60 61 61 61 61 61 60 60 59 59 59 59 59 60 60 60 60 60 60 59 58 58 58 59 60 60 60 60 59 58 58 58 57 58 58 58 58 58 58 58 58 58 58 58 58 58 58 58 58 57 57 57 57 57 57 57 57 
85 84 83 82 82 81 81 81 81 80 80 80 80 81 81 81 81 81 81 80 80 78 76 75 75 74 74 74 75 75 75 74 74 74 74 74 74 74 74 73 73 72 71 70 69 68 67 67 65 63 63 63 63 62 62 63 63 69 88 112 137 145 145 145 145 142 137 136 136 136 138 142 145 147 148 149 150 152 155 156 156 156 158 160 162 165 165 167 170 171 171 171 171 171 171 171 172 173 174 175 176 178 178 178 178 179 179 179 180 181 183 185 185 185 184 183 182 182 182 184 185 185 185 185 186 186 186 186 184 182 182 182 183 183 183 184 182 180 178 177 175 173 172 171 168 165 164 163 163 163 163 163 159 156 152 148 147 147 146 146 147 146 146 146 145 145 143 142 139 134 130 126 121 121 121 121 126 129 131 134 135 138 138 138 133 131 127 127 125 125 125 123 120 116 114 112 113 115 117 120 122 125 127 128 128 128 129 133 135 139 143 147 149 152 153 156 160 161 163 164 165 165 165 165 166 168 168 168 168 167 165 164 164 164 164 164 165 165 165 165 166 165 164 163 162 162 162 161 162 162 162 161 160 159 158 157 155 154 153 152 150 147 145 144 143 141 140 138 136 133 131 130 129 126 122 119 117 116 115 114 112 109 107 105 104 103 102 101 97 94 93 91 89 86 86 85 86 87 88 88 89 89 90 91 91 92 93 93 93 94 94 95 95 96 95 94 92 91 89 89 86 85 82 72 63 61 60 60 61 61 60 60 60 60 60 60 59 59 58 59 59 60 60 61 61 61 61 61 61 60 60 59 59 59 59 59 60 60 60 60 60 60 59 59 59 59 60 61 61 60 60 59 58 58 57 57 57 58 58 58 58 58 58 58 58 58 58 58 58 58 58 58 57 57 57 57 57 57 57 57 
83 83 82 82 81 81 81 80 79 79 79 79 79 79 79 79 80 80 80 79 78 76 75 74 74 74 73 73 73 73 73 73 74 74 74 74 74 74 73 73 72 71 71 69 68 68 67 66 63 62 62 62 62 62 62 62 62 65 82 109 133 145 146 146 145 142 138 137 137 136 137 140 143 145 147 148 149 152 155 155 156 156 157 158 160 163 165 166 168 169 170 170 171 171 171 171 172 173 173 174 175 176 176 177 178 178 178 179 179 180 181 183 184 184 183 182 182 182 182 182 183 185 185 186 186 186 186 184 182 180 179 181 181 182 182 181 180 178 175 175 173 172 171 168 167 164 164 164 164 164 164 164 161 158 154 150 148 148 147 148 148 148 146 146 145 145 143 141 137 134 129 121 121 121 121 125 129 132 137 139 142 143 143 143 143 141 138 136 134 133 131 128 128 126 123 120 118 117 120 122 124 126 129 129 133 135 135 137 142 144 147 149 150 152 152 154 156 161 163 165 165 165 165 165 165 166 168 168 167 167 165 163 163 163 163 164 164 163 163 163 164 164 163 162 161 161 161 161 161 161 161 160 159 158 158 155 154 153 153 151 149 146 145 144 142 141 139 138 135 132 130 129 127 124 121 117 116 114 113 110 109 107 107 105 105 104 103 100 96 94 91 90 86 85 85 85 87 88 89 89 90 90 91 92 93 94 94 94 94 94 94 95 96 96 96 94 93 92 89 89 86 84 81 71 63 61 61 61 62 62 62 61 60 60 60 60 59 59 59 59 60 60 61 61 61 61 61 61 60 60 60 59 59 59 59 59 60 60 60 61 60 60 59 59 59 59 60 61 61 60 59 58 57 57 57 57 57 57 57 58 58 57 57 58 58 58 58 58 58 58 58 58 58 57 57 57 57 57 57 57 
79 79 78 78 78 77 77 77 77 77 77 77 77 77 77 77 79 79 79 77 76 75 74 74 74 73 73 73 73 73 73 73 73 74 74 74 74 73 73 72 71 70 69 69 68 67 67 64 63 62 62 62 62 62 62 62 62 64 78 104 129 145 146 146 146 144 140 137 137 137 138 140 142 145 146 147 148 150 153 155 155 156 156 157 160 162 165 166 167 168 169 169 170 170 171 171 172 173 173 173 174 175 176 176 178 178 178 178 178 178 180 182 183 183 183 183 182 182 181 181 181 182 184 185 185 185 184 182 180 178 178 178 179 179 180 178 177 175 174 173 172 171 169 167 164 163 163 163 164 165 165 164 163 157 152 150 149 149 149 150 151 151 148 146 145 144 142 139 135 130 123 121 121 122 122 126 131 137 141 145 145 145 145 145 147 147 147 143 140 138 138 136 135 135 133 129 126 123 124 124 126 129 133 134 135 137 139 142 143 146 148 149 150 152 152 153 154 159 161 165 165 165 164 164 164 164 165 166 165 164 163 162 162 162 162 162 162 161 160 160 161 161 162 162 161 161 160 160 160 160 159 158 158 158 155 155 154 153 151 150 148 145 144 142 141 139 138 136 133 131 128 127 124 122 121 117 114 113 110 110 108 106 106 106 105 104 103 100 96 93 90 89 87 85 85 87 89 89 90 90 90 91 92 93 94 95 95 95 94 94 95 95 96 96 96 95 94 92 90 89 85 83 78 70 62 60 60 60 62 62 62 61 61 61 60 60 59 59 59 60 60 60 61 61 61 61 61 60 60 60 59 59 59 59 59 60 60 60 61 61 60 60 60 60 60 60 60 60 60 59 58 58 57 57 57 57 57 57 57 57 57 57 57 57 58 58 58 58 58 58 58 58 58 58 57 57 57 57 57 57 
77 77 77 77 76 76 76 76 76 76 76 75 75 74 75 75 76 76 76 75 74 74 74 74 73 73 73 73 73 73 73 73 73 73 73 73 73 72 71 70 69 69 68 68 67 66 65 63 62 62 62 62 63 63 62 62 63 64 76 97 123 142 146 147 146 145 142 139 138 138 139 140 142 143 144 145 147 148 152 154 155 155 156 156 158 160 163 165 166 167 168 168 169 169 170 171 172 172 173 173 173 174 175 176 177 178 177 177 177 177 178 180 182 182 182 182 182 181 181 180 180 180 181 182 183 183 182 179 178 178 177 177 177 178 177 175 174 173 173 172 170 168 167 163 161 161 162 163 163 165 165 163 160 155 150 150 149 149 150 153 156 154 153 151 146 143 140 137 131 126 122 121 122 123 126 130 135 141 145 146 149 148 148 148 148 149 149 149 147 143 142 142 142 141 137 133 129 126 126 127 128 131 133 135 136 137 139 143 146 147 148 149 152 150 152 153 154 155 161 164 164 164 164 163 161 161 161 163 163 161 161 160 160 160 160 160 159 158 158 158 160 161 161 161 161 161 160 160 159 158 158 156 155 155 154 153 153 151 150 148 147 144 142 141 140 138 138 135 132 129 127 126 124 122 120 117 114 112 110 109 107 106 106 108 106 105 104 98 94 92 90 89 88 87 87 89 90 90 90 91 92 93 94 95 96 96 96 96 95 95 95 95 96 96 96 95 94 92 90 89 85 81 76 68 62 60 60 60 62 62 62 62 61 61 60 60 59 59 59 61 61 61 61 61 60 60 60 60 60 59 59 59 59 59 60 60 60 61 61 61 60 60 60 60 60 60 60 60 60 59 58 57 57 57 57 57 57 57 57 57 57 57 57 57 58 58 59 59 59 59 58 58 58 58 58 58 58 58 58 58 
77 77 76 76 75 75 75 75 75 75 74 74 73 72 72 72 73 73 73 72 72 72 72 72 73 73 73 73 73 73 72 72 71 71 71 71 70 69 68 67 66 66 66 65 65 64 63 62 62 62 62 62 63 63 63 63 63 64 72 91 117 138 146 147 147 146 144 142 139 139 139 140 141 141 142 143 145 147 150 152 154 155 155 156 158 160 162 165 165 166 167 167 167 168 169 170 171 172 172 172 173 173 174 175 176 177 177 176 176 176 177 177 180 181 181 181 181 180 180 179 175 175 175 178 180 181 179 178 177 177 177 177 176 175 175 173 172 170 170 170 168 167 162 161 161 161 161 162 163 163 163 160 155 153 150 149 149 150 151 154 158 156 155 154 151 143 139 134 126 123 122 122 123 126 127 132 140 145 149 150 151 151 150 150 151 151 151 151 150 145 143 142 142 141 139 137 133 129 128 128 128 131 133 135 137 138 141 143 146 148 148 149 152 150 151 153 153 154 161 163 164 164 163 160 160 158 158 158 159 159 159 157 157 157 158 158 157 157 157 157 158 160 160 161 161 160 159 158 158 157 155 154 153 151 151 151 150 149 148 147 146 144 142 141 139 138 136 134 131 128 126 124 124 122 120 117 114 113 110 108 106 105 105 107 107 107 104 98 96 92 90 90 89 88 89 90 90 90 90 91 93 93 94 95 96 97 97 97 97 96 96 96 96 96 95 94 93 92 90 89 85 80 74 67 62 60 60 60 62 62 62 62 62 61 60 60 60 60 60 61 61 61 61 61 60 60 60 60 59 59 59 59 59 60 60 60 61 61 61 61 60 60 60 60 60 60 60 60 59 58 57 57 57 57 57 57 57 57 57 56 56 57 57 57 58 59 59 59 59 59 59 58 58 58 58 58 58 58 58 58 
76 76 75 75 75 74 74 74 74 73 73 72 71 71 71 71 71 71 71 70 69 70 71 71 72 72 72 72 71 71 70 70 69 68 68 68 67 66 65 64 64 64 63 63 63 63 62 62 62 62 62 62 63 63 63 63 63 63 68 85 109 133 147 147 147 147 145 143 142 140 140 140 140 141 141 142 143 145 147 150 152 154 154 155 157 159 160 163 165 165 166 166 167 167 167 169 170 170 171 171 171 171 172 173 176 176 176 175 175 175 175 176 177 177 180 180 180 178 175 174 171 171 171 173 175 177 177 177 175 175 176 176 175 175 173 172 170 170 169 169 167 166 162 161 160 160 160 160 160 160 156 155 153 152 150 150 150 150 154 156 158 156 155 153 152 145 139 132 126 123 122 123 126 127 130 133 143 149 151 151 151 151 151 151 152 152 152 152 151 149 145 143 142 141 139 138 137 132 129 128 127 131 132 135 137 138 139 142 143 147 148 148 152 150 150 153 154 155 159 160 163 163 159 157 157 156 156 157 157 157 157 157 156 156 156 156 156 156 156 156 156 158 158 160 160 159 158 158 156 155 153 151 150 148 148 148 148 148 147 146 144 143 142 139 138 137 135 134 131 128 126 124 123 121 119 116 114 113 112 109 106 105 105 106 106 105 103 100 97 94 92 91 91 91 91 91 91 92 91 92 93 93 94 95 96 97 97 97 97 97 96 96 96 95 94 94 92 91 90 89 84 79 72 67 62 60 59 59 59 62 62 62 62 61 60 60 60 60 61 62 62 62 61 61 60 60 60 60 59 59 59 59 59 60 60 60 61 61 61 61 60 60 60 60 60 60 60 60 59 58 57 57 57 57 58 58 58 57 57 56 56 57 57 57 58 59 59 59 59 59 59 58 58 58 58 58 58 58 58 58 
73 73 72 72 71 71 71 71 72 72 71 70 70 69 69 69 69 68 68 68 68 68 69 69 70 71 71 70 70 69 68 68 68 66 66 66 66 65 64 64 63 63 63 63 63 63 62 62 62 62 62 63 63 63 64 63 63 64 68 80 104 129 145 147 147 147 146 144 143 142 141 141 140 140 140 140 141 143 145 147 150 152 153 154 156 158 159 161 163 165 165 165 166 166 167 167 168 170 170 170 169 169 171 172 174 174 174 174 175 175 175 175 175 176 175 175 175 171 168 168 167 166 166 167 169 173 174 174 174 174 174 175 175 172 172 170 169 169 169 169 167 166 163 161 160 160 159 158 156 155 154 153 153 152 151 150 150 154 157 158 158 155 154 153 152 150 141 132 130 127 127 127 127 130 132 140 145 151 152 152 152 153 152 152 153 155 155 155 154 151 145 142 142 140 139 139 138 132 131 128 128 129 131 134 135 137 138 139 142 143 147 148 148 150 150 153 154 155 157 159 159 159 156 155 154 153 153 154 154 155 155 155 154 154 154 155 156 156 155 155 155 155 155 158 158 158 157 155 154 153 151 148 148 146 146 146 146 146 146 144 143 142 140 138 138 136 134 134 131 128 126 123 121 120 117 115 113 113 112 110 108 105 105 105 105 104 103 102 98 97 96 94 92 92 93 93 93 93 93 92 93 93 95 95 96 97 97 98 98 97 97 96 96 95 94 93 91 90 89 87 84 78 72 66 62 60 59 59 59 60 62 62 61 61 61 60 60 61 61 63 63 63 62 62 61 60 60 60 60 59 59 59 60 60 60 60 60 61 61 61 60 60 60 60 60 60 60 60 59 59 58 57 58 58 58 58 58 58 57 57 57 57 57 57 58 58 59 59 59 59 58 58 58 58 58 58 58 58 58 58 
70 69 69 68 67 67 67 67 68 68 68 68 67 67 66 66 66 66 66 66 66 66 66 66 66 66 67 67 67 68 67 66 66 66 66 66 65 64 64 64 63 63 63 63 63 63 62 62 62 62 63 64 64 64 64 64 64 65 69 79 98 120 140 147 147 147 146 145 144 143 142 141 140 139 138 139 140 141 144 145 147 150 152 153 154 157 158 160 161 163 164 164 164 165 165 167 167 168 169 168 168 168 169 172 173 173 174 174 174 174 173 173 173 170 169 169 168 167 167 165 165 165 164 165 165 168 171 171 171 172 172 173 172 172 170 169 169 169 167 167 167 166 164 163 160 159 156 156 155 153 153 153 152 151 151 150 151 155 157 157 156 155 154 153 152 151 141 135 132 128 127 128 128 131 133 143 150 154 154 154 153 153 152 153 154 155 155 155 155 153 148 142 142 140 139 139 139 137 132 130 128 130 131 133 135 135 138 138 142 143 145 147 147 148 150 152 153 154 155 155 155 155 152 152 150 151 151 153 153 153 153 152 151 148 147 150 153 153 152 151 150 150 150 151 152 153 153 153 151 149 148 146 145 143 142 142 143 143 142 142 141 140 138 137 135 134 134 133 130 127 124 123 121 118 116 114 113 112 112 110 108 106 105 105 105 104 103 103 100 98 97 96 96 96 96 95 93 93 91 91 92 93 94 96 96 97 98 98 98 98 97 96 95 94 93 91 90 89 89 85 81 78 72 66 62 60 59 59 59 60 60 61 61 61 61 61 61 61 62 63 63 63 63 62 61 61 61 61 61 61 60 60 59 59 59 59 59 59 59 60 60 60 60 60 60 60 60 60 59 59 59 59 59 59 59 59 59 59 58 58 57 57 57 58 58 58 58 58 58 58 58 58 58 58 58 58 58 58 58 58 
68 68 67 66 65 65 65 65 65 66 66 66 66 65 65 65 64 64 64 64 64 64 64 64 64 64 65 65 65 66 66 66 66 66 65 65 65 65 64 64 64 63 63 63 63 63 63 63 63 64 65 65 65 65 65 65 65 69 69 79 95 115 137 147 147 147 146 145 144 143 143 141 139 138 138 138 138 140 142 144 146 148 150 152 153 155 157 158 159 161 162 163 164 164 164 165 166 167 167 168 168 168 168 169 172 173 173 173 173 173 172 170 169 167 165 165 164 164 163 163 163 163 163 164 164 165 165 167 168 170 170 170 170 170 166 166 166 166 165 166 166 166 164 163 161 158 156 155 150 150 151 152 152 151 151 151 154 157 157 158 156 155 155 154 153 151 144 138 134 132 130 130 130 132 140 149 155 156 157 157 156 155 154 155 155 156 156 156 156 155 151 147 142 141 141 141 141 139 137 132 129 131 133 135 135 137 138 139 142 143 144 145 147 147 148 150 151 151 152 152 152 148 147 147 147 147 148 149 151 151 148 147 143 142 142 142 145 145 145 145 145 145 145 145 145 145 145 145 145 145 143 142 140 138 138 138 139 140 139 139 138 137 135 134 134 133 133 131 129 126 123 121 119 116 114 112 112 111 110 109 108 106 105 104 104 104 103 103 100 99 98 97 96 96 96 96 95 92 91 91 91 93 94 96 96 97 97 98 98 98 97 96 94 93 92 90 89 88 87 84 80 77 71 66 62 60 59 59 59 60 60 60 61 61 61 61 61 61 62 63 63 63 62 62 61 61 61 62 62 62 61 60 60 59 59 59 59 59 59 59 60 60 60 60 60 60 60 60 59 59 59 59 59 59 59 59 59 59 59 58 58 58 58 58 58 58 58 58 58 58 58 58 58 58 58 58 58 58 58 58 
66 66 65 65 64 63 63 63 64 64 64 64 63 63 63 64 64 64 64 64 64 64 64 64 64 63 63 63 64 64 65 65 65 65 65 65 65 65 65 65 65 65 65 65 65 65 65 65 67 68 69 69 69 69 68 68 69 69 69 76 90 109 131 141 146 146 146 145 145 144 143 142 140 138 137 137 138 138 140 143 145 147 149 151 152 153 155 157 158 159 161 161 162 163 164 164 166 166 167 167 167 168 168 168 169 170 172 172 171 170 169 167 166 165 164 163 162 160 159 159 162 162 163 163 163 163 163 163 163 164 164 164 164 164 163 163 163 163 163 164 164 164 164 163 161 156 155 153 150 150 151 152 152 152 153 155 157 159 159 159 158 156 155 154 153 152 150 143 138 134 132 132 133 136 147 154 157 158 159 159 158 158 158 159 159 159 159 159 159 159 156 153 148 148 148 148 147 143 142 141 138 136 135 136 137 138 138 139 143 143 143 144 145 145 146 147 149 149 148 148 144 143 143 143 143 144 144 144 144 144 142 140 140 139 139 139 140 142 142 143 143 143 143 142 142 142 142 142 142 142 140 138 136 134 134 135 135 136 136 136 135 134 134 133 132 132 130 129 126 123 121 119 116 115 113 112 110 110 109 108 108 107 105 104 103 103 103 103 100 100 98 97 96 96 96 96 95 92 91 91 92 93 94 96 96 96 96 97 98 97 96 94 93 91 90 89 88 86 85 81 79 75 71 66 62 60 59 59 59 60 60 60 61 61 61 61 61 61 61 62 63 62 62 61 61 61 61 62 62 62 62 61 60 60 59 59 59 59 59 59 59 59 59 59 60 60 60 60 60 60 59 59 59 59 59 59 59 59 59 59 58 58 58 58 58 58 58 58 58 58 58 58 58 58 58 58 58 58 58 58 
64 64 63 63 62 62 62 63 63 63 63 63 63 62 62 62 63 64 64 64 64 64 64 63 63 63 63 63 64 64 64 65 65 65 65 65 65 65 65 65 65 66 67 67 67 67 67 68 68 69 70 70 69 69 69 69 69 69 69 70 82 101 124 137 145 146 146 145 145 145 144 143 142 139 138 137 137 137 138 141 143 146 148 150 151 152 155 157 158 158 159 161 161 162 163 164 166 166 167 167 167 167 167 167 168 168 169 168 167 167 166 166 165 163 163 161 159 157 156 156 158 160 161 162 162 161 160 159 159 159 159 160 160 160 160 160 160 159 157 155 155 155 156 159 156 156 154 153 152 152 153 154 154 154 154 157 159 160 160 160 160 160 157 157 154 154 153 148 143 138 133 133 136 147 151 157 159 160 160 160 160 161 162 163 164 164 164 164 164 162 161 158 156 156 155 152 150 147 145 143 142 140 138 138 138 138 138 139 142 143 143 144 144 144 144 145 143 142 142 140 138 138 138 138 136 135 134 134 133 133 134 133 133 132 133 133 133 137 139 139 139 139 138 138 138 138 139 139 139 138 138 134 133 133 133 133 133 134 134 134 134 133 132 131 129 129 129 126 123 121 119 116 115 114 112 110 109 109 109 108 108 107 105 103 103 103 103 102 100 99 98 97 96 96 96 95 94 92 91 92 92 93 94 96 96 96 96 95 95 95 93 92 90 89 88 86 86 84 82 80 77 73 69 65 61 60 59 59 60 60 60 61 61 61 61 61 61 61 61 62 62 61 61 61 61 60 61 61 61 62 62 61 61 60 60 60 60 60 60 60 59 59 59 59 59 60 60 60 60 60 60 60 60 60 60 60 60 59 59 59 59 58 58 58 58 58 58 58 58 58 58 58 58 58 59 59 59 59 59 59 
62 62 62 61 61 61 61 62 63 63 63 63 63 62 62 62 62 62 62 62 62 62 62 62 62 63 63 63 64 64 64 64 65 65 65 65 65 65 65 66 66 67 68 68 68 68 68 68 69 69 70 70 70 69 69 69 69 69 69 70 76 94 115 131 141 145 146 146 146 145 145 144 143 141 139 138 137 137 137 139 142 144 146 148 150 151 154 156 157 158 158 159 160 161 162 163 164 166 166 166 166 165 164 164 164 163 163 163 163 164 164 164 163 162 160 159 156 153 153 153 154 156 159 160 160 159 158 157 157 157 157 157 158 158 158 158 157 155 154 154 154 154 155 155 155 154 153 153 152 153 154 156 157 158 157 159 161 162 163 163 163 163 163 162 160 158 157 154 150 147 146 140 147 151 157 159 161 161 162 162 163 165 166 166 168 169 169 169 168 166 165 163 161 159 157 156 154 150 147 146 144 142 141 140 140 140 139 140 142 142 142 143 142 142 141 138 135 134 133 133 133 134 134 134 130 126 126 128 129 129 129 129 128 124 122 125 129 130 131 131 131 129 129 130 130 131 132 132 136 134 133 131 130 130 131 131 132 132 132 132 132 131 129 129 126 126 124 122 120 118 116 115 114 114 112 110 109 109 108 108 108 106 104 103 103 102 102 101 100 98 97 96 96 96 95 95 92 92 91 92 92 94 95 95 96 95 94 93 91 91 90 89 87 86 86 85 83 81 81 78 75 72 68 65 61 60 59 59 60 60 61 61 61 62 62 62 62 62 62 62 62 61 61 61 60 60 60 61 61 61 61 61 61 60 60 60 60 60 60 60 60 59 59 59 59 60 60 60 61 61 60 60 60 60 60 60 60 60 60 59 59 59 59 59 59 59 58 58 58 58 58 58 58 59 59 59 59 59 59 59 
61 61 61 61 61 61 61 61 63 63 63 63 63 62 62 62 62 62 62 62 62 62 62 62 62 63 63 63 64 64 64 64 64 65 65 65 65 65 66 66 67 68 68 68 68 68 68 68 68 70 70 70 70 70 70 69 69 69 69 70 73 84 107 125 136 145 146 147 147 147 147 146 145 143 141 138 137 137 137 137 139 142 145 146 149 151 152 155 156 157 157 158 159 160 161 162 163 164 165 165 164 162 161 160 159 159 158 158 158 160 162 162 162 160 157 154 153 150 150 150 150 152 155 157 158 157 157 155 155 155 155 155 156 156 156 156 155 152 153 154 154 154 155 155 154 154 153 152 152 152 154 156 158 159 161 162 163 164 165 165 168 168 168 166 165 163 161 160 158 156 155 151 154 158 161 162 163 163 163 166 169 169 170 171 174 174 176 176 174 171 170 168 165 163 161 159 156 155 151 149 146 144 144 144 144 146 144 143 142 140 139 140 138 137 135 133 130 127 127 127 129 130 129 125 123 123 123 125 126 127 127 124 122 121 121 121 122 126 126 127 127 127 128 128 129 129 130 130 132 132 130 129 129 129 129 129 130 130 130 130 129 129 127 126 124 122 122 120 118 116 115 115 114 113 112 110 109 108 108 108 107 106 104 102 102 101 100 100 99 98 97 96 95 95 94 92 92 92 92 92 93 95 95 95 95 94 93 91 90 88 87 86 86 85 84 82 81 80 78 77 74 71 67 64 61 59 59 60 60 61 61 61 62 62 62 62 62 62 62 62 62 62 61 61 60 60 60 60 60 61 61 61 61 61 61 61 61 61 61 61 60 60 59 59 60 60 60 60 61 61 61 61 61 61 61 61 60 60 60 60 59 59 59 59 59 59 59 58 58 57 57 57 59 59 60 60 60 60 60 60 
61 61 61 61 61 61 61 61 63 64 65 64 64 63 63 62 62 62 62 62 62 62 62 62 63 63 63 64 64 64 64 64 64 64 65 65 65 65 66 66 68 68 68 68 68 68 68 68 68 69 70 70 70 70 70 69 69 69 69 70 70 76 96 117 130 141 146 147 147 148 148 148 148 146 143 141 138 137 136 136 137 140 142 145 148 149 151 155 156 156 156 157 157 158 159 160 162 162 163 162 161 160 159 158 158 157 156 155 155 155 155 155 155 154 153 150 148 147 147 147 147 148 150 150 150 149 149 149 149 150 150 151 152 152 152 152 151 151 152 153 154 154 155 155 154 154 154 153 153 155 157 159 160 162 163 164 165 167 168 170 173 173 172 169 168 167 166 165 164 163 162 162 162 163 165 165 166 166 169 171 173 177 178 178 178 181 184 181 178 177 175 175 171 168 166 163 160 157 155 151 149 149 149 147 149 152 148 145 143 141 139 139 136 133 131 130 127 125 125 125 125 124 121 120 119 120 120 122 123 123 122 122 121 119 119 119 119 120 122 123 124 124 125 126 127 127 127 126 124 124 123 121 121 121 126 126 126 127 127 127 127 127 125 123 122 120 119 118 117 116 115 114 114 114 113 111 110 109 108 108 107 106 104 102 101 101 99 99 98 97 96 95 93 93 92 92 92 92 92 93 93 95 95 95 94 93 91 90 88 87 86 86 85 83 81 81 79 78 77 74 72 68 66 63 61 60 60 60 61 61 61 62 62 62 63 63 63 63 62 62 62 62 62 61 61 61 60 60 60 61 61 61 61 61 61 61 61 61 61 61 61 61 60 60 60 60 60 60 61 61 61 61 61 61 61 61 61 61 60 60 60 59 59 59 59 59 59 58 58 57 57 57 59 60 60 60 60 60 60 60 
61 61 61 61 61 61 61 62 64 65 66 65 65 65 64 63 63 63 62 64 64 64 64 64 64 64 64 64 64 64 64 64 64 64 64 65 65 66 66 67 67 68 68 68 68 68 68 68 68 69 69 70 70 70 70 69 69 69 69 69 70 70 88 107 125 136 146 146 147 148 148 148 148 148 145 143 140 137 136 136 136 138 141 142 145 148 149 152 155 156 156 156 157 157 157 158 159 159 159 159 159 158 158 157 156 155 153 152 152 152 152 152 147 147 147 147 146 146 146 146 146 145 144 144 143 143 145 146 148 149 149 150 150 150 150 150 150 151 152 153 154 154 155 155 154 154 154 153 156 158 159 161 163 165 169 170 171 172 175 176 177 177 176 173 172 171 169 168 168 168 167 167 167 168 169 170 170 170 171 174 179 179 184 185 185 186 186 186 185 182 181 178 175 173 171 168 166 164 161 159 158 156 155 155 154 153 152 149 144 142 139 138 136 133 131 130 127 125 124 124 122 121 120 117 116 116 117 118 120 120 121 120 119 118 118 118 117 118 119 119 121 122 123 124 124 124 120 118 116 116 116 115 115 115 119 120 123 124 125 125 125 123 122 121 119 118 117 117 116 115 114 114 114 114 113 112 111 110 109 108 107 106 103 101 100 99 98 98 97 96 93 93 93 93 92 92 92 92 93 93 94 94 94 94 94 92 90 88 87 86 85 84 83 81 80 78 78 77 74 72 70 67 66 63 62 60 60 61 61 61 62 62 63 63 63 63 64 63 63 63 62 62 62 62 62 62 61 61 61 61 61 61 61 61 61 61 61 61 61 61 61 61 61 60 60 60 60 60 61 61 61 61 61 61 61 61 61 61 61 61 60 60 60 60 60 60 60 59 58 58 58 58 60 60 60 60 60 60 60 60 
59 61 61 62 62 62 62 63 65 66 66 66 65 65 65 64 64 64 64 64 64 65 65 65 65 65 65 64 64 64 64 64 64 64 64 65 65 66 66 67 67 67 68 68 68 68 68 68 68 68 69 70 70 70 70 70 69 69 68 67 68 69 78 96 115 129 138 146 146 148 148 149 149 149 148 145 142 140 138 137 137 138 139 141 143 146 148 150 152 155 155 156 156 156 156 156 156 155 155 155 155 155 155 155 152 151 151 149 148 147 145 143 142 142 142 143 143 143 141 138 138 138 138 138 139 139 143 145 146 148 149 150 150 150 150 150 150 150 152 154 155 155 156 158 160 160 160 160 160 161 163 167 170 171 173 175 178 179 180 181 184 185 185 179 177 177 176 175 175 175 174 174 174 173 171 170 171 172 173 179 181 184 186 189 189 189 189 187 186 185 182 178 178 175 172 171 170 169 166 162 160 158 157 156 155 155 154 152 149 143 140 139 136 134 132 130 129 126 123 121 120 120 117 116 114 114 113 114 117 117 118 118 118 117 116 115 112 109 107 112 116 118 118 120 120 117 113 106 105 105 107 107 109 111 114 116 118 119 121 121 121 119 119 119 119 118 117 116 115 114 114 114 114 113 113 112 111 110 109 108 107 104 101 99 99 98 97 97 96 94 93 93 93 92 92 92 92 93 93 93 94 94 94 94 93 91 89 87 86 85 84 83 81 80 78 78 77 75 73 70 67 65 65 63 62 61 61 61 61 63 63 63 63 64 64 64 64 64 63 63 62 62 62 62 62 62 62 62 62 62 62 61 61 61 61 61 61 61 61 61 61 61 61 61 60 60 60 60 60 61 61 61 61 61 61 61 61 61 62 62 62 62 61 61 61 61 60 60 59 58 58 59 60 60 60 60 60 60 59 59 
61 62 63 63 63 63 63 65 66 67 67 66 66 65 65 65 64 64 64 65 65 65 65 65 65 65 65 65 64 64 64 64 64 64 64 65 66 66 67 67 67 67 67 67 67 67 67 67 67 68 68 69 70 70 70 69 69 68 68 67 67 68 71 88 107 120 136 143 146 147 148 149 150 150 149 148 144 142 139 138 138 138 138 140 142 144 146 149 150 152 154 155 155 155 155 155 154 154 153 153 153 152 151 150 149 148 148 146 145 143 141 138 137 137 137 138 138 138 133 130 129 129 133 136 138 138 139 143 145 146 147 148 149 149 150 150 150 152 154 156 158 158 158 162 163 163 163 163 163 167 171 174 176 177 178 179 181 183 184 185 185 185 185 184 182 181 179 179 184 185 183 179 176 174 173 172 172 173 175 181 184 186 188 189 189 189 189 187 186 184 182 178 178 173 171 171 170 169 166 162 160 158 157 156 156 155 155 154 152 146 143 142 139 137 136 134 133 129 126 122 120 117 116 113 112 110 110 110 111 114 115 115 115 114 112 107 103 103 103 103 107 112 112 113 108 105 100 99 99 99 100 102 104 107 109 112 115 117 118 119 119 119 119 119 119 117 117 116 114 114 114 114 114 113 113 112 111 110 109 109 107 103 99 98 97 97 96 96 94 94 93 93 93 92 92 92 92 93 93 93 94 94 94 93 91 90 88 86 84 83 83 81 80 78 77 76 75 74 70 68 64 64 64 63 63 63 63 63 63 63 63 64 64 64 64 64 64 64 63 63 63 62 62 62 62 62 62 62 62 62 62 62 61 61 61 61 61 61 61 61 61 61 61 61 60 60 60 60 60 60 61 61 61 61 61 61 62 63 63 63 63 63 62 62 61 61 61 61 61 60 60 60 60 61 61 61 61 61 61 60 
63 65 65 65 64 64 65 67 67 67 67 67 66 66 66 65 65 65 65 65 65 65 65 65 65 65 65 65 65 64 64 64 64 64 65 66 66 66 67 67 67 67 67 67 67 67 66 66 67 67 67 69 69 69 69 69 69 68 68 66 67 67 69 80 96 109 125 138 145 146 147 148 149 150 149 148 147 145 142 140 138 138 138 139 141 143 145 148 150 151 153 153 154 154 154 154 153 153 152 152 152 151 150 147 145 145 145 145 143 140 138 134 130 130 130 130 130 130 125 121 121 122 127 129 134 138 138 141 144 145 146 148 148 149 150 150 150 153 155 158 158 158 160 163 164 168 168 168 171 171 172 174 176 177 178 179 181 183 184 185 185 185 185 184 182 182 182 185 186 188 186 183 180 178 175 174 174 174 179 184 187 189 189 189 189 188 187 186 184 182 181 178 171 169 169 169 169 169 165 162 158 156 156 156 156 155 155 154 153 150 145 142 141 139 137 135 133 132 127 125 120 116 114 113 110 109 109 106 107 110 111 111 111 109 104 99 96 95 95 95 99 102 102 102 100 95 90 89 89 89 92 93 98 102 105 109 112 115 117 118 119 119 119 119 118 117 116 115 114 114 114 114 113 113 112 112 111 110 109 109 104 100 98 97 96 96 95 95 94 93 93 93 93 92 92 92 92 92 93 93 93 93 92 91 89 88 86 84 83 82 81 79 78 77 76 75 74 71 68 64 62 62 63 63 63 63 63 63 63 64 64 64 64 65 64 64 64 64 63 63 63 62 62 62 62 62 62 62 62 62 62 62 61 61 60 60 60 60 60 60 61 61 61 61 61 60 60 60 60 60 60 60 60 60 61 62 63 63 63 63 63 63 63 63 62 62 61 62 62 61 61 61 62 62 63 63 63 63 63 62 
66 67 67 67 67 66 67 67 68 68 68 67 67 66 66 66 65 65 65 66 66 66 66 66 65 65 65 65 65 64 64 64 64 65 66 66 66 67 67 67 67 67 67 67 67 67 66 66 66 66 66 67 69 69 69 69 68 68 67 66 66 67 68 76 87 99 117 131 141 145 146 147 148 149 149 148 147 146 144 141 139 139 138 139 139 141 144 147 149 150 152 153 154 154 154 153 153 153 152 152 152 150 147 145 144 144 143 143 140 138 132 129 125 123 122 122 122 121 116 114 116 117 121 126 129 133 137 139 142 144 144 146 148 149 150 150 153 154 157 158 159 160 163 163 168 170 171 171 171 171 172 174 176 177 178 179 181 183 184 184 184 184 184 182 179 181 182 185 186 188 186 183 182 179 178 177 175 179 183 187 190 189 189 189 188 182 180 176 170 162 156 152 147 145 145 145 150 153 153 153 151 151 151 153 155 155 155 154 152 149 145 143 141 139 137 135 133 132 129 122 117 116 115 113 109 107 104 103 101 103 104 105 104 101 96 92 86 83 83 84 90 93 93 93 89 85 81 81 81 82 84 88 92 95 100 106 109 112 115 117 118 118 119 119 118 117 116 115 114 114 114 114 113 113 112 111 110 110 109 107 101 99 97 96 95 95 95 94 94 93 93 93 92 92 91 91 91 91 92 92 92 91 90 89 87 85 84 82 81 80 79 77 77 76 75 74 72 69 67 62 61 61 62 63 63 63 63 63 63 64 64 64 64 65 64 64 64 64 63 63 63 62 62 62 62 62 62 62 62 62 62 61 60 60 59 59 59 59 59 59 60 60 61 61 60 60 60 60 60 60 61 60 60 61 61 62 63 63 63 63 63 63 63 63 63 63 62 63 63 63 62 63 63 63 63 64 64 63 64 63 
69 70 70 69 69 69 68 68 69 69 69 69 68 68 68 68 67 67 67 67 67 67 66 66 66 66 66 65 65 65 65 65 65 66 66 66 67 67 67 67 67 67 67 67 67 67 66 66 66 66 66 66 68 68 69 69 68 67 67 66 66 67 67 68 78 92 108 124 137 141 145 146 147 147 147 147 147 146 145 143 141 139 139 139 139 141 143 146 149 150 151 153 153 154 154 154 154 153 152 152 152 149 147 144 144 143 143 142 138 133 129 124 122 121 118 114 113 113 112 113 113 113 114 118 124 129 133 135 137 137 138 140 145 146 148 150 152 154 157 158 159 160 161 163 168 170 171 171 171 171 172 173 173 173 174 174 174 176 177 177 177 177 177 176 177 177 179 180 185 188 185 182 179 178 177 176 175 177 181 184 188 188 188 182 178 175 168 160 149 137 128 122 117 113 113 113 118 125 128 128 129 131 136 141 146 151 153 153 151 147 144 142 140 137 137 134 131 129 122 118 116 115 114 111 107 104 100 99 97 96 98 98 94 92 86 83 79 76 73 73 79 83 84 84 81 77 77 77 78 79 81 84 88 93 95 104 108 109 112 115 117 118 119 119 118 117 116 115 114 114 114 114 113 112 111 110 110 109 108 103 100 99 97 95 95 95 94 94 94 93 93 92 92 91 90 90 90 90 91 91 90 89 87 86 84 82 82 80 79 77 77 76 76 75 74 72 69 68 67 62 61 61 62 63 63 63 63 63 63 63 63 64 64 65 64 64 64 64 63 63 63 62 62 62 62 62 62 62 62 62 61 60 60 59 59 59 59 59 59 59 59 59 60 60 60 60 60 61 61 61 61 61 61 61 62 62 63 63 63 63 63 63 63 63 63 63 64 64 64 63 63 63 63 63 63 64 64 63 64 63 
71 73 73 72 71 71 70 70 71 71 71 71 71 70 70 70 70 70 70 70 70 69 68 68 68 67 67 67 66 66 66 66 66 66 66 67 67 67 67 67 67 67 67 67 67 67 66 66 66 66 66 66 66 68 69 68 68 67 67 66 66 67 67 67 70 83 97 113 130 137 140 144 145 145 145 146 146 145 145 144 142 140 139 138 138 140 142 144 149 150 151 153 154 154 154 154 154 154 153 152 152 150 147 144 143 143 143 140 135 130 124 122 119 114 112 109 106 105 104 104 104 106 109 113 117 122 127 132 133 134 135 137 138 142 146 148 150 152 155 158 158 159 159 161 163 168 171 170 170 167 165 163 156 152 147 142 141 141 141 143 145 147 149 153 157 160 166 172 176 180 180 178 177 177 175 174 174 174 177 183 184 184 176 169 163 156 145 132 118 106 97 92 83 78 78 78 83 89 92 92 98 103 110 117 122 127 133 135 141 141 140 137 134 131 130 130 127 121 117 116 114 113 111 108 105 99 96 94 92 90 90 90 86 83 77 73 71 68 68 68 71 72 72 72 70 70 70 71 75 76 79 82 84 89 94 100 106 108 109 113 115 118 118 118 117 117 116 115 115 114 114 113 112 111 110 110 109 107 105 101 99 98 97 95 94 94 94 94 93 93 92 92 90 89 89 90 90 90 90 90 88 86 84 83 82 82 79 78 77 76 75 75 74 74 72 70 69 68 68 64 62 62 64 63 63 63 63 63 62 63 63 63 64 64 63 64 64 64 63 63 63 62 62 62 62 62 62 62 62 62 61 60 60 59 59 59 59 59 59 59 59 59 59 60 60 60 60 61 61 61 62 61 61 62 62 62 63 63 63 63 63 63 63 63 64 64 64 64 64 63 63 63 62 62 63 63 63 63 63 62 
74 75 74 74 73 72 72 72 72 73 74 73 73 72 72 72 72 72 72 72 71 70 70 69 69 69 69 68 68 68 67 67 67 67 67 67 67 67 67 67 67 67 67 67 67 67 67 66 66 65 65 65 65 66 67 67 66 66 66 65 65 66 66 66 67 75 84 101 119 131 136 139 140 142 143 144 145 145 144 144 142 140 138 138 138 138 141 143 148 149 151 152 153 154 154 154 154 154 153 153 152 151 149 146 144 143 142 137 132 127 123 120 114 111 108 105 102 98 94 90 90 91 94 99 105 110 112 117 124 129 132 134 135 138 142 144 148 150 150 155 157 158 158 159 161 161 161 158 151 142 134 130 117 111 103 94 92 92 92 92 92 93 93 98 106 110 117 123 142 146 153 154 155 155 159 164 170 170 170 169 163 153 140 131 116 108 97 84 73 66 62 60 58 58 55 55 58 58 59 60 64 69 75 81 85 89 93 96 110 112 116 119 120 120 120 119 114 112 111 111 110 110 106 103 98 94 92 89 88 84 79 77 77 70 65 65 64 60 58 58 58 58 58 58 59 62 65 70 71 75 77 79 84 89 93 100 106 108 109 111 114 115 117 117 117 117 116 116 115 114 114 113 111 110 110 108 106 105 101 100 99 97 97 95 94 94 93 93 92 92 91 90 88 87 87 88 89 89 89 88 86 84 83 82 81 79 78 76 75 75 74 74 73 70 70 69 69 69 68 67 63 63 64 63 63 63 63 62 62 62 62 62 63 63 63 63 63 63 63 63 62 62 62 61 61 61 61 61 61 61 60 60 59 59 59 59 59 59 59 59 59 58 58 58 59 60 60 60 61 61 61 61 61 61 62 62 62 63 63 63 63 63 63 63 63 64 64 64 64 63 63 62 62 61 61 61 61 61 61 60 
75 76 76 76 75 74 73 74 74 75 75 75 74 74 73 73 73 73 73 73 73 72 72 71 70 70 70 69 69 69 68 68 67 67 67 67 67 67 67 67 68 68 68 67 67 67 67 66 65 65 65 64 65 65 66 66 65 65 65 65 64 63 63 63 65 68 75 91 110 124 132 135 136 139 140 142 144 144 144 144 142 139 139 137 137 137 139 142 145 149 150 152 152 153 154 154 154 154 153 153 152 151 150 149 144 143 140 135 130 126 121 114 111 108 103 98 94 88 87 87 82 85 89 89 89 95 105 112 116 122 125 128 132 135 139 141 144 144 146 148 152 155 156 156 156 153 144 141 134 109 96 88 86 80 70 62 62 62 63 66 68 72 79 90 89 89 94 95 109 115 123 127 128 131 138 142 146 146 146 141 132 120 104 95 90 84 73 64 58 58 58 55 52 52 52 50 50 50 45 45 45 45 50 54 55 56 60 63 72 76 83 91 97 99 99 99 96 96 96 99 99 99 98 94 92 88 84 81 78 74 69 67 65 58 56 56 55 52 50 50 48 48 48 52 56 59 62 65 70 73 76 77 83 89 93 99 105 107 108 111 114 114 115 116 116 116 116 116 116 115 113 111 110 110 108 106 104 101 100 99 97 97 95 94 93 92 92 91 91 90 89 88 87 87 87 87 87 87 87 86 84 82 82 79 78 77 75 74 74 74 73 73 70 69 69 69 69 70 71 69 64 64 64 63 63 63 62 62 62 62 62 62 62 62 63 63 63 63 63 62 62 62 60 60 59 60 60 60 60 60 59 59 59 59 59 59 59 59 59 58 58 58 58 58 58 59 60 60 60 61 61 61 61 61 61 62 62 62 62 62 62 62 62 62 63 63 64 63 63 63 62 62 61 61 61 61 61 60 59 59 
76 77 77 77 76 76 75 75 76 79 79 79 79 78 78 77 76 76 75 75 74 74 74 74 74 73 72 72 71 71 70 70 69 69 69 69 69 68 68 68 68 68 68 68 68 67 67 66 65 64 64 64 64 65 65 65 65 65 65 64 63 63 62 61 62 65 69 77 92 112 126 131 133 135 136 139 141 143 143 142 140 139 139 137 136 136 137 141 143 148 149 151 151 152 152 152 153 154 153 153 152 151 150 149 145 143 137 133 130 124 118 111 108 103 96 94 90 84 79 79 79 79 79 79 76 85 96 106 112 116 117 117 125 129 135 137 139 139 139 138 138 139 139 144 144 144 124 123 96 69 60 54 52 52 50 48 50 50 55 59 66 66 66 72 66 66 66 79 79 83 87 87 88 90 97 104 104 104 103 96 87 79 71 64 63 59 58 51 50 50 50 50 50 49 47 46 45 40 39 39 39 39 40 40 38 36 36 36 45 46 49 53 58 63 64 66 66 69 72 77 80 81 81 81 80 75 69 65 63 60 55 51 44 43 43 41 38 35 33 34 36 41 45 48 52 58 59 65 70 73 77 77 84 90 94 102 104 106 107 109 113 114 114 115 116 116 116 116 115 113 111 110 109 107 105 103 101 98 97 95 94 94 93 92 90 88 88 88 88 88 87 86 86 85 85 85 85 85 84 83 81 79 77 77 75 74 73 73 73 73 72 69 68 68 68 69 71 76 76 73 68 65 65 63 63 63 62 61 61 62 62 62 62 62 62 62 62 60 60 60 60 60 59 59 59 59 59 60 60 59 59 59 58 57 57 57 57 57 58 58 58 58 58 58 58 59 59 60 60 60 60 61 61 61 61 61 61 62 62 62 62 62 62 62 62 62 63 63 63 63 63 62 61 61 61 61 61 60 59 58 
77 77 78 78 78 77 78 79 80 80 80 80 79 79 79 79 78 77 77 76 76 76 75 75 75 75 74 73 73 72 71 70 70 69 69 69 69 69 69 69 69 69 69 68 68 68 66 66 65 64 64 64 64 64 65 65 65 65 64 63 62 62 61 61 61 62 65 73 86 103 120 126 130 132 134 135 137 139 139 139 139 139 138 137 136 136 137 140 142 145 148 150 150 150 151 151 151 152 152 152 151 151 150 148 147 144 136 132 130 126 120 113 109 104 96 94 90 84 79 79 79 73 71 68 64 67 79 81 85 96 85 85 99 107 116 128 129 107 122 93 83 122 114 114 122 114 90 90 60 48 48 44 40 40 40 39 42 45 45 50 56 56 56 61 58 58 58 58 58 58 63 64 67 69 72 73 73 73 72 71 63 58 58 51 49 46 46 46 46 47 47 46 46 43 39 38 38 38 38 37 35 34 34 34 32 31 31 31 34 34 34 34 36 39 41 42 50 52 55 59 61 63 63 63 63 60 56 53 51 47 41 36 32 32 32 32 33 33 33 34 36 41 45 48 52 59 64 66 71 77 79 81 89 93 100 103 104 107 108 111 113 114 114 114 114 115 115 115 114 111 110 108 107 105 103 101 99 97 95 94 93 92 90 88 87 87 87 87 87 87 86 85 85 85 85 85 84 82 81 79 77 75 74 73 72 71 71 71 71 70 69 67 66 67 68 71 79 81 80 78 73 66 65 64 63 63 61 60 60 61 62 62 62 62 62 62 60 60 60 60 60 59 59 59 59 59 59 59 59 59 58 57 57 57 57 57 57 57 57 57 57 57 58 58 58 59 59 59 60 60 60 60 61 61 61 61 61 61 61 61 61 61 61 61 61 62 63 63 63 63 63 62 62 61 61 61 61 60 59 59 
78 78 79 80 80 80 80 81 81 81 81 81 81 80 80 80 79 79 79 79 78 78 77 77 76 76 75 75 74 73 72 71 70 70 69 69 69 70 69 69 69 69 69 69 68 67 66 66 65 64 64 63 63 64 64 64 64 64 63 62 62 61 60 60 60 61 62 65 75 91 110 120 126 128 130 131 134 136 138 139 139 139 138 136 136 136 136 137 141 143 146 148 150 150 150 151 151 151 151 151 151 150 150 147 147 145 141 135 132 130 124 116 114 112 99 96 94 90 88 88 81 76 71 68 64 67 79 81 85 89 77 74 77 65 75 86 65 63 64 56 52 55 55 52 80 51 46 48 46 42 44 44 40 40 39 38 39 43 44 46 55 54 55 56 55 53 49 47 44 44 44 46 48 48 48 49 47 46 39 44 39 39 41 41 39 34 39 37 37 39 39 37 37 37 36 37 37 37 37 37 35 34 34 32 31 31 31 30 30 34 34 34 34 34 33 31 29 29 29 30 32 32 33 33 32 31 29 29 29 32 32 32 32 32 32 32 33 33 33 34 36 41 45 52 59 64 70 72 77 81 83 85 93 99 103 103 105 107 110 113 114 114 114 114 114 114 114 112 111 109 107 106 104 103 102 100 97 95 94 93 92 90 89 87 86 87 87 86 86 85 84 84 83 83 82 82 81 79 77 75 75 73 72 71 70 70 70 70 69 66 66 65 65 66 70 77 83 85 85 81 76 69 66 65 63 63 60 59 59 61 62 62 62 62 62 60 60 60 60 59 59 59 59 59 59 59 59 59 59 59 57 57 57 57 57 57 57 57 57 57 57 58 58 58 58 59 59 59 59 59 59 60 60 61 61 61 61 61 61 61 61 61 61 61 61 61 62 63 63 63 63 63 63 62 62 61 61 61 61 60 
79 80 81 81 82 82 82 83 83 82 82 82 81 81 81 81 81 80 80 79 79 79 79 78 78 77 76 75 75 75 74 72 71 70 70 70 70 70 70 70 69 69 69 69 68 67 66 66 64 64 63 63 63 63 64 64 63 63 62 62 61 60 60 60 60 60 61 64 69 80 99 112 120 125 126 129 130 132 134 136 138 138 137 136 136 135 135 136 137 141 143 146 148 149 150 150 150 151 151 151 149 147 149 147 147 147 144 139 136 134 131 124 121 119 115 112 108 104 108 117 111 103 97 96 64 96 100 102 101 101 77 74 77 65 73 73 64 61 60 56 52 55 55 52 64 51 46 48 46 42 44 44 40 40 39 38 39 42 43 45 55 48 53 55 53 47 45 44 44 44 44 45 47 47 45 44 41 37 36 38 38 39 39 39 39 34 39 37 37 39 39 37 37 37 36 37 37 37 37 37 35 34 34 31 31 30 30 29 29 30 34 34 34 34 31 29 29 29 28 29 30 32 32 31 29 27 26 27 29 27 26 31 30 29 30 31 32 34 39 41 47 51 57 62 69 74 80 80 84 87 90 92 100 103 103 104 106 108 111 113 114 114 114 114 113 112 112 110 109 107 105 104 103 102 101 98 97 95 93 92 90 89 86 85 85 84 85 84 84 83 83 83 82 82 81 80 77 76 75 73 71 69 68 67 66 66 66 66 65 63 62 62 63 65 72 82 85 89 89 85 80 76 68 65 64 63 60 59 59 60 62 62 62 62 60 60 59 59 59 59 59 59 59 59 59 60 60 59 59 58 57 57 57 57 57 57 57 57 57 57 58 58 58 58 59 59 59 60 60 59 59 60 60 61 61 62 62 61 61 61 61 61 61 61 61 62 63 63 63 63 63 63 63 63 63 62 62 62 62 62 
81 81 82 83 83 83 83 83 83 83 82 82 81 81 81 81 81 80 80 79 79 79 79 78 78 77 77 76 75 75 74 74 72 71 70 70 70 70 70 70 69 69 69 68 67 66 66 65 64 63 63 62 62 63 63 63 63 63 62 61 60 60 59 59 59 60 60 61 64 69 81 99 112 119 124 126 128 129 131 132 136 137 136 136 136 134 134 134 134 135 141 143 145 147 148 149 149 149 150 149 147 147 147 147 147 147 146 144 142 139 136 136 135 135 134 130 128 125 125 125 123 123 117 111 100 102 130 132 111 111 107 89 88 86 77 75 69 64 64 60 58 58 56 55 64 65 51 69 50 50 50 50 50 57 57 57 58 45 45 62 73 55 66 73 62 49 49 47 44 44 44 46 46 46 44 43 39 36 36 36 35 35 39 39 35 34 36 35 36 37 37 36 37 37 36 37 41 45 45 45 45 45 42 41 31 31 31 30 30 34 34 30 27 31 27 27 28 29 28 29 30 32 27 26 26 24 24 24 26 25 24 25 27 27 33 39 40 41 66 67 71 76 82 87 91 95 98 98 98 98 100 103 104 105 106 107 110 110 112 113 114 114 113 113 112 110 109 108 106 105 103 102 101 100 99 97 95 94 92 90 89 86 85 84 83 83 83 83 82 82 82 81 80 80 78 77 75 73 71 69 68 67 66 65 64 64 64 63 62 60 60 62 63 64 73 84 89 92 92 91 88 80 76 68 65 64 60 59 59 60 61 61 61 61 60 59 59 59 59 59 59 58 58 59 59 60 60 59 59 58 57 57 57 57 57 57 57 57 57 57 58 58 59 59 59 59 60 60 60 59 59 59 60 60 61 62 62 61 61 61 61 61 61 61 62 62 63 63 64 64 64 64 63 63 63 64 64 64 64 64 
82 83 84 84 84 84 83 83 83 83 82 82 81 81 81 81 81 80 80 79 79 79 79 78 78 78 77 77 76 75 75 74 74 72 70 70 70 70 70 69 68 68 68 67 67 66 65 64 64 63 62 62 62 62 62 62 62 62 61 60 60 59 59 58 58 58 58 60 60 62 68 81 100 113 119 119 125 126 128 129 132 134 136 134 133 133 132 132 131 132 134 137 139 143 144 146 146 148 149 148 147 147 147 147 147 148 148 146 144 144 144 144 144 144 144 144 141 140 139 139 138 135 131 131 131 132 133 133 135 135 135 126 113 100 88 81 73 69 65 64 61 61 64 65 69 69 70 77 80 80 80 80 80 80 81 85 89 89 91 92 95 95 98 105 105 88 88 75 61 53 55 55 49 49 48 47 40 36 36 35 35 35 39 38 39 46 53 37 37 56 58 37 61 62 62 62 66 70 70 70 70 70 70 68 55 65 57 38 57 61 58 49 49 45 36 33 33 35 33 35 35 35 27 26 26 24 24 26 41 39 32 43 52 50 56 66 66 67 90 90 96 100 106 110 111 112 112 112 110 109 109 109 111 111 110 110 110 111 112 113 114 113 112 110 109 108 107 106 104 102 101 101 100 99 97 95 94 92 90 88 85 85 83 83 83 82 81 81 80 80 79 79 78 77 75 73 71 68 67 64 63 63 62 62 61 61 60 57 58 59 59 60 63 68 74 84 91 93 94 94 92 88 82 76 69 67 64 60 60 61 61 61 61 60 59 58 58 58 58 58 58 58 58 58 58 59 59 59 59 59 57 57 57 57 57 57 57 57 57 57 58 59 59 59 59 60 60 60 60 60 59 59 59 60 61 62 62 60 60 61 61 61 61 62 62 63 63 64 64 64 64 64 64 64 64 65 65 65 65 66 
84 84 85 85 84 84 84 83 83 82 82 82 81 81 81 80 80 79 79 78 78 78 78 78 78 78 77 76 75 75 75 74 73 72 72 71 70 70 69 68 68 67 67 67 66 66 64 64 63 63 62 62 62 62 62 62 62 61 61 60 59 59 58 58 58 58 58 58 58 58 60 69 84 101 109 111 120 123 123 126 128 129 132 132 132 132 131 131 129 129 132 134 135 138 141 143 144 146 148 147 147 147 147 147 147 148 148 147 146 145 145 145 146 146 148 149 149 149 149 150 151 151 151 151 152 152 152 151 151 150 148 142 135 130 122 119 117 116 112 107 107 107 105 105 107 107 107 111 113 113 113 110 104 104 104 109 114 115 115 115 115 115 119 120 120 120 112 106 100 99 98 95 88 83 70 56 44 41 41 36 39 41 51 51 55 82 101 58 58 61 61 62 98 105 99 103 103 103 103 103 100 97 97 97 98 98 96 94 91 84 83 82 81 67 63 63 67 68 68 69 69 71 71 71 71 71 49 63 79 63 63 82 91 85 85 94 94 95 103 107 114 117 121 121 120 119 116 115 114 113 113 113 113 114 113 112 112 112 112 112 113 112 111 110 108 107 105 104 102 100 100 99 98 95 93 91 89 87 85 85 82 82 82 81 81 81 80 79 78 76 76 76 74 73 71 68 66 64 63 61 61 60 58 58 58 57 57 56 56 58 58 60 64 69 74 83 89 93 94 95 94 93 89 83 77 73 67 65 62 62 61 61 60 59 58 58 58 58 58 58 58 58 58 58 58 58 59 59 59 59 58 57 57 57 57 57 57 57 57 59 59 59 59 59 59 60 61 61 60 60 59 59 59 60 61 61 61 61 61 61 61 61 62 62 63 63 64 64 64 65 64 64 64 64 65 65 65 66 67 67 
85 85 85 85 84 84 83 82 82 82 81 81 81 81 80 79 79 78 78 78 78 77 78 78 77 77 77 76 75 75 74 74 73 72 72 71 70 70 69 68 67 67 67 66 66 65 64 64 63 63 63 62 62 63 62 62 62 61 61 60 59 58 58 58 57 57 57 57 57 56 57 62 69 81 96 97 111 120 121 122 124 126 127 131 131 130 129 129 129 129 130 134 135 138 139 141 143 145 146 147 147 147 147 147 147 148 148 148 147 146 146 147 150 150 151 151 152 152 153 156 160 160 161 163 163 163 160 156 153 153 152 150 147 141 138 132 124 124 121 119 118 118 118 119 120 120 122 125 125 125 122 120 120 120 121 124 128 128 128 125 122 125 127 128 128 128 128 125 112 109 109 108 108 108 95 94 83 70 69 66 66 82 101 101 109 111 111 111 111 111 112 121 127 127 127 127 123 121 121 121 112 109 109 109 111 111 111 107 102 96 94 91 88 82 81 81 79 79 79 80 81 82 82 83 84 86 90 90 91 91 91 91 94 96 97 98 102 105 110 115 121 123 125 123 122 121 120 118 116 115 114 114 115 116 115 115 113 113 112 112 112 112 110 108 106 105 103 101 100 99 98 95 92 91 88 87 84 82 80 80 80 80 80 80 80 79 79 76 76 74 73 73 70 69 67 65 62 60 57 56 56 56 56 56 55 55 54 54 55 57 58 64 68 69 73 83 88 93 93 94 95 94 94 91 88 81 74 70 66 63 61 61 60 58 58 58 58 58 58 58 58 58 58 58 58 58 58 59 59 59 59 59 58 57 57 57 57 57 58 59 59 59 59 60 61 61 61 61 61 60 59 60 60 61 62 62 62 61 61 61 62 62 63 63 64 64 64 65 65 65 65 65 65 65 65 65 66 66 67 68 
84 84 84 84 84 83 82 82 81 81 81 80 80 80 79 78 78 78 78 77 77 77 77 76 76 76 76 75 74 74 74 74 73 72 72 72 71 69 68 68 67 67 66 66 66 64 64 64 63 63 63 62 62 63 62 62 62 61 61 60 59 59 58 58 57 57 57 57 57 56 56 56 57 65 80 81 97 111 118 121 122 122 125 126 129 129 129 129 128 129 130 132 134 136 138 138 141 142 144 145 145 145 145 147 147 148 148 148 148 148 147 150 152 153 155 156 156 159 162 164 165 165 166 167 169 169 166 163 160 158 156 153 150 146 141 140 138 137 135 135 135 136 139 139 139 139 139 137 135 135 135 135 135 135 137 137 138 138 138 138 137 135 133 133 132 133 133 131 130 129 129 129 129 129 121 113 108 108 105 113 122 124 126 126 126 126 126 126 132 132 134 134 134 131 131 131 131 130 130 128 125 123 120 118 118 118 118 115 111 108 102 98 98 98 99 99 99 99 96 95 95 95 95 95 95 95 95 92 92 92 92 94 96 98 100 104 107 111 117 121 124 127 127 126 123 122 120 120 119 118 117 117 117 116 116 116 116 113 113 112 112 110 108 106 104 103 101 99 98 96 92 91 89 87 85 84 81 80 80 79 79 79 79 79 79 77 76 73 72 70 69 69 67 65 63 61 57 56 56 55 54 54 54 54 53 53 53 53 54 58 63 67 69 71 73 77 83 91 93 94 94 95 95 94 94 89 82 75 71 67 63 61 60 59 58 58 58 57 58 58 58 58 58 58 58 58 58 59 59 59 59 59 59 58 58 58 58 58 58 59 59 60 61 61 61 61 61 61 61 61 60 60 61 62 62 62 62 62 61 62 63 63 64 64 64 64 64 65 65 65 65 65 65 65 66 66 66 67 67 67 
82 83 84 83 83 82 81 80 80 80 80 80 80 79 78 78 78 77 77 77 77 76 76 76 75 75 74 74 74 74 73 72 72 72 72 71 71 69 68 67 67 67 66 66 66 64 64 63 63 63 63 63 62 62 62 62 62 61 61 60 60 59 58 58 58 58 57 57 57 56 56 56 56 57 65 73 96 108 111 119 120 121 122 125 126 126 128 128 128 128 129 130 132 134 135 137 138 140 142 143 143 144 144 145 146 148 148 148 148 149 150 152 154 157 160 161 163 164 165 166 170 170 170 170 170 170 169 166 163 160 158 156 152 149 143 142 141 141 141 142 143 144 145 145 145 145 144 143 140 138 137 137 138 139 139 139 139 138 138 138 137 137 137 135 136 136 136 136 135 133 133 134 134 134 134 127 122 123 127 129 136 138 138 138 138 138 137 136 139 139 139 139 137 133 132 131 131 130 130 128 127 125 123 122 121 120 119 119 118 115 111 109 109 109 109 109 106 102 100 99 99 98 98 98 98 97 95 95 94 94 95 97 100 102 105 109 114 117 121 124 127 128 128 127 126 122 121 120 120 120 120 120 119 119 118 117 116 114 113 112 111 110 106 103 101 99 98 96 94 92 90 88 86 85 84 82 80 80 79 79 78 78 77 77 76 73 72 70 69 66 66 65 63 61 58 57 56 56 55 54 53 52 52 52 51 51 52 52 55 61 67 69 70 71 73 74 83 90 93 93 94 95 95 95 96 94 90 83 76 72 67 64 61 60 58 58 57 56 57 58 58 58 58 58 58 58 58 58 59 59 59 59 59 59 58 58 58 58 58 59 60 61 61 61 61 61 61 61 61 61 61 61 62 63 64 64 64 63 63 63 63 64 64 64 64 65 65 65 65 66 66 66 66 66 66 67 67 67 66 66 
80 81 82 82 82 81 80 79 79 80 80 80 79 79 78 78 77 77 77 77 76 75 75 75 74 73 73 72 72 72 72 72 72 72 71 71 70 69 68 67 67 67 66 66 66 64 64 63 63 63 63 63 62 62 62 62 61 61 61 60 60 59 58 58 58 58 58 57 57 56 56 56 56 56 62 69 81 97 108 114 118 118 119 122 124 125 126 126 126 126 127 128 130 131 134 135 136 138 140 141 141 141 143 144 145 147 148 148 149 150 152 154 157 160 161 163 164 165 166 167 170 170 170 170 170 170 169 166 163 162 159 157 155 151 146 143 142 141 141 142 143 144 145 145 145 146 146 144 144 143 140 140 140 140 140 140 139 139 139 139 139 138 138 137 137 137 137 139 139 135 135 135 135 135 135 134 133 133 134 137 138 140 140 140 140 141 143 143 142 141 140 139 137 133 131 131 130 130 130 128 127 126 124 122 122 121 121 121 119 117 115 114 112 111 110 109 106 103 100 99 99 98 98 98 98 98 97 97 96 96 97 101 105 109 111 115 117 121 124 127 128 128 128 128 126 122 120 120 120 120 120 120 119 119 118 117 116 115 113 112 110 106 103 101 98 97 95 93 91 89 87 86 85 83 82 81 80 79 79 78 76 76 74 73 73 71 69 66 66 60 60 59 59 58 57 56 56 55 54 53 51 51 51 51 50 50 52 53 58 64 71 71 71 71 73 73 83 90 92 93 93 94 95 96 97 97 96 92 85 80 73 67 64 62 59 57 56 56 56 57 59 59 59 58 58 58 58 58 59 59 59 59 59 59 58 58 58 58 59 59 61 61 61 61 61 61 61 61 62 62 62 63 63 64 65 65 65 64 64 63 63 63 64 64 64 65 65 65 66 66 66 66 66 67 67 67 67 67 66 65 
79 80 80 81 80 80 79 79 79 79 79 79 79 78 77 77 77 77 76 75 75 75 74 74 74 73 72 72 72 72 71 71 71 71 71 70 69 69 67 66 66 67 66 66 66 64 64 63 63 62 62 62 61 61 61 61 61 61 60 60 59 59 58 58 58 58 58 58 58 57 57 56 56 56 56 58 68 81 97 106 111 114 115 118 121 124 124 125 125 124 124 126 126 129 130 132 133 135 138 139 140 140 141 142 144 146 148 148 150 151 153 155 158 161 162 163 164 165 166 167 170 170 170 170 170 170 167 165 163 160 159 157 155 151 146 143 142 141 141 142 143 144 145 145 145 146 146 145 145 145 144 143 143 141 141 140 140 140 139 139 139 139 138 137 137 137 137 139 139 135 135 135 135 135 135 134 133 133 134 137 138 140 140 140 140 141 143 143 142 141 140 139 135 132 131 129 127 127 129 128 127 126 123 122 122 121 121 121 119 117 115 114 112 111 110 109 106 103 100 99 99 98 98 97 95 95 95 97 98 100 105 109 111 112 116 119 121 124 125 127 128 128 128 126 123 121 120 120 120 120 120 120 119 119 118 117 116 115 112 110 106 103 100 98 95 94 92 91 89 87 86 85 84 83 82 81 80 79 78 76 74 73 71 70 69 66 66 63 60 59 59 59 58 58 57 56 55 55 53 52 50 49 48 48 49 50 52 55 62 68 72 72 72 72 73 73 83 90 92 93 93 93 93 96 98 98 98 97 94 87 80 73 69 67 62 59 57 56 57 58 59 59 59 58 58 58 58 58 59 59 59 59 59 58 58 58 58 58 59 60 61 61 61 61 61 61 61 61 62 62 62 63 64 65 65 65 65 65 64 63 63 63 64 64 65 65 65 66 66 66 66 67 67 67 68 67 67 67 65 64 
78 79 79 80 79 78 78 77 77 78 79 78 77 77 77 76 75 75 75 75 74 74 74 73 73 72 72 72 71 71 71 71 71 70 70 69 69 68 67 66 66 66 66 66 66 64 63 63 62 62 62 61 60 60 60 60 60 60 60 59 59 59 58 58 58 58 58 58 58 58 57 56 56 55 55 56 58 68 81 97 106 109 112 114 117 120 121 121 121 121 120 122 122 124 126 129 130 133 135 136 138 138 139 140 142 145 147 148 149 150 153 155 157 161 162 163 163 164 165 166 167 167 167 167 167 167 166 165 163 160 158 157 156 152 148 144 143 142 141 139 139 139 140 140 141 142 146 145 145 145 144 143 143 143 143 141 140 141 139 139 139 139 138 137 137 136 135 136 135 133 133 133 133 133 134 133 133 133 133 134 137 139 139 139 140 141 143 143 142 141 139 135 132 129 127 126 126 126 127 127 126 124 122 122 121 121 121 119 118 116 115 113 112 111 108 106 100 96 92 90 90 90 90 91 93 95 95 97 101 105 109 111 112 116 117 120 122 124 125 125 127 128 126 124 122 120 120 119 119 119 118 118 118 117 117 116 114 113 109 106 103 101 98 95 93 92 91 89 87 86 84 83 82 82 81 80 78 78 75 73 71 70 69 66 65 63 62 60 59 59 58 58 58 57 56 55 55 53 52 50 48 48 47 47 48 50 53 58 65 72 73 73 73 73 73 74 83 92 93 93 93 93 93 95 98 98 99 99 97 94 88 82 77 72 67 62 60 58 58 59 60 59 59 58 58 58 58 58 59 59 59 59 58 58 58 58 58 59 59 61 61 61 61 61 61 61 61 61 62 62 63 63 64 65 65 65 65 65 64 64 64 64 64 65 65 65 66 66 66 67 67 67 67 68 68 68 68 67 66 65 
76 76 77 77 77 76 75 75 75 76 76 76 76 75 74 73 73 73 73 73 73 73 74 73 73 72 71 70 70 70 70 70 70 69 69 69 68 67 66 66 66 66 66 66 66 64 63 63 62 61 61 60 60 59 59 60 60 60 59 59 59 59 58 58 58 58 58 58 58 58 58 56 55 55 54 55 56 63 72 88 99 108 109 111 113 115 117 117 117 117 117 119 119 121 122 125 126 129 130 133 135 135 136 138 140 144 146 147 149 150 152 154 157 158 161 162 163 163 163 164 165 165 166 166 166 165 165 163 161 159 158 157 157 155 151 146 144 142 140 138 137 136 134 134 134 136 137 139 143 144 144 143 143 143 143 141 140 139 139 139 138 138 137 134 133 133 131 128 124 123 123 125 125 125 126 126 127 127 127 126 126 126 126 126 126 127 129 132 132 132 132 131 127 125 124 124 124 124 125 126 124 122 120 118 118 118 116 116 111 106 102 99 97 96 94 92 84 82 81 82 85 86 88 90 92 93 95 98 103 109 111 112 113 116 117 119 121 123 124 125 125 125 123 122 120 120 119 119 119 118 118 118 117 116 115 114 112 110 107 104 102 98 95 94 92 91 90 88 86 84 83 80 80 78 78 78 75 74 72 70 70 67 65 64 63 61 60 60 59 58 58 58 57 55 55 54 53 51 50 48 46 46 46 47 48 52 57 63 69 75 75 74 73 73 73 77 87 94 95 95 94 93 93 96 98 99 99 100 99 97 95 88 82 77 72 66 62 60 60 60 60 60 60 58 58 58 58 58 59 59 59 59 59 58 58 59 59 60 61 61 62 62 62 62 62 62 62 62 62 62 63 63 64 65 65 65 65 65 64 64 64 64 64 65 66 66 66 66 67 67 67 67 68 68 68 68 68 68 67 66 
72 73 74 74 74 73 71 71 71 71 71 71 71 71 71 71 71 71 71 70 70 70 70 70 72 71 71 70 70 70 70 70 69 69 68 68 67 67 66 66 66 66 66 66 65 64 63 62 62 61 61 60 59 59 59 59 59 59 59 58 58 58 57 57 57 57 57 58 58 58 57 56 55 55 54 54 55 59 69 81 92 106 109 110 111 111 114 115 115 115 115 116 117 118 119 121 122 125 127 129 130 130 134 136 139 142 144 145 147 147 150 152 155 157 158 160 161 161 161 162 162 162 163 163 164 163 162 161 159 158 158 157 157 155 152 147 145 143 140 138 136 134 134 132 131 129 129 130 130 131 131 131 139 141 141 141 139 139 139 139 138 138 133 132 130 128 126 122 122 117 116 116 117 117 117 118 118 118 117 115 113 113 114 114 115 115 116 117 118 120 120 120 119 118 118 118 117 117 117 117 117 115 110 105 102 100 100 99 89 86 80 77 76 76 76 75 73 73 77 80 82 85 87 89 92 93 98 102 104 109 111 112 112 113 117 118 118 120 122 122 123 123 122 120 119 119 119 118 118 118 117 117 116 115 114 112 110 107 105 102 100 96 95 92 92 90 88 85 84 82 80 78 78 75 75 74 72 71 70 69 67 65 64 62 61 60 60 59 58 58 58 57 55 54 52 51 50 48 48 46 46 46 46 47 52 56 62 67 72 75 75 75 73 73 73 80 91 95 97 98 96 95 95 97 99 99 102 104 103 101 100 95 88 82 77 72 65 62 61 61 60 60 60 59 58 58 58 58 59 59 59 59 59 59 59 60 60 61 62 62 63 63 63 63 63 63 63 62 62 62 63 64 64 65 65 65 65 65 65 64 64 65 66 66 66 66 66 67 67 67 67 67 68 68 68 68 69 69 68 68 
69 70 71 71 71 70 68 68 68 68 68 68 68 67 67 67 69 69 69 68 67 67 67 67 67 67 67 68 70 70 69 69 68 65 65 66 66 66 66 66 66 66 66 66 64 63 63 62 61 61 60 59 59 59 59 59 59 58 58 58 57 57 57 57 57 57 57 57 58 58 57 56 55 54 53 54 55 56 72 88 99 109 109 110 110 110 111 112 112 113 113 114 115 116 117 118 118 121 123 125 128 130 130 134 137 141 143 144 144 145 147 149 152 154 157 157 158 158 159 159 160 160 162 162 162 162 162 160 159 158 157 157 157 155 153 149 147 145 142 139 136 134 132 131 129 128 126 124 121 119 116 115 119 122 126 129 131 132 134 134 133 130 130 128 126 123 121 116 115 114 114 114 114 114 114 115 114 112 111 107 107 107 110 110 110 110 109 109 109 110 111 112 112 112 112 109 105 102 100 100 100 97 91 84 79 76 76 76 75 73 69 69 69 69 71 73 73 73 74 78 80 84 86 91 93 96 99 102 103 105 110 111 111 112 113 115 116 117 118 119 120 120 119 118 118 119 118 118 118 118 116 116 114 113 111 110 107 105 103 101 98 96 94 92 91 88 85 83 82 80 78 77 75 74 72 71 70 69 68 66 65 64 62 61 60 59 59 58 58 57 56 55 53 51 50 48 48 46 46 46 46 46 47 51 55 60 63 69 73 75 75 75 75 75 75 83 93 99 99 99 98 97 97 99 101 103 106 106 106 104 103 99 92 87 81 74 69 63 62 62 61 60 60 59 59 59 58 59 59 59 59 59 59 59 60 60 61 62 62 63 63 64 64 64 64 64 64 64 63 63 64 64 65 65 65 65 65 65 65 65 66 67 67 67 66 67 67 67 68 68 68 68 68 68 68 69 69 69 69 69 
66 66 67 68 68 67 68 68 67 67 68 66 65 64 64 66 66 66 67 66 66 66 65 65 65 67 67 67 67 67 67 63 63 63 63 64 65 65 65 65 65 65 65 64 63 63 62 61 61 60 60 59 59 59 59 59 59 58 57 57 57 57 57 57 57 56 56 57 57 57 57 56 55 54 53 53 53 63 75 91 107 111 110 110 110 109 109 110 111 112 113 113 114 115 115 115 116 118 120 122 125 127 130 131 136 139 141 142 143 144 144 146 149 152 154 156 157 157 157 157 158 159 160 161 161 161 161 159 158 157 157 157 157 156 153 150 147 147 144 142 138 134 132 131 128 126 124 121 116 114 112 110 107 103 99 98 98 101 101 101 102 102 102 103 103 103 98 95 93 93 90 87 84 83 83 82 81 80 78 75 75 75 75 78 80 81 83 83 83 83 82 79 78 78 77 77 75 71 70 68 65 64 63 62 62 62 62 64 66 66 67 68 68 69 71 73 73 73 74 77 82 86 88 93 96 98 101 102 102 103 105 110 110 112 112 113 115 115 116 117 117 117 117 115 116 116 117 116 116 116 116 114 112 111 110 107 106 103 101 99 98 96 93 91 89 85 83 82 80 78 77 75 73 71 70 69 68 67 66 65 64 62 61 60 59 59 58 57 57 56 55 53 51 50 48 46 46 45 45 46 46 47 50 54 57 62 65 69 73 75 75 75 75 75 78 83 95 100 100 100 99 98 98 100 103 106 107 108 107 106 105 101 97 91 85 79 73 68 63 62 61 60 60 60 59 59 60 60 60 59 59 59 60 60 61 61 62 62 63 63 64 64 65 65 65 65 65 65 65 65 66 66 66 67 67 67 67 67 67 67 67 67 67 67 67 68 69 70 70 69 68 68 68 68 69 69 70 71 71 70 
66 66 66 66 67 66 66 66 66 66 65 64 64 64 64 64 64 65 66 66 65 65 64 64 64 64 64 64 64 64 63 61 61 61 61 62 64 64 65 65 65 64 64 63 62 61 61 61 60 60 59 59 59 59 59 58 58 56 56 56 57 57 57 57 56 55 55 56 56 56 56 55 54 54 54 54 56 72 88 103 114 113 112 110 109 107 107 109 109 111 112 113 114 114 115 115 116 117 118 120 122 125 127 130 133 136 139 140 142 143 143 144 146 149 152 154 155 155 156 156 157 158 159 160 160 160 160 159 157 157 157 157 157 156 153 150 147 147 145 143 139 136 133 131 128 125 122 119 115 112 109 106 102 99 96 92 88 84 82 80 79 78 75 74 72 68 63 60 54 53 52 50 48 47 46 46 45 44 44 43 43 43 44 45 45 46 48 51 54 54 54 55 56 56 56 56 56 55 55 55 57 57 58 61 61 61 62 63 65 65 66 67 68 69 71 73 74 76 77 80 83 88 92 94 97 99 101 102 102 102 103 105 108 110 112 112 113 113 113 114 114 115 114 114 114 114 115 116 116 115 113 112 111 108 106 103 102 100 99 99 96 95 92 89 85 83 81 80 78 77 74 73 71 70 69 67 67 66 65 64 63 62 61 59 59 58 57 56 56 55 53 51 49 47 46 46 45 45 46 46 47 49 52 55 60 62 65 69 72 75 75 75 76 77 80 85 95 101 101 101 99 99 99 102 104 106 108 108 108 107 107 103 99 94 88 84 79 73 68 63 62 61 61 61 60 60 60 60 60 60 60 60 60 61 61 61 62 63 63 64 64 65 65 65 65 65 65 65 65 66 66 66 66 67 67 67 67 67 67 67 67 67 67 67 68 69 70 70 70 70 69 69 69 69 69 70 71 72 72 71 
64 64 64 64 63 62 62 64 64 64 64 63 62 62 62 62 63 64 64 64 64 63 62 61 61 61 61 61 61 61 61 61 59 59 59 60 61 61 62 62 62 62 62 61 61 60 59 59 59 59 59 59 59 59 59 58 57 55 55 56 56 57 57 57 55 54 54 55 56 56 56 55 54 53 54 55 66 87 103 114 117 117 113 107 106 102 99 100 107 109 111 112 113 114 115 115 117 118 118 119 120 122 125 128 131 135 136 139 140 140 142 143 145 148 150 152 153 154 154 155 155 156 157 158 159 159 157 157 157 156 156 156 156 154 152 149 147 146 144 142 139 136 133 132 128 125 121 116 113 110 106 102 97 94 91 88 83 80 79 74 71 69 64 58 52 47 43 40 37 35 35 37 37 37 37 37 39 42 42 42 43 43 44 45 45 46 48 48 48 48 48 49 50 50 53 54 54 54 55 55 56 56 57 58 59 61 61 62 64 65 66 69 71 73 74 75 75 76 79 81 87 89 92 94 97 99 101 101 102 102 102 104 105 108 110 112 112 112 113 113 113 114 114 114 114 114 114 114 114 113 111 110 107 106 103 102 100 99 98 96 95 92 89 85 83 81 80 78 76 75 73 71 69 69 67 67 66 65 64 63 63 62 60 59 58 57 57 56 55 53 51 49 47 46 45 45 45 45 46 47 49 51 54 56 61 63 65 68 71 74 75 75 76 77 81 89 97 101 101 101 99 99 99 100 103 105 108 108 108 107 107 106 101 96 92 88 84 79 74 69 65 62 61 61 61 61 61 60 60 60 61 61 61 61 61 62 62 63 63 64 65 65 65 65 65 65 65 65 66 66 66 66 66 67 67 67 67 67 67 67 67 67 67 68 69 70 70 70 70 70 70 69 69 69 70 71 72 72 72 72 
64 64 63 62 61 60 60 61 61 62 62 61 60 60 60 60 61 62 62 62 61 60 59 58 57 57 57 57 57 57 57 57 57 57 58 58 58 59 59 60 60 60 59 59 58 58 58 57 57 57 58 58 59 59 59 56 55 55 55 55 55 56 56 56 54 54 54 54 55 55 55 55 54 54 56 62 80 101 113 117 118 117 113 105 95 88 78 92 99 105 109 111 113 114 115 117 118 118 118 119 120 120 122 127 129 131 133 136 136 138 139 141 143 146 148 150 152 153 153 153 154 154 156 156 157 157 157 155 154 153 152 154 154 152 150 149 147 146 144 141 138 135 133 132 128 124 120 116 112 109 105 99 94 90 88 83 79 76 71 69 64 58 54 51 47 44 42 40 37 35 35 37 37 37 37 37 39 42 42 42 43 43 44 45 45 46 48 48 48 48 48 49 50 50 53 54 54 54 55 55 56 56 57 58 59 61 62 63 65 67 69 73 74 75 75 76 77 79 81 83 87 89 91 94 97 99 101 102 102 102 102 103 105 105 107 110 110 108 109 111 113 114 114 114 114 114 114 113 112 111 110 108 106 104 102 101 100 99 97 95 91 89 85 83 82 80 78 77 75 73 71 69 67 67 67 66 66 64 63 63 63 62 60 58 57 57 56 54 53 52 49 47 46 44 44 45 45 46 46 48 50 53 55 58 61 63 65 68 71 72 74 75 76 78 85 93 101 102 102 101 98 98 98 99 100 103 105 106 107 106 106 104 103 98 95 92 88 84 79 75 71 66 63 62 61 61 61 61 61 61 62 62 62 62 62 63 63 63 64 64 65 65 65 65 65 65 65 65 66 66 66 66 66 66 66 66 66 67 67 67 67 67 68 68 69 70 70 70 70 70 70 69 69 69 69 70 72 72 73 73 
64 63 61 60 59 59 59 59 59 60 60 59 58 58 58 58 59 59 59 59 58 57 55 54 54 54 54 54 54 54 55 57 57 57 57 57 57 58 58 58 58 58 57 57 57 57 56 56 56 56 57 57 58 58 56 55 55 54 53 54 55 55 55 54 54 54 54 54 54 54 55 54 54 54 60 76 94 110 117 118 118 115 105 93 76 69 64 75 83 99 104 109 112 114 115 117 119 119 120 120 120 120 121 123 127 128 130 132 133 136 137 138 141 143 146 149 150 151 151 152 152 152 153 153 154 154 153 152 152 152 150 152 152 152 149 148 146 145 143 140 138 135 132 131 127 123 120 116 112 109 104 99 94 90 87 81 77 73 69 67 64 58 54 51 47 44 42 40 37 35 35 37 37 37 37 37 39 42 45 46 46 46 47 48 49 49 49 48 48 48 48 49 50 50 53 55 55 57 57 57 57 57 58 59 61 63 65 65 67 71 74 75 75 75 76 77 79 81 83 87 88 90 92 94 97 101 102 102 103 102 102 104 105 105 105 105 106 106 108 109 111 114 114 114 114 114 113 112 111 111 108 106 104 102 101 100 98 96 94 91 89 87 85 82 80 78 77 75 74 72 70 67 67 66 66 66 64 63 63 63 62 61 59 58 56 56 54 52 51 49 47 45 43 42 43 44 45 46 47 49 51 55 56 58 61 63 65 68 71 72 72 74 76 78 86 97 101 104 104 101 99 98 98 98 99 100 101 103 104 106 104 103 101 99 96 94 92 90 87 82 77 71 66 64 62 61 61 61 61 62 63 64 64 64 64 63 64 64 64 64 65 65 65 65 65 65 65 65 66 66 66 66 66 66 66 66 66 66 67 67 67 67 68 69 69 70 70 70 70 70 70 69 69 69 69 70 71 72 73 73 
63 61 59 58 58 59 59 59 59 59 58 57 56 56 56 56 57 57 57 56 55 54 54 54 54 54 54 54 54 54 54 54 55 57 57 57 57 57 57 57 56 56 56 56 56 56 56 56 56 56 55 56 56 56 56 55 53 53 53 54 54 54 55 55 54 54 54 54 54 54 54 54 54 58 74 92 108 117 118 118 117 113 103 82 62 48 48 52 77 92 100 104 109 112 115 118 119 120 121 121 121 120 121 122 123 125 127 128 131 132 135 137 138 141 144 147 148 149 149 150 150 150 150 151 151 152 152 151 151 151 150 152 152 151 149 148 145 144 142 139 136 134 132 131 127 123 120 117 114 109 104 101 97 91 88 83 79 74 71 68 65 63 58 54 50 47 44 43 43 43 45 45 46 47 47 47 51 54 58 58 58 56 56 56 57 57 57 58 58 58 58 58 58 58 58 58 61 61 61 61 60 60 61 62 64 65 67 69 74 75 77 77 77 78 78 79 82 84 87 88 89 91 92 94 97 102 103 103 103 104 104 104 104 104 104 104 105 106 107 109 112 114 114 114 114 113 112 111 111 111 108 106 104 102 100 98 96 94 93 91 89 86 83 82 80 77 75 74 72 71 69 67 66 65 65 64 63 63 63 63 62 60 58 56 55 54 52 50 49 47 45 43 42 42 42 43 46 46 48 50 53 56 57 59 60 62 66 69 71 72 72 72 74 77 86 97 103 104 104 102 100 98 98 98 98 96 97 98 101 102 103 102 100 99 97 95 94 94 91 88 82 77 71 67 64 62 61 61 62 62 64 64 65 65 65 64 64 64 64 65 65 65 65 65 65 65 65 65 66 66 66 66 66 65 65 65 66 66 66 67 67 68 68 69 69 70 70 70 70 70 70 69 69 69 69 69 70 71 72 73 
59 58 57 56 56 57 58 58 58 58 57 56 55 54 54 54 55 55 55 54 53 52 52 52 54 54 54 54 54 54 54 54 54 54 55 55 55 55 55 56 56 56 56 56 56 56 56 56 55 55 55 54 54 54 54 53 53 53 53 54 54 54 54 54 54 54 54 54 54 54 54 53 55 69 90 108 117 118 118 117 116 105 91 62 45 28 28 45 57 78 100 103 107 109 112 117 120 121 121 122 122 122 121 122 122 123 124 126 128 131 133 136 138 140 143 144 147 148 148 148 148 148 149 149 150 150 151 151 151 151 151 151 151 150 149 148 146 144 144 139 136 135 132 131 130 125 122 118 116 114 109 103 97 92 89 86 81 77 74 71 68 65 64 63 63 63 62 62 62 62 62 63 64 66 67 68 71 73 76 76 76 73 71 71 71 72 74 76 76 76 76 76 70 68 68 68 72 72 72 70 70 70 71 73 75 77 80 81 83 84 84 84 84 84 85 88 88 88 88 89 91 92 93 97 102 103 104 104 105 106 106 106 105 105 104 104 105 106 108 109 112 113 114 113 112 111 111 111 111 108 108 104 102 101 98 96 94 93 91 90 88 85 83 82 80 77 74 73 72 71 69 67 66 65 65 64 63 63 63 62 60 58 56 54 53 52 50 48 47 45 42 41 41 41 42 42 46 46 49 51 54 55 57 59 60 62 66 69 71 72 72 72 72 75 86 97 103 105 105 102 100 99 98 98 96 95 95 95 97 99 101 100 100 97 96 95 94 94 94 92 89 85 78 72 66 64 62 62 62 62 64 65 65 65 65 65 65 65 65 65 65 65 65 65 65 65 65 65 65 66 66 65 65 65 65 65 65 66 67 67 68 68 69 69 69 69 70 70 70 70 70 69 69 69 69 69 70 71 71 72 
57 55 55 54 54 54 55 56 56 56 54 54 54 54 54 54 54 54 53 52 51 50 50 50 50 51 54 54 54 54 54 54 54 54 54 54 54 54 54 54 55 56 56 56 56 56 55 55 54 54 54 54 54 54 54 53 53 53 54 54 54 53 54 54 54 55 55 54 54 54 54 55 63 79 100 117 120 120 119 117 115 103 82 50 26 23 23 27 52 77 98 102 106 108 110 113 119 120 123 123 124 123 122 122 123 124 124 125 126 128 131 135 137 138 142 143 144 146 148 148 148 148 148 149 149 150 150 150 150 151 151 151 151 150 150 148 146 146 146 142 139 138 135 132 131 130 125 122 118 117 115 114 108 102 98 93 88 86 86 84 82 79 75 74 74 74 74 74 74 73 73 73 73 75 77 79 80 83 85 85 85 82 81 81 81 82 85 86 86 86 84 83 81 77 77 77 79 79 79 78 78 78 79 80 81 83 85 86 89 89 89 90 90 90 93 93 93 92 92 92 95 97 102 102 105 106 107 107 107 107 107 107 107 106 104 104 106 108 109 111 112 114 114 112 112 111 111 111 108 108 107 104 100 99 96 95 94 93 92 89 86 85 83 80 78 76 73 72 72 71 69 67 66 65 64 63 63 63 62 60 58 56 53 51 50 50 48 47 44 41 39 39 39 40 41 42 45 47 50 53 54 55 57 59 60 62 66 69 71 72 72 71 71 72 85 97 103 104 104 100 100 99 98 97 95 93 92 93 94 96 97 99 97 96 95 95 94 94 94 94 93 89 85 77 71 66 63 62 62 62 64 65 65 66 65 65 65 65 65 65 65 65 65 65 65 65 65 65 65 65 65 65 65 65 65 65 65 66 67 68 69 69 69 69 69 69 69 70 70 70 70 69 69 69 69 69 70 70 70 71 
55 54 53 52 52 52 52 52 52 52 52 52 52 52 52 52 52 52 51 51 51 50 50 49 50 50 51 51 51 51 51 52 54 54 54 54 53 53 53 53 53 54 54 55 55 55 55 54 54 54 54 54 54 54 53 53 53 54 54 55 55 54 54 54 54 55 55 54 54 54 54 56 74 96 117 120 121 120 120 119 115 91 62 34 15 12 12 16 50 76 96 102 106 108 109 111 113 115 121 124 124 124 124 123 124 125 125 125 126 128 131 134 136 138 140 142 143 144 143 143 144 146 147 148 149 149 150 150 151 152 152 152 152 151 150 150 148 148 148 146 143 142 137 137 137 137 136 133 131 124 118 117 117 117 117 117 116 112 109 108 106 105 101 97 97 97 99 101 106 106 107 108 111 111 112 113 116 117 117 117 112 107 107 107 107 105 102 100 100 100 101 101 101 101 100 99 98 97 97 97 101 101 101 101 102 102 102 102 100 99 98 98 98 98 99 100 100 100 100 100 102 103 106 109 110 111 111 111 111 111 110 109 108 108 108 108 108 109 111 113 114 114 114 112 112 111 111 109 108 107 105 102 100 97 96 95 94 93 92 90 88 84 82 80 76 73 73 72 72 71 70 68 67 65 64 63 63 62 59 58 55 52 50 50 48 48 46 44 41 38 38 38 39 39 41 43 46 47 50 53 54 55 56 58 60 63 66 69 72 72 72 69 69 69 82 97 103 104 104 101 100 100 99 98 94 91 91 91 92 93 94 96 96 95 93 92 92 94 94 94 94 94 89 85 75 69 64 63 63 62 63 64 65 66 66 66 66 65 65 65 65 65 65 65 64 64 65 65 65 65 65 65 65 65 65 65 65 67 67 68 69 69 69 69 69 69 69 69 69 69 69 69 69 69 69 69 69 70 71 71 
52 52 52 51 51 50 51 51 51 51 51 51 51 51 51 51 51 51 51 51 51 50 49 49 49 50 51 51 51 51 51 52 52 54 54 53 53 53 53 53 53 53 53 54 54 54 54 54 54 54 54 54 54 54 54 54 54 54 55 55 55 55 55 55 55 56 56 55 54 54 55 65 84 105 119 121 122 121 119 117 105 82 53 25 10 9 10 15 43 70 95 100 107 108 110 111 111 113 115 123 124 125 125 125 125 126 125 126 128 129 131 133 135 137 139 140 141 142 141 141 142 143 146 147 148 149 150 151 152 152 152 152 152 151 151 150 150 150 149 148 145 144 143 141 141 141 140 139 137 131 125 124 123 119 125 125 125 123 121 119 119 118 116 116 116 121 125 128 129 129 131 131 131 131 131 132 133 133 133 130 124 120 120 120 119 119 116 113 112 112 112 112 112 112 111 110 109 108 108 108 108 108 108 108 108 108 108 108 105 104 103 103 103 103 104 105 107 107 107 107 108 109 111 111 111 112 113 114 114 114 114 114 114 114 114 114 114 114 114 114 115 115 114 113 112 111 110 108 108 107 105 101 98 97 96 95 95 93 92 91 88 84 82 80 76 73 73 72 72 72 70 69 68 66 63 63 60 56 55 53 52 50 50 47 45 44 42 40 38 37 36 37 38 38 40 43 47 49 52 53 54 54 55 58 61 64 67 69 72 72 72 68 68 68 81 96 103 103 103 102 101 100 100 99 95 91 90 90 90 91 92 92 92 91 89 88 88 90 92 94 94 96 94 89 83 74 67 65 64 63 63 64 64 65 65 66 66 65 65 65 65 64 64 64 64 64 64 65 65 65 65 65 65 65 65 65 66 67 68 69 69 69 69 69 69 69 69 69 69 69 69 69 69 69 69 69 69 69 70 70 
50 50 49 49 49 49 50 50 50 50 50 50 50 50 50 50 51 51 51 51 51 50 50 50 50 50 51 51 51 51 51 52 52 52 54 53 53 53 53 53 52 52 52 53 54 54 54 54 54 54 54 54 54 54 54 54 54 54 55 55 55 55 55 55 55 56 56 56 56 56 58 79 103 120 121 121 122 120 118 117 94 65 34 15 7 7 7 11 34 61 88 104 108 109 111 113 111 111 114 116 123 124 124 125 127 127 127 128 129 131 132 134 135 137 137 138 139 139 140 141 141 142 143 146 148 150 150 152 153 153 153 152 152 152 152 152 152 152 152 152 149 148 145 144 144 145 145 145 144 140 133 131 129 126 136 136 137 137 137 137 137 137 137 136 135 137 140 146 152 154 152 150 150 150 149 149 149 148 147 144 140 138 138 138 138 138 136 133 130 129 129 129 129 128 127 126 126 124 123 123 120 119 118 116 115 115 114 114 113 112 111 111 111 111 111 112 116 116 116 116 116 116 116 116 116 116 116 118 118 118 118 118 120 120 120 120 120 120 120 119 117 115 115 113 112 111 109 108 108 107 105 101 98 98 97 96 95 94 92 90 86 84 81 81 77 74 74 73 72 72 72 69 68 66 63 60 55 54 52 50 50 48 47 44 43 40 40 39 37 36 35 36 37 38 41 44 47 50 52 53 53 54 55 58 62 65 67 71 73 73 73 66 66 66 80 94 104 104 104 103 102 101 101 100 95 93 91 90 90 90 90 89 89 86 83 82 83 87 90 94 96 97 97 94 89 81 72 66 64 63 63 63 63 64 65 65 65 65 65 64 63 64 64 64 64 64 64 65 65 66 66 66 65 65 65 65 66 67 68 69 69 69 69 69 69 69 69 69 68 68 67 67 68 69 69 69 69 69 69 69 
49 49 49 49 49 49 50 50 50 49 49 49 49 49 50 50 51 51 51 51 51 51 51 51 51 51 52 52 52 52 52 52 52 54 54 54 53 53 53 53 53 53 52 53 54 54 54 54 54 54 54 54 54 54 54 54 54 54 54 55 55 55 55 55 56 56 56 56 56 56 65 91 116 122 122 121 120 119 117 115 82 53 25 11 7 7 7 8 26 49 77 100 109 112 115 116 115 113 113 113 115 118 123 126 127 127 128 129 130 132 134 134 136 137 137 138 139 139 139 141 141 143 144 146 148 150 151 153 153 154 154 153 153 153 153 153 155 156 156 156 156 152 149 146 146 149 149 151 151 150 150 149 147 147 147 147 147 149 151 152 152 152 152 146 140 152 154 156 162 163 162 159 159 159 158 157 156 154 153 152 152 152 153 153 153 152 150 148 146 145 144 144 144 143 142 141 139 138 138 137 131 130 127 125 123 123 123 123 122 122 121 112 112 112 121 123 128 127 123 121 121 121 121 121 121 121 121 122 123 123 123 123 122 122 122 121 121 121 120 120 118 116 115 114 112 110 110 109 108 108 107 103 99 98 97 97 96 95 93 90 86 84 81 81 78 76 74 74 72 72 70 68 67 63 58 54 53 52 50 48 47 46 44 42 40 39 39 38 37 36 35 36 37 38 42 44 48 50 52 53 53 54 56 59 64 67 69 73 73 73 72 65 65 65 78 93 104 104 104 104 103 102 101 101 97 94 91 90 90 90 89 89 86 84 82 82 82 83 87 92 97 99 100 98 93 86 75 68 65 64 64 63 63 63 64 65 65 64 64 63 63 63 64 64 64 64 65 65 65 66 66 66 66 65 65 65 66 67 68 68 69 69 69 69 69 69 69 68 67 66 66 66 67 67 68 68 69 69 69 69 
49 49 49 49 49 49 50 50 50 49 49 49 49 49 49 50 51 51 51 51 51 51 51 51 51 51 52 52 52 52 52 52 52 54 54 54 53 53 53 53 53 53 53 53 53 54 54 54 54 54 54 54 54 54 54 54 54 54 54 55 55 55 55 56 57 56 56 56 57 62 79 104 124 124 123 120 118 117 115 107 71 46 19 9 8 7 7 8 19 39 65 90 109 115 117 120 120 116 114 111 111 113 118 123 126 127 129 130 132 134 134 135 136 137 137 138 139 139 139 141 142 143 145 147 148 151 152 154 154 154 154 155 155 155 155 156 156 157 158 158 158 157 156 153 153 151 151 151 151 151 151 158 156 156 156 156 155 155 155 153 152 153 158 156 156 162 164 166 167 167 167 165 164 164 164 164 162 160 159 159 159 159 159 158 158 158 158 158 157 156 155 154 153 152 150 148 146 145 145 144 140 140 137 134 133 133 133 130 130 130 122 122 122 124 130 130 134 133 130 127 126 126 126 126 125 125 125 126 127 128 128 128 124 124 123 123 122 122 121 121 120 118 116 114 112 110 110 110 109 108 107 105 100 98 98 97 96 95 93 90 86 83 81 79 78 77 75 74 73 72 70 68 64 57 54 52 48 48 47 47 44 43 40 40 39 38 38 38 37 37 36 37 38 38 42 46 49 50 51 53 53 55 57 60 64 69 71 74 74 73 70 64 64 64 78 93 105 105 105 104 103 102 102 102 100 97 95 93 91 90 89 89 86 84 82 82 82 83 87 92 99 104 105 104 98 90 80 71 66 65 64 63 63 63 64 64 64 64 63 63 63 63 64 64 64 64 65 65 65 66 66 66 66 65 65 65 66 67 68 68 68 69 69 69 69 68 68 67 66 65 65 66 66 67 68 68 68 69 69 69 
49 49 49 49 49 50 50 50 50 49 49 49 49 49 49 50 50 51 51 51 51 51 51 51 51 51 52 52 52 52 52 52 52 52 54 53 53 53 53 53 53 53 53 53 53 53 53 54 54 54 54 54 54 54 54 54 54 54 54 55 55 55 56 57 57 56 56 56 57 67 91 116 126 126 124 118 115 115 113 96 63 41 18 9 8 7 7 8 16 29 51 78 102 116 120 121 123 122 120 115 111 111 114 117 122 125 128 131 132 134 135 136 137 138 138 139 139 140 141 142 144 145 147 148 149 152 153 154 155 155 155 156 156 156 157 157 158 159 160 162 162 162 161 160 158 155 155 155 155 151 158 159 159 159 161 161 156 156 160 160 158 162 164 163 162 165 168 168 168 168 169 169 171 171 170 167 165 164 163 163 163 162 161 160 160 160 160 161 160 158 156 155 154 153 152 150 148 146 145 145 142 141 140 140 140 141 140 137 136 136 130 130 130 137 136 136 136 134 133 133 133 133 133 132 129 129 129 129 129 131 131 131 129 129 128 127 127 126 125 122 121 118 116 114 112 110 110 110 110 109 108 106 102 98 98 97 96 95 93 90 86 82 81 79 77 76 75 74 73 70 68 64 57 54 51 47 45 43 42 42 41 39 36 36 36 37 37 37 37 37 37 38 38 39 42 45 48 50 51 52 53 55 59 62 67 71 73 75 75 74 69 63 63 63 77 93 105 105 105 104 103 102 102 102 100 99 97 97 96 94 91 89 88 86 83 82 83 87 91 95 103 107 109 109 105 95 86 75 68 66 64 63 63 63 64 64 64 64 63 63 63 63 64 64 64 64 64 65 65 66 66 66 65 65 65 65 66 67 68 68 68 68 68 67 67 67 66 66 65 65 65 65 66 67 67 68 68 69 70 70 
49 49 49 49 50 50 51 51 50 50 49 49 49 49 50 50 51 51 51 51 51 51 51 51 51 51 51 52 52 52 52 52 52 52 52 53 53 53 53 53 53 53 53 53 53 53 53 53 54 54 54 54 55 54 54 54 54 54 54 55 55 56 57 57 57 56 55 56 60 79 104 125 126 125 115 115 113 110 105 73 48 29 14 9 8 7 7 8 15 23 41 66 92 109 120 122 123 123 123 121 115 111 112 114 116 122 126 130 133 135 136 136 138 140 141 141 142 143 144 144 147 147 148 148 150 152 154 154 155 156 156 156 156 157 157 158 160 161 163 163 165 166 166 165 163 163 159 161 159 158 160 165 160 164 168 166 162 162 165 165 164 167 169 169 168 168 168 168 168 169 170 171 174 174 172 170 167 165 165 164 163 162 162 162 162 162 163 162 162 161 159 158 155 154 153 151 149 147 146 145 144 142 142 142 142 142 142 142 140 140 140 142 142 142 140 137 136 136 135 134 134 134 134 134 133 132 131 131 132 132 132 133 133 133 132 131 130 129 127 125 122 118 116 115 113 111 110 110 110 110 109 107 103 98 98 97 96 95 92 88 84 82 81 79 77 76 74 73 70 65 59 56 53 48 46 43 42 42 40 40 39 35 34 34 35 35 36 37 37 37 38 38 39 39 42 45 48 50 51 52 53 56 60 63 69 73 75 76 76 75 68 61 61 61 77 95 105 105 105 102 101 101 101 101 100 99 98 97 98 97 96 93 92 89 88 88 88 92 95 100 105 110 111 111 109 101 90 79 71 66 64 63 63 63 63 64 64 64 64 63 63 64 64 64 64 64 64 63 63 64 65 65 65 65 65 65 65 67 68 68 68 67 66 66 65 65 65 65 65 65 65 66 67 67 67 68 68 69 71 71 
48 48 49 50 51 51 51 51 51 51 50 50 50 50 51 51 51 51 51 50 50 50 51 51 51 51 51 51 51 52 52 52 51 51 52 52 53 53 53 53 53 54 54 53 53 53 53 53 54 54 54 55 55 55 54 54 54 54 54 55 56 57 58 57 56 55 55 57 65 91 116 125 125 120 114 111 109 105 96 64 41 18 12 9 8 6 6 7 14 21 35 59 86 103 116 122 123 124 127 126 122 115 113 112 112 117 123 126 131 134 136 137 139 141 142 143 144 145 147 147 148 148 148 149 150 152 154 155 155 156 156 157 157 158 159 161 161 163 164 166 166 167 167 167 167 167 167 167 163 159 163 166 165 168 172 172 169 169 173 174 174 173 172 171 169 169 169 168 169 170 172 174 174 174 173 171 169 167 167 165 163 163 163 163 163 164 165 165 164 162 161 159 158 155 154 152 150 148 147 146 145 144 142 142 142 143 143 143 143 143 143 144 144 144 143 142 141 137 136 136 135 135 135 135 135 135 133 132 133 133 133 134 134 134 133 132 131 130 129 127 124 121 118 116 115 114 112 111 111 110 109 107 103 98 97 96 95 93 90 86 82 81 79 78 76 74 71 68 63 59 55 52 47 43 42 41 40 39 39 34 33 32 32 33 34 35 36 37 37 38 38 38 39 39 42 45 48 49 51 52 53 57 61 64 72 74 76 76 76 75 67 61 61 61 77 97 106 106 106 101 100 100 100 100 99 99 98 98 99 100 100 99 96 93 92 92 92 95 99 101 107 111 112 112 111 105 93 81 72 67 65 63 63 63 63 63 64 63 64 64 64 64 64 64 63 63 63 63 63 63 63 64 64 64 65 65 65 65 67 67 66 64 64 64 64 65 65 65 65 65 65 66 67 67 67 68 68 69 71 72 
49 49 50 50 50 51 51 51 51 50 50 50 50 51 52 52 52 51 51 50 50 50 50 51 51 51 51 51 51 51 52 52 51 51 52 52 53 53 53 54 55 55 54 54 53 53 53 53 53 54 55 55 55 55 55 54 54 54 54 55 56 57 58 56 54 54 55 58 78 110 123 126 125 115 111 111 107 99 87 52 30 16 9 8 6 4 4 6 10 17 32 52 74 93 108 119 123 124 127 127 127 124 118 116 114 114 116 117 125 131 134 136 140 142 143 144 147 148 148 148 149 150 150 150 150 152 153 155 156 156 157 157 159 160 161 161 161 164 165 166 167 168 168 170 170 170 170 171 171 168 171 172 170 173 175 176 177 178 178 179 179 176 176 173 172 170 169 169 170 172 174 175 175 175 174 170 169 168 167 165 164 164 164 164 164 165 166 166 165 165 162 160 158 156 154 152 151 149 147 146 145 144 142 143 143 145 147 148 149 149 149 147 147 145 145 144 143 142 141 141 141 141 141 141 138 138 138 138 137 136 136 136 136 135 135 133 132 131 130 129 126 122 121 118 116 115 114 112 111 111 109 106 103 99 97 96 93 90 86 83 81 80 78 75 74 68 63 60 56 53 51 47 43 41 40 40 37 34 33 33 33 32 32 33 34 34 36 37 37 38 38 38 39 39 41 43 48 49 51 53 56 60 63 66 72 75 76 76 76 75 66 60 60 61 79 99 108 108 108 104 101 100 100 100 99 99 99 99 100 101 102 103 103 102 99 98 98 99 100 102 108 112 113 113 112 106 96 83 74 67 66 64 63 63 63 63 63 62 63 63 63 63 64 63 63 63 63 62 62 62 62 63 63 63 64 64 64 64 64 64 64 64 64 63 64 64 65 65 65 65 66 67 67 67 67 68 68 69 69 70 
49 50 50 50 50 50 50 50 50 50 50 50 50 51 52 53 52 52 51 50 50 50 50 50 51 51 51 51 51 53 53 53 52 51 52 52 53 53 55 55 55 55 55 54 54 54 53 53 53 54 54 55 55 55 55 54 54 54 54 55 56 56 57 55 54 54 55 65 93 123 128 127 120 115 111 110 104 96 71 44 19 13 9 7 5 4 4 5 8 15 29 46 67 87 103 113 122 123 127 127 127 126 124 118 116 114 114 115 117 123 131 136 139 141 143 144 147 148 149 151 151 152 151 151 151 153 154 155 156 157 159 160 160 160 161 161 162 164 165 166 167 168 169 170 171 171 171 171 171 171 172 173 174 175 177 177 178 180 180 179 179 179 178 176 174 172 171 170 172 173 174 174 174 174 173 170 169 168 165 164 164 164 164 164 164 165 166 166 165 164 163 160 158 156 155 153 152 151 149 147 146 144 143 144 144 146 149 149 150 150 150 150 149 148 147 146 146 145 145 144 144 144 144 144 143 143 142 141 139 137 137 137 136 135 135 135 133 132 131 130 127 124 121 119 117 116 115 114 113 111 108 106 104 100 97 95 91 88 82 81 80 77 75 73 64 60 54 53 51 47 45 43 41 38 37 35 34 33 33 33 33 33 32 34 34 35 36 37 38 38 38 39 39 39 41 43 48 49 51 53 57 62 65 69 72 75 76 76 76 72 63 60 60 65 83 100 109 109 109 105 103 101 100 100 99 99 99 99 101 102 104 105 105 105 103 100 100 100 101 102 108 112 113 114 113 110 101 91 80 72 67 65 65 63 62 62 62 61 60 62 62 62 62 62 62 62 62 62 62 61 61 62 62 62 63 63 63 63 63 63 63 63 63 63 63 64 64 65 65 65 66 66 67 67 67 67 68 68 69 69 
49 50 50 50 50 50 49 49 50 50 50 50 50 51 52 53 53 52 52 51 50 50 50 50 50 50 51 51 52 53 53 53 53 53 53 53 54 55 55 55 55 55 55 55 54 54 54 53 53 53 54 55 55 55 55 54 53 53 53 55 56 56 56 55 54 55 57 78 110 128 130 127 120 115 111 111 100 89 56 31 18 12 8 6 4 4 4 4 8 11 23 38 58 79 93 108 117 122 124 126 126 126 126 125 121 117 115 112 113 115 122 131 136 139 142 146 148 149 151 152 153 153 152 152 153 154 155 156 158 158 159 160 160 160 161 161 163 163 164 165 166 168 169 171 171 171 171 171 171 172 173 173 175 177 178 178 178 180 180 179 179 179 179 178 177 175 172 172 173 173 174 174 174 173 171 170 169 168 166 164 163 163 163 164 164 165 166 165 164 164 163 160 158 156 155 153 153 152 151 151 147 146 146 148 148 150 152 152 152 152 152 152 151 150 149 149 148 147 146 146 146 146 146 146 146 145 143 142 141 138 137 137 136 135 135 135 135 135 131 130 129 126 123 120 117 116 115 114 111 109 107 105 100 99 96 91 88 82 75 75 72 72 67 63 54 51 48 47 46 44 42 40 37 36 34 34 34 33 33 33 33 33 34 34 34 36 37 37 38 39 39 39 39 40 42 45 47 49 51 54 60 64 68 70 72 75 76 76 75 69 60 60 60 69 89 104 110 110 109 105 104 103 101 101 100 99 99 99 102 103 106 107 108 107 106 102 101 100 101 101 108 112 115 116 117 112 106 96 83 74 68 67 65 63 62 62 61 60 60 60 60 61 61 62 62 62 62 62 61 61 61 61 61 61 62 62 62 62 63 63 63 63 63 63 63 64 64 65 65 66 66 66 67 67 67 67 67 68 68 68 
50 50 50 50 50 49 49 49 49 49 49 49 50 50 51 53 52 52 52 51 50 50 50 50 50 51 51 51 51 53 53 53 53 53 54 55 56 56 56 56 56 55 55 55 55 54 54 53 53 53 53 54 55 55 54 54 53 53 53 55 55 55 55 54 54 55 63 93 123 135 135 123 120 117 111 111 104 78 50 28 16 12 9 6 4 3 3 4 7 10 18 31 48 70 87 103 112 121 124 126 126 126 126 126 126 126 118 115 113 113 115 118 126 136 140 144 147 148 150 151 152 153 153 155 155 156 157 158 158 158 158 159 160 160 161 161 163 163 164 164 166 167 168 170 171 171 171 171 171 172 173 173 175 177 178 178 178 178 178 179 179 179 178 178 177 177 176 174 174 174 174 174 173 171 170 169 169 167 165 164 163 163 163 164 164 164 164 164 164 163 160 158 157 156 155 153 153 153 151 151 151 147 151 153 154 155 154 154 154 154 153 153 153 152 151 151 149 149 148 147 147 146 146 147 147 146 145 143 142 139 138 137 136 135 135 135 135 135 133 130 129 126 124 121 118 116 116 113 109 107 105 103 99 96 91 89 82 72 69 65 62 62 61 53 48 46 45 44 43 41 38 36 34 34 34 34 34 34 34 34 34 34 34 34 34 36 37 38 38 39 39 39 40 41 43 47 48 50 53 57 62 65 68 70 72 74 75 75 73 66 59 59 59 74 95 108 110 110 108 105 104 104 104 104 102 99 100 101 103 105 107 108 108 108 108 105 101 100 100 100 105 113 116 117 117 116 110 101 91 80 73 67 66 65 62 61 60 60 60 60 60 60 60 61 61 62 62 63 62 61 61 61 61 61 61 62 62 62 63 63 63 63 63 63 63 64 65 65 65 65 66 66 66 66 66 66 66 67 67 67 
50 50 50 50 50 49 49 49 49 49 49 49 50 50 51 52 52 52 52 51 50 50 50 50 50 51 52 52 52 53 53 54 54 55 55 55 56 58 58 57 56 56 56 55 55 55 54 54 53 52 52 53 54 54 54 54 53 53 53 54 54 54 54 54 54 56 72 107 132 135 135 121 117 114 112 112 96 66 40 25 16 13 11 8 5 4 4 4 5 8 14 25 42 62 79 96 106 116 123 125 126 127 129 129 129 129 127 120 118 113 113 113 117 121 135 138 144 147 148 151 152 153 154 155 156 157 158 158 158 158 158 158 159 160 160 161 163 163 164 164 165 166 168 169 170 171 171 171 171 171 173 173 175 175 178 176 175 176 175 175 177 178 178 178 177 177 177 175 175 174 173 173 173 171 169 168 167 165 164 163 162 161 162 163 163 163 163 162 160 158 158 157 157 156 155 154 153 153 152 153 153 153 153 154 154 155 154 154 154 154 153 153 153 152 152 151 151 149 149 148 147 146 146 147 147 146 145 143 141 139 137 135 134 134 134 134 135 135 133 130 129 126 124 121 119 116 114 111 107 105 101 99 97 93 89 82 72 69 64 62 57 57 52 47 44 43 41 41 39 36 34 33 34 34 34 34 34 34 34 34 34 34 34 34 35 36 37 38 39 39 40 40 42 43 45 47 50 52 54 59 63 67 69 70 72 73 74 74 70 63 59 59 59 77 101 110 110 110 104 104 104 106 108 108 107 104 103 103 105 106 108 109 110 110 110 105 101 100 100 100 102 108 115 116 117 115 111 107 100 88 78 71 67 65 63 61 60 60 60 60 60 60 60 60 61 62 63 64 64 62 61 61 61 61 62 62 62 63 63 63 63 63 63 63 64 64 65 65 65 65 65 66 66 66 66 66 66 65 65 65 
49 50 50 50 50 50 49 49 49 49 49 49 50 50 51 53 53 52 52 51 50 50 50 50 51 52 53 52 53 53 55 55 55 55 56 56 58 58 58 58 57 56 56 56 55 55 55 54 53 52 52 53 53 54 54 54 52 52 52 54 54 54 54 54 55 59 82 120 135 135 130 119 119 116 114 111 90 55 31 25 16 14 11 9 6 4 3 3 5 7 12 20 36 55 73 89 100 111 121 124 126 127 129 131 130 129 129 127 124 118 115 110 110 116 120 134 138 141 146 147 151 152 154 156 156 157 158 158 158 158 158 158 158 159 160 162 163 163 164 164 165 166 168 168 169 169 170 170 170 170 171 173 174 175 175 175 174 174 174 173 173 176 176 177 177 177 177 175 175 174 173 173 171 169 168 165 164 164 163 161 160 159 160 161 161 161 161 160 158 158 157 157 156 156 155 154 154 153 153 153 154 154 154 154 154 155 154 153 153 153 153 153 153 152 152 152 151 150 148 148 147 146 146 146 146 145 144 142 139 136 135 134 133 133 133 133 134 135 130 129 128 125 124 120 117 114 112 107 101 99 99 98 94 90 82 74 69 64 62 57 56 51 46 43 40 39 39 36 35 34 32 31 32 33 33 34 34 34 34 34 34 34 34 34 35 36 37 38 40 40 41 43 44 45 47 49 51 54 56 59 63 67 70 70 72 73 73 73 67 59 58 58 63 82 106 110 110 109 103 103 104 108 110 110 109 107 105 106 106 108 108 110 110 110 110 105 101 99 99 99 101 105 109 114 115 112 110 109 103 92 82 75 70 67 64 61 60 60 60 60 60 60 60 60 61 63 64 65 65 64 62 61 61 61 62 62 63 63 63 63 63 63 64 64 64 65 65 65 65 65 65 65 65 65 65 65 65 64 64 64 
49 50 50 50 51 51 51 51 51 50 50 50 51 51 51 53 53 53 52 51 50 50 50 51 53 53 53 53 54 55 55 55 55 55 55 55 56 58 58 57 57 56 56 56 56 55 55 55 52 52 52 52 53 54 54 54 53 53 53 54 53 53 54 54 56 66 94 127 135 135 127 119 117 114 111 109 81 49 28 20 16 14 12 11 8 4 3 3 5 7 9 16 31 49 65 81 95 106 116 122 125 128 132 133 133 131 130 129 128 126 118 117 110 110 115 118 126 138 141 145 147 150 151 154 156 157 158 158 158 158 157 158 158 159 161 163 163 164 164 164 165 166 167 168 168 169 169 168 168 168 170 171 173 174 174 174 174 174 173 173 173 173 173 174 174 174 175 175 175 173 173 171 169 167 165 164 164 163 163 161 159 159 158 159 159 159 160 158 158 157 157 156 156 156 156 155 155 155 154 154 154 154 154 154 154 153 153 153 152 152 152 152 152 152 152 151 151 149 148 147 145 145 144 144 144 143 141 138 136 134 133 132 132 132 132 132 131 130 129 127 125 123 121 119 116 112 107 101 99 98 96 93 89 82 75 69 65 57 57 56 51 44 40 39 36 35 35 34 33 32 31 31 31 32 33 33 33 34 34 34 34 34 34 34 36 37 39 40 41 42 43 45 46 47 49 50 53 54 57 59 63 68 70 70 71 72 71 69 63 54 54 55 70 89 107 110 110 104 101 101 101 109 113 113 113 109 108 107 108 108 110 110 110 110 110 105 100 99 99 99 100 105 107 108 110 110 109 108 106 100 91 82 75 70 65 63 61 61 61 61 61 61 61 61 62 64 66 66 66 65 64 63 63 63 63 64 64 64 64 64 64 64 64 65 65 65 65 65 65 65 65 65 65 65 65 65 65 64 63 63 
49 49 51 51 51 51 51 51 51 51 51 51 51 51 52 53 53 53 52 51 51 50 50 53 53 54 55 55 55 55 55 55 55 55 55 55 55 56 57 57 56 56 56 56 56 56 55 55 52 52 51 52 53 54 54 54 53 53 53 53 53 53 54 54 59 74 104 132 135 132 125 119 116 114 111 96 64 38 26 19 15 14 12 11 8 3 3 3 5 5 8 14 28 45 59 74 89 102 110 121 125 128 132 133 133 132 131 130 129 129 128 118 116 110 110 113 116 126 136 139 145 148 149 151 154 156 158 158 158 157 157 157 158 160 162 163 164 164 164 164 165 166 167 167 168 168 168 167 167 167 168 169 171 171 173 174 173 172 172 172 172 171 172 172 173 173 173 174 174 173 171 169 167 164 164 163 163 162 161 159 158 158 158 158 158 158 158 158 157 157 156 156 156 156 156 157 156 156 155 154 154 153 153 153 152 151 150 150 150 150 151 151 152 152 151 150 146 145 143 141 141 140 139 139 139 138 138 136 134 132 132 132 132 131 131 130 129 126 124 123 122 121 119 116 112 107 101 98 97 94 89 86 82 75 70 67 60 56 51 48 44 39 38 35 35 34 34 32 31 31 31 31 31 32 32 32 33 33 34 33 34 34 35 35 37 39 40 41 42 44 45 47 48 49 50 51 54 56 58 59 63 67 68 70 70 70 69 67 59 52 52 55 77 94 108 108 108 101 97 97 100 109 114 114 114 109 109 109 109 110 110 110 110 110 107 104 100 99 98 98 99 103 105 105 107 108 108 108 107 104 97 88 82 75 70 67 64 62 62 62 62 62 62 62 63 66 67 67 67 65 64 64 64 64 64 64 64 64 64 64 64 64 65 65 65 65 65 65 65 65 65 65 65 65 65 65 65 64 63 62 
51 51 51 51 51 51 51 51 51 51 52 52 52 52 52 53 53 53 53 51 51 51 52 53 54 54 55 55 55 55 55 55 55 55 55 55 55 55 56 56 56 56 56 56 56 56 56 55 52 51 51 51 52 53 53 53 52 52 52 52 51 52 54 54 60 91 127 132 132 127 123 119 116 111 109 81 49 31 22 15 14 12 12 11 7 4 3 3 4 5 6 13 25 40 51 67 83 95 104 115 121 127 132 133 133 133 133 131 130 130 129 129 124 118 110 110 113 115 124 134 139 144 148 149 151 154 156 157 157 157 157 157 158 159 162 163 164 164 164 164 164 165 166 167 167 167 165 164 164 165 166 167 168 169 171 171 171 171 171 171 170 170 170 171 171 171 172 172 170 168 168 166 163 161 161 161 161 160 159 158 157 157 157 157 158 158 158 157 157 157 156 156 156 156 156 157 156 156 155 154 153 153 152 151 150 148 148 147 146 146 145 145 144 144 143 143 141 141 140 139 138 137 137 136 134 134 133 132 132 131 130 130 130 129 128 128 124 121 118 117 119 117 116 112 107 101 98 97 91 88 82 77 71 67 60 56 52 49 44 42 39 37 35 34 33 32 32 31 31 31 30 30 31 32 32 32 32 33 34 34 34 35 36 37 38 40 41 42 43 45 47 48 49 49 51 53 55 58 59 61 65 66 68 68 69 68 67 60 51 49 50 55 86 100 108 108 108 97 97 97 98 107 113 113 113 109 109 109 109 110 110 110 110 108 105 103 100 99 98 98 99 102 104 105 106 107 108 108 108 107 103 97 88 82 77 72 68 65 65 64 64 62 63 63 64 66 67 67 66 65 64 64 64 64 64 64 64 64 64 64 64 65 65 65 67 66 66 65 65 65 65 65 65 65 65 65 65 64 64 64 
51 51 51 52 52 52 52 52 52 52 52 52 52 52 53 54 53 53 53 52 52 52 53 53 53 54 54 55 55 55 55 55 55 55 55 55 55 55 55 56 56 56 56 56 56 56 56 55 52 51 51 51 52 52 52 52 52 51 51 51 50 51 52 54 70 103 127 132 127 123 121 119 116 111 100 64 38 24 16 14 13 11 11 10 7 6 3 3 4 5 5 7 18 33 45 62 78 89 98 109 115 121 127 132 133 133 133 133 131 130 130 130 129 127 118 113 112 112 114 119 129 139 144 148 150 151 154 156 157 156 156 156 157 158 161 162 163 163 163 163 163 163 163 164 164 163 162 162 162 163 164 165 165 166 167 166 166 166 166 166 166 167 169 169 170 170 168 168 166 163 163 163 161 159 159 159 159 157 157 157 156 156 155 155 155 157 157 158 158 157 156 156 156 156 156 156 156 156 155 154 153 152 150 149 148 146 146 145 145 144 143 143 142 141 139 139 138 138 137 137 135 135 134 133 132 132 132 131 130 128 127 127 127 127 124 121 117 113 112 112 112 112 111 107 101 97 91 88 83 79 73 66 60 56 50 48 44 43 41 39 37 36 34 33 32 32 31 31 30 30 30 31 31 31 32 32 32 33 34 34 35 35 36 38 39 41 42 43 45 46 48 49 49 50 51 53 56 58 59 61 65 66 67 67 67 66 63 57 49 48 50 57 90 104 108 108 108 97 97 97 98 107 113 113 113 109 109 108 108 110 110 109 107 105 103 101 101 99 99 99 101 102 104 105 105 106 107 107 108 108 106 102 97 90 83 77 72 68 66 65 64 63 63 63 65 66 66 66 65 64 64 64 64 64 64 65 65 64 64 64 65 65 65 66 67 67 66 66 65 65 65 65 65 65 65 65 65 65 65 64 
52 52 52 52 52 52 52 52 53 53 53 53 53 53 54 54 54 53 53 52 52 52 53 53 53 54 54 54 54 54 54 54 54 54 54 54 54 54 55 55 55 56 56 56 56 56 56 55 52 51 51 51 51 51 52 52 50 50 50 50 49 51 53 57 85 118 132 132 127 123 121 118 116 110 81 49 24 14 13 12 11 11 10 10 10 6 6 4 5 5 5 6 13 26 41 56 74 86 95 103 110 116 121 127 132 132 133 133 132 131 131 131 131 131 127 118 114 112 112 114 118 128 139 142 147 149 151 152 154 154 154 154 155 156 158 160 162 162 162 162 162 160 159 159 159 159 159 159 161 161 163 163 163 163 163 162 162 162 162 163 163 164 165 167 168 167 164 163 163 160 160 160 158 156 156 156 155 156 156 156 155 155 154 154 154 156 157 158 158 157 156 156 156 156 156 156 156 155 153 152 150 150 148 147 146 144 144 142 142 142 141 140 139 137 136 133 132 132 132 132 131 130 130 130 129 129 129 128 127 125 122 122 122 121 118 114 112 110 110 110 110 110 105 101 96 89 83 79 73 66 60 56 50 45 44 43 42 40 39 37 36 35 33 32 32 31 31 30 30 30 30 31 31 32 32 32 33 34 34 35 35 36 37 39 40 41 43 44 46 47 49 49 50 51 52 54 58 58 59 61 65 66 67 67 67 64 57 48 44 47 50 65 96 109 109 108 108 96 96 96 98 107 111 111 111 109 107 107 106 106 106 106 105 104 103 102 101 101 99 101 101 103 104 104 105 105 106 106 107 107 107 106 101 97 90 83 77 72 68 66 64 63 63 63 64 65 65 65 64 64 64 63 63 64 64 64 64 64 64 64 64 65 66 67 67 67 67 66 66 65 65 65 65 65 65 66 66 66 65 64 
53 53 53 53 53 53 53 53 53 54 54 54 54 54 54 54 54 54 53 53 52 52 52 53 53 53 53 53 53 53 53 53 53 53 53 53 53 53 53 54 55 55 56 56 56 56 55 53 52 51 51 51 51 50 50 50 50 50 50 50 49 51 54 64 100 132 135 135 127 126 123 118 116 100 64 38 18 13 11 10 10 10 10 10 11 10 6 5 5 5 5 6 10 21 34 49 69 81 89 99 105 111 116 121 127 132 132 133 133 132 133 133 133 133 132 127 120 115 112 112 114 118 126 133 140 144 147 151 151 151 151 151 151 154 155 157 158 159 160 159 158 158 156 155 155 155 155 156 158 159 161 161 161 161 160 159 160 160 160 160 160 161 164 164 165 165 163 161 161 158 158 158 156 155 154 153 153 153 155 155 154 154 154 153 154 155 157 157 157 157 156 156 156 156 156 155 154 153 150 149 147 147 146 145 144 142 141 138 137 137 137 136 134 133 132 130 128 128 127 127 127 126 126 126 125 125 125 123 122 120 116 116 114 114 113 112 110 109 106 105 105 101 97 92 86 79 73 69 64 57 50 46 43 41 40 40 38 37 37 36 36 35 33 32 31 31 30 30 30 30 30 30 31 31 32 33 34 35 35 35 35 36 38 39 41 43 44 45 47 48 49 50 51 52 53 56 58 58 59 61 64 66 66 66 66 60 51 43 43 44 56 74 103 112 112 108 107 96 96 96 100 105 108 108 108 107 107 107 106 106 106 105 105 104 103 103 102 101 101 101 103 104 104 104 104 105 105 106 106 106 106 104 103 100 96 90 84 79 72 69 65 64 64 64 64 64 64 64 64 63 63 63 63 63 64 64 65 64 64 64 64 65 65 66 67 67 67 66 66 65 65 65 65 65 65 65 66 66 65 65 
53 53 53 53 53 53 53 53 54 54 54 54 54 54 54 54 54 54 54 53 53 52 52 52 53 53 53 53 53 53 53 53 53 53 53 53 53 53 53 53 53 54 55 55 55 55 53 52 52 51 51 50 50 49 49 50 50 50 50 50 50 51 55 75 112 140 140 140 132 127 123 118 116 87 49 22 14 12 9 8 9 10 10 11 11 12 11 10 6 5 5 6 7 16 28 41 62 74 86 95 102 108 113 119 122 126 131 132 132 133 133 133 134 134 134 133 127 121 117 113 113 113 114 120 127 134 142 146 147 147 148 147 148 150 152 153 155 157 157 157 155 155 155 155 153 152 152 152 154 156 157 159 159 157 157 158 158 158 159 159 159 159 159 160 162 162 161 158 158 158 157 156 154 153 151 151 151 153 154 154 153 153 153 153 153 155 156 157 157 157 156 156 155 155 154 152 151 149 147 145 145 145 144 142 141 138 136 133 132 132 132 132 130 128 126 125 125 125 125 125 125 124 124 122 122 121 119 118 116 114 110 108 107 105 106 106 105 105 105 99 97 92 86 80 73 69 64 60 54 50 43 41 40 40 39 38 37 37 37 36 36 35 33 32 31 31 30 30 30 30 30 31 31 31 33 34 34 34 35 35 36 37 38 40 42 44 45 46 48 49 50 52 52 54 54 57 58 58 58 59 61 64 66 66 60 56 44 41 41 43 63 82 107 112 112 108 101 95 95 96 96 101 106 107 107 107 106 106 106 106 105 105 105 104 103 103 103 104 104 104 104 104 104 104 104 104 104 103 104 106 106 104 102 99 97 95 90 84 77 72 67 65 64 64 64 64 64 64 64 63 63 63 63 63 64 64 65 65 65 64 64 64 65 66 67 67 67 66 66 65 65 65 65 65 65 65 66 66 66 66 
54 54 54 54 54 54 54 54 54 54 54 54 54 54 54 54 54 54 54 53 53 52 52 52 52 52 52 52 52 52 52 52 52 52 52 52 52 52 52 52 53 53 53 53 53 53 52 51 51 50 50 49 49 49 49 49 49 49 50 51 51 53 61 86 124 141 142 142 138 129 126 118 103 75 39 18 13 11 8 8 8 10 10 11 13 19 20 17 11 7 6 6 7 14 22 36 57 69 81 91 98 105 110 116 120 122 126 128 131 132 133 134 134 136 136 134 131 127 124 119 113 112 110 113 114 122 133 137 142 145 144 144 144 144 146 150 151 152 152 154 154 154 154 153 152 149 148 148 150 152 154 155 155 155 155 155 156 156 156 156 155 155 155 156 156 156 156 154 154 154 153 152 151 149 147 147 148 150 150 153 153 152 152 152 153 154 155 156 156 154 153 153 152 151 151 149 146 144 141 141 141 140 140 138 135 133 131 128 124 124 124 124 124 123 121 120 120 120 121 121 121 121 120 118 117 115 113 112 110 107 106 104 100 97 99 99 99 99 98 90 86 80 75 70 64 60 55 51 46 42 41 40 40 39 39 37 36 36 37 37 36 36 34 33 32 31 31 30 30 31 31 31 32 33 33 34 34 34 35 35 36 38 39 41 43 44 46 48 49 51 52 54 54 56 56 58 58 58 58 58 60 61 64 60 56 48 36 36 40 43 70 91 109 112 112 107 96 94 94 94 96 97 101 105 106 106 106 107 106 106 105 105 105 105 105 105 105 105 105 105 105 104 104 104 103 103 102 101 101 100 101 101 100 97 97 95 94 89 84 76 71 66 65 64 64 64 64 64 64 64 64 63 63 64 64 65 65 65 65 64 64 64 65 66 67 67 67 66 66 65 65 65 64 64 64 65 66 66 66 66 
55 55 54 54 54 54 54 54 53 53 53 53 53 53 53 54 54 54 54 53 53 52 52 52 52 51 51 51 51 51 51 51 51 51 51 51 51 51 51 51 51 51 51 51 51 51 51 50 50 50 49 49 49 49 49 49 49 49 51 53 54 54 75 112 139 142 145 145 141 132 126 116 89 57 30 14 11 7 6 6 8 9 11 13 20 22 28 21 17 11 6 6 7 12 22 29 49 62 74 86 95 101 107 113 120 121 122 125 127 130 132 134 136 137 138 137 134 132 129 126 122 113 113 110 110 114 116 126 133 137 138 138 140 140 142 143 145 145 148 150 152 152 152 149 148 147 144 144 145 147 149 150 150 150 151 151 153 153 153 151 148 148 148 150 152 152 152 152 152 149 149 148 146 144 143 142 145 146 146 148 148 148 148 148 151 151 151 151 149 147 147 147 146 146 146 144 141 140 137 135 135 135 135 133 131 128 124 122 119 117 117 116 115 114 114 114 116 118 118 118 118 118 117 115 113 111 108 106 105 103 101 98 97 93 92 93 90 87 85 82 78 72 64 61 56 51 48 44 41 39 39 39 39 39 39 38 37 37 38 39 37 36 35 33 32 32 31 31 31 31 31 32 32 33 34 34 34 34 35 36 37 38 41 43 44 46 48 49 51 54 54 56 56 57 58 58 58 58 58 58 58 58 60 55 48 37 30 33 35 47 75 99 109 111 109 101 92 92 92 94 95 96 96 101 104 106 106 106 106 106 105 105 105 105 105 105 105 105 105 106 105 105 104 103 102 101 100 100 100 99 99 96 96 96 96 94 94 90 88 82 76 71 65 64 64 64 64 64 64 64 64 64 63 64 64 65 65 65 65 64 64 64 65 65 67 67 67 66 66 65 65 65 64 64 64 65 66 66 67 66 
55 55 54 54 54 54 54 53 53 53 53 53 53 53 53 53 53 53 53 53 52 52 52 52 52 51 51 51 51 51 51 51 51 51 51 51 51 51 51 51 50 50 50 50 51 51 50 50 50 50 49 49 49 49 49 49 49 49 51 54 54 64 86 124 145 150 152 150 142 136 126 103 75 44 24 12 8 7 6 6 7 9 13 19 23 31 31 28 21 13 10 6 6 11 17 26 46 58 69 81 90 98 104 111 117 120 122 122 125 127 130 134 136 138 138 138 137 134 133 131 127 124 114 113 108 108 108 108 116 126 133 134 135 135 137 138 138 138 139 140 144 148 148 146 144 143 141 141 143 145 146 146 146 146 148 148 148 148 148 146 143 143 143 147 147 149 149 149 149 147 146 146 144 143 141 140 140 141 142 145 145 144 144 144 147 147 147 146 145 142 142 142 142 142 141 138 137 134 131 131 131 131 131 128 125 124 120 117 116 115 112 110 108 107 107 107 111 112 114 116 116 114 112 109 107 106 104 103 101 98 97 92 90 87 86 85 83 81 78 72 64 58 55 52 49 44 40 38 38 39 39 39 39 39 39 39 38 39 39 39 39 38 35 34 33 32 32 31 31 32 32 32 33 34 34 34 34 35 35 37 38 40 42 44 47 48 50 52 54 56 57 57 58 59 59 59 58 58 58 57 56 55 53 48 40 28 25 28 35 48 79 104 109 109 107 96 91 91 91 91 92 95 93 96 100 104 105 106 106 105 105 105 105 105 105 105 105 105 105 106 105 104 103 103 101 100 100 99 97 96 95 94 92 91 93 94 94 92 90 86 79 73 69 65 65 64 65 65 65 64 64 64 63 64 64 65 65 65 65 65 64 64 65 66 67 67 67 67 66 65 65 65 64 63 63 64 65 66 67 67 
53 53 53 53 53 53 53 53 53 53 52 52 52 52 52 52 52 52 52 52 52 52 52 52 51 51 51 51 50 50 50 50 50 50 50 50 50 49 49 49 50 50 50 50 51 51 50 50 50 50 49 50 50 49 49 49 49 49 50 52 55 78 120 140 152 153 153 152 147 138 120 89 57 33 21 12 8 7 7 6 7 11 17 22 29 32 32 31 21 15 8 6 6 6 13 22 40 52 62 73 82 91 99 107 113 120 120 122 123 125 127 130 133 136 138 138 138 137 135 133 132 129 126 121 113 108 108 104 104 108 113 124 132 133 133 135 134 135 135 135 136 139 143 141 138 138 138 140 141 142 143 144 145 144 142 142 142 142 142 141 140 139 139 141 142 144 146 146 146 146 146 144 142 141 140 138 136 136 137 140 141 141 141 142 142 142 141 139 136 136 136 137 137 137 137 134 131 129 128 126 125 125 125 124 120 116 116 113 110 108 106 103 101 99 99 99 101 101 105 108 108 108 106 104 101 99 98 97 97 94 89 86 82 81 80 77 76 73 67 61 54 50 49 46 43 39 38 38 38 38 39 39 39 39 39 39 39 39 39 39 39 38 35 34 33 33 33 32 32 32 32 33 34 34 35 35 35 36 37 38 40 42 44 47 49 50 52 55 57 59 60 61 61 61 61 60 59 58 58 56 55 53 48 40 28 22 22 25 35 61 90 104 107 107 99 88 87 87 89 89 91 91 89 91 96 101 104 105 106 106 105 105 105 105 103 103 103 103 103 104 103 103 102 101 100 99 98 97 96 95 94 92 90 88 87 91 93 93 92 90 85 78 72 67 66 65 65 65 65 64 64 63 63 63 64 65 65 65 65 65 65 65 67 67 67 67 67 67 66 65 65 65 64 63 63 63 64 65 66 67 
53 53 53 53 53 53 53 53 52 52 52 52 52 52 52 52 52 52 52 52 52 52 52 52 52 51 51 50 50 50 50 50 50 50 50 50 49 49 49 49 49 50 50 50 51 51 50 50 50 50 50 51 51 50 50 50 49 49 50 51 60 97 135 145 153 153 153 152 149 141 113 69 42 24 16 12 9 7 7 7 8 13 19 22 24 30 30 26 21 12 6 5 5 5 11 19 37 47 58 69 78 85 95 101 110 117 120 121 122 124 126 128 130 134 136 137 138 138 137 135 134 132 131 127 122 116 113 104 102 101 101 103 113 124 129 129 129 128 128 128 132 135 135 135 135 135 135 136 138 139 141 141 141 139 139 139 140 139 139 138 137 134 134 137 138 139 141 141 144 144 144 142 141 139 136 135 133 132 132 136 138 138 138 138 138 137 134 134 134 135 135 135 135 134 130 128 125 124 124 122 119 115 112 110 109 108 106 104 103 102 99 98 96 94 94 94 98 98 99 99 99 98 98 97 93 93 93 91 89 86 82 80 77 74 73 68 64 61 54 50 46 45 41 38 37 37 38 38 38 39 39 39 40 40 40 39 39 39 39 39 39 38 36 35 34 33 33 33 33 33 33 34 35 35 36 37 38 38 39 41 43 44 47 49 50 52 55 57 59 61 61 62 63 63 62 62 60 59 58 55 53 48 40 33 20 19 20 25 42 68 92 104 105 105 96 81 81 86 87 87 88 86 86 86 92 99 104 105 106 106 105 105 105 103 102 101 100 98 100 101 102 101 100 99 98 97 96 96 95 95 92 90 88 84 84 87 91 92 93 92 90 83 76 71 67 66 66 65 65 64 63 63 63 63 63 63 63 65 65 65 65 66 67 67 67 67 67 67 66 65 65 64 64 63 63 63 64 64 65 66 
53 53 53 53 53 53 53 52 52 52 52 52 52 52 52 52 52 52 52 52 52 52 52 52 52 52 51 50 50 50 50 50 50 50 50 50 49 49 49 49 49 50 50 51 51 51 51 50 50 50 51 51 51 51 51 50 49 49 51 51 78 120 140 149 156 153 152 149 144 123 98 54 30 19 14 11 9 7 7 7 8 13 16 19 22 24 25 21 15 10 6 5 5 6 8 16 34 43 54 65 73 81 89 99 104 113 117 120 122 123 125 126 128 131 134 136 137 138 137 136 135 134 132 131 129 127 120 113 104 101 98 101 101 103 113 121 121 121 121 123 125 125 125 126 128 128 129 130 131 133 134 134 134 134 134 136 137 137 135 133 131 131 131 133 134 136 137 138 138 139 141 140 138 135 132 130 128 128 128 132 133 136 137 137 132 130 128 128 128 131 131 131 128 127 124 124 122 121 117 115 109 102 98 96 96 96 96 96 95 95 95 93 92 91 91 91 92 92 92 92 90 87 87 85 84 82 81 78 77 75 74 67 65 65 65 61 54 50 45 40 38 38 37 36 36 36 37 38 38 39 39 40 40 40 40 40 40 40 40 40 39 38 36 35 34 34 33 33 33 33 35 35 36 37 38 39 40 41 42 43 45 47 49 50 52 54 57 59 60 61 63 64 66 65 65 63 62 59 58 55 48 45 36 22 18 18 18 28 51 77 98 105 105 99 87 80 80 81 86 86 86 84 84 84 89 99 104 105 106 106 105 105 103 102 101 98 96 93 96 98 98 99 98 98 97 96 96 95 95 94 92 89 83 81 81 83 87 92 94 95 95 91 83 76 70 67 66 66 65 63 62 62 62 62 62 62 62 62 64 65 65 66 67 67 67 67 67 66 65 65 65 64 64 64 63 63 64 64 64 65 
54 54 53 53 53 53 52 52 52 52 52 52 52 52 52 52 52 52 52 52 52 52 52 52 52 52 51 51 50 50 50 50 51 50 50 50 50 49 49 49 49 50 50 51 51 51 51 51 51 50 50 51 51 51 51 50 49 49 51 55 97 135 147 149 153 151 144 141 137 113 69 41 25 16 13 11 9 7 7 7 8 13 15 18 20 21 18 15 12 8 6 5 5 7 8 14 31 39 51 61 69 78 85 95 101 108 114 118 121 122 124 125 126 128 131 134 136 137 137 136 135 134 134 133 132 131 127 125 116 106 101 101 98 98 98 103 111 111 113 116 120 120 120 120 120 120 120 121 123 124 126 127 127 128 130 132 132 132 130 129 127 127 127 129 131 132 132 130 130 130 131 131 131 131 126 125 123 123 123 126 128 131 130 129 122 122 122 124 125 126 126 125 118 114 114 114 114 111 108 102 98 92 91 91 91 91 90 89 88 87 87 85 85 85 85 85 85 85 85 83 82 80 78 77 72 71 70 67 66 65 65 59 57 57 54 51 45 40 37 37 37 37 37 36 36 36 36 37 39 39 40 40 40 41 41 41 41 40 40 40 39 39 37 36 35 34 34 35 35 35 36 37 38 39 39 41 42 43 44 45 47 49 49 51 53 56 58 59 61 63 65 66 66 66 65 63 63 59 58 50 45 38 28 18 15 15 17 30 59 86 104 105 105 97 81 79 79 83 86 87 86 84 84 84 89 99 105 107 107 107 106 105 104 102 100 96 93 92 92 96 97 97 98 97 97 96 96 95 95 94 91 89 83 80 80 81 85 92 95 97 97 97 91 83 76 70 67 66 65 63 62 62 62 62 62 62 62 62 64 64 65 66 66 67 66 66 66 65 65 65 64 64 64 64 64 64 64 65 65 65 
54 54 53 53 53 53 52 52 52 52 52 52 52 52 52 52 52 52 52 52 52 52 52 52 52 52 51 51 51 51 51 51 51 51 51 50 50 50 50 50 50 50 51 51 51 52 52 51 51 51 51 51 51 51 52 50 50 50 52 64 114 143 147 149 147 138 137 127 116 111 54 30 18 14 13 11 9 8 7 7 8 12 14 15 16 16 14 12 11 8 7 6 5 7 7 13 28 37 48 58 66 73 81 89 98 104 110 114 118 121 122 124 125 126 128 130 133 134 136 135 135 135 135 134 134 132 131 128 127 122 115 106 103 98 97 97 95 95 95 101 107 112 114 114 114 114 114 114 114 116 117 118 120 122 124 124 124 123 122 121 120 120 120 121 122 122 124 122 122 122 122 121 121 121 120 120 114 114 114 114 114 114 114 114 114 114 117 118 118 118 115 114 107 104 104 104 104 102 96 92 87 86 87 88 88 87 84 82 78 77 76 75 75 75 75 80 80 80 80 77 74 73 72 70 64 63 63 60 56 49 51 51 47 47 45 40 39 37 36 36 36 37 36 36 36 36 36 39 39 40 40 40 41 41 41 41 41 41 40 40 39 39 38 37 36 36 36 36 36 37 38 38 39 40 41 43 44 45 46 48 49 49 51 52 55 57 59 60 63 64 65 66 66 66 65 64 63 59 55 48 40 32 22 13 13 13 17 37 66 93 107 107 104 96 81 80 80 83 89 89 86 85 85 86 91 101 107 107 107 107 107 105 104 102 98 95 93 92 92 94 96 97 98 97 97 96 96 96 95 94 91 89 84 81 81 83 85 92 97 98 100 101 97 91 84 76 71 68 66 64 63 62 62 62 62 62 62 62 64 64 64 64 64 64 65 65 65 65 64 64 64 64 64 64 66 66 65 65 65 65 
55 55 54 53 53 52 52 52 52 52 52 52 52 52 52 52 52 52 52 52 52 52 52 52 52 52 52 51 51 51 51 51 51 51 51 51 50 50 50 50 50 50 51 51 51 52 52 52 52 51 51 51 51 51 52 52 52 53 54 70 130 147 147 144 134 122 118 116 115 102 52 25 16 13 12 11 10 8 8 8 9 11 13 14 14 13 12 11 10 8 7 6 5 7 7 12 25 33 45 55 63 71 79 85 96 101 106 110 114 118 120 122 123 124 126 128 131 133 134 134 134 134 135 134 134 133 132 131 128 127 125 122 116 108 98 97 93 92 91 90 90 97 102 104 107 107 107 107 108 109 110 110 111 113 114 114 114 113 113 113 114 115 115 115 117 117 118 117 116 115 114 113 111 111 110 111 111 111 109 109 108 105 104 104 105 106 109 109 109 106 102 99 95 93 93 93 93 90 84 82 80 80 80 82 82 81 78 76 75 74 73 72 72 72 72 72 72 72 72 68 64 61 61 60 60 56 56 51 49 46 46 44 41 40 39 37 36 36 36 36 36 36 36 37 37 37 39 39 40 40 41 41 41 42 42 42 41 41 41 40 40 39 39 38 38 37 37 37 38 39 39 40 41 42 43 45 47 48 49 49 49 51 52 54 56 58 60 61 63 64 65 65 65 65 65 63 63 58 50 42 34 27 18 13 13 13 23 48 77 100 108 108 104 95 81 80 80 86 90 90 87 86 86 86 96 105 109 109 109 107 107 105 104 104 101 96 94 93 94 96 97 98 98 98 97 97 97 97 96 95 91 89 85 84 83 84 85 92 97 101 102 105 102 98 91 84 76 71 68 65 64 63 62 62 62 62 61 61 62 62 62 62 63 64 64 64 64 64 64 64 64 64 64 65 66 66 65 65 65 64 
55 55 54 53 53 52 52 52 52 52 52 52 52 52 52 52 52 52 52 52 52 52 52 52 52 52 52 51 51 51 51 51 52 52 51 51 51 50 50 50 50 51 51 51 52 52 53 53 53 52 52 52 52 53 53 52 53 53 58 82 143 148 148 134 120 116 115 114 111 92 43 27 16 13 11 10 9 9 8 9 10 10 11 12 11 10 11 10 9 8 7 6 6 6 7 10 20 29 40 51 61 69 78 84 94 99 103 106 110 114 117 118 120 122 124 126 129 131 132 133 134 134 134 134 134 133 133 132 131 129 128 128 124 122 116 108 95 92 91 90 89 87 89 89 96 96 96 96 97 98 99 100 101 103 104 104 104 105 107 107 110 110 111 111 112 112 112 112 109 108 108 107 104 104 101 101 102 104 104 103 102 97 96 95 95 95 94 93 93 91 89 87 86 86 85 85 85 82 79 79 78 76 76 76 74 74 74 73 73 72 70 68 67 67 67 67 67 67 61 56 52 51 51 51 51 49 44 41 41 40 40 39 35 35 35 36 36 36 36 36 37 37 39 39 39 40 40 40 41 41 41 41 42 42 42 42 42 41 41 40 40 39 39 39 38 38 38 38 39 40 41 41 43 44 46 49 49 49 51 51 52 52 54 56 57 59 60 61 62 63 64 64 64 64 64 63 62 51 42 35 27 21 13 12 13 15 36 65 93 108 108 108 99 89 81 81 81 86 90 90 87 85 85 87 96 105 109 109 108 107 107 106 105 104 102 98 97 95 96 97 99 99 99 99 98 98 98 98 97 96 92 89 85 84 84 84 86 93 100 103 106 107 106 105 99 93 86 79 72 68 65 63 63 62 62 61 61 61 62 61 62 61 62 62 62 64 64 64 64 64 64 64 64 65 66 66 65 65 63 62 
55 55 54 53 53 52 52 52 52 52 52 52 52 52 52 52 52 52 52 52 52 52 52 52 52 52 52 52 51 51 52 52 52 52 52 52 51 51 51 51 52 52 52 53 53 54 54 54 53 53 53 53 53 53 53 53 53 54 70 90 148 148 148 134 114 114 111 111 103 91 41 24 14 12 11 10 9 9 9 9 9 9 9 9 8 8 8 9 9 9 8 6 6 5 6 9 17 26 38 48 57 65 71 82 90 96 100 103 107 110 113 116 118 120 122 124 127 129 130 131 132 133 133 133 133 133 132 132 131 129 129 129 128 127 123 121 114 105 91 90 89 87 87 87 86 86 86 86 87 88 89 90 92 95 96 97 97 97 100 103 104 104 104 104 104 105 105 105 104 104 102 101 98 96 94 93 93 96 97 93 89 89 89 89 89 88 85 82 81 81 81 81 81 81 81 81 79 79 78 76 73 69 69 66 64 71 72 71 65 63 60 59 57 57 57 56 56 55 51 47 45 45 44 44 44 40 40 33 35 35 34 33 34 34 35 36 36 37 37 37 37 39 39 40 41 41 41 41 41 41 41 42 42 42 42 42 42 41 40 40 40 40 40 40 39 39 39 39 40 41 42 43 44 46 49 51 52 53 53 53 53 54 55 56 58 60 60 61 62 63 63 63 64 64 63 62 58 45 36 28 21 15 11 11 13 23 48 77 100 108 108 104 95 81 79 80 81 86 88 88 86 85 85 87 96 105 108 108 108 107 106 106 106 106 105 102 99 98 98 99 101 103 103 102 101 100 100 99 98 97 92 89 85 84 84 84 87 94 101 106 107 108 109 109 106 100 94 87 81 73 68 66 63 62 62 61 60 60 61 61 61 61 61 61 62 63 64 64 64 64 64 64 64 64 65 65 65 65 61 60 
54 54 54 53 53 52 52 52 52 52 54 54 54 54 54 53 53 53 53 53 53 53 53 53 52 52 52 52 52 52 52 52 52 52 52 53 53 53 53 53 53 54 54 54 54 54 54 54 54 53 53 53 53 53 54 53 54 55 70 90 148 148 148 134 120 116 111 111 102 84 31 21 13 12 10 9 9 9 9 9 9 9 8 8 8 7 8 9 9 9 9 7 5 5 5 5 15 21 30 41 51 61 69 78 85 94 96 100 103 107 110 113 115 118 120 122 124 127 128 129 130 130 131 132 132 132 131 131 130 129 129 129 129 129 128 123 122 119 114 105 95 89 87 87 86 86 86 85 79 79 79 81 87 88 90 92 94 95 96 96 96 95 94 94 94 94 94 94 91 91 91 92 91 87 83 83 82 83 87 84 81 81 81 79 79 79 79 80 80 80 80 79 79 78 77 74 73 73 73 72 66 62 60 59 59 59 60 60 60 59 57 55 48 46 45 44 43 43 43 43 42 41 40 39 36 31 31 31 32 32 33 33 34 34 35 36 37 37 37 37 39 39 40 41 41 41 41 41 41 41 41 42 42 42 42 41 41 40 40 40 40 40 40 40 40 40 40 41 41 43 43 44 46 49 51 53 54 55 55 54 54 55 55 57 58 60 61 61 62 63 63 63 63 63 62 58 50 38 29 22 16 13 11 11 14 37 65 93 103 108 105 99 89 72 72 75 81 85 86 86 85 85 85 88 99 107 108 108 108 106 106 106 106 107 106 104 101 100 100 101 102 104 104 104 103 102 101 101 99 97 93 89 85 83 83 84 87 94 101 106 108 110 110 111 110 109 105 95 90 83 73 69 66 64 63 62 60 60 60 59 60 61 61 62 62 63 63 63 63 63 63 63 63 64 64 65 65 65 64 63 
54 54 54 53 53 52 52 52 52 54 54 54 54 54 54 54 54 54 54 55 55 54 54 53 53 53 52 52 52 52 52 52 52 53 53 53 54 54 54 54 54 54 54 54 54 54 54 54 54 53 53 54 54 55 55 54 54 55 70 90 148 148 148 136 122 120 114 114 103 76 27 17 12 9 9 9 9 9 9 9 9 8 8 8 7 7 8 9 9 9 9 7 5 5 5 5 12 19 28 38 48 57 63 72 82 90 94 96 100 103 107 110 113 115 118 120 122 124 127 128 128 128 129 130 131 131 131 130 129 129 129 129 129 129 129 128 124 122 122 119 114 108 98 90 87 86 86 85 79 78 77 76 76 76 77 80 82 85 86 87 87 88 87 87 87 86 85 85 84 84 85 84 83 79 78 75 74 75 78 78 74 74 74 74 74 75 75 75 76 76 76 76 75 73 72 69 68 67 66 65 60 59 59 58 58 57 55 55 55 55 53 51 45 44 43 41 40 40 39 39 38 37 37 31 29 29 29 30 32 32 34 35 35 36 37 38 38 38 39 39 39 40 40 40 41 41 41 41 41 41 41 41 42 41 41 41 40 40 40 40 40 41 41 41 41 41 41 41 43 43 45 46 49 51 53 54 56 56 56 56 55 55 56 57 59 60 61 62 62 63 63 63 63 62 60 53 42 32 25 18 14 11 11 13 23 49 81 101 105 105 101 92 79 71 71 72 81 83 85 86 86 86 86 90 100 107 107 108 107 106 106 107 108 108 108 106 103 101 100 101 102 104 104 104 104 103 102 101 101 98 93 89 84 83 83 83 87 94 98 103 107 110 110 111 111 110 109 106 100 91 84 76 71 67 64 62 60 59 59 59 59 60 61 62 62 63 63 63 63 63 63 62 63 63 64 64 65 65 64 64 
54 54 54 53 53 52 52 52 54 54 54 54 54 54 54 54 54 54 54 55 55 54 54 54 53 53 53 52 52 52 52 52 53 53 53 54 54 55 55 55 55 55 55 55 55 55 55 54 53 53 53 53 54 54 55 54 54 57 70 90 148 149 149 142 126 126 115 114 105 76 26 15 9 8 8 8 8 8 8 8 8 7 7 7 8 8 8 9 9 9 9 9 7 5 5 5 9 17 25 35 44 51 59 70 78 85 90 94 98 100 104 108 110 113 115 118 120 122 123 124 126 127 127 128 129 129 129 129 129 129 129 129 129 129 129 129 128 124 123 122 120 119 115 109 102 99 93 85 79 78 77 76 76 76 77 78 78 78 76 74 74 74 76 76 76 76 76 76 76 76 77 78 76 72 69 69 69 69 71 71 69 70 70 71 72 72 72 72 73 73 73 73 71 69 66 63 63 62 60 59 58 58 58 57 54 52 50 50 50 48 46 46 43 42 41 37 36 36 36 34 32 31 31 30 29 30 30 31 32 32 35 37 38 39 39 39 39 39 39 39 39 40 40 40 40 40 40 40 40 41 41 41 41 41 41 40 40 40 40 40 41 41 42 42 42 42 42 43 44 46 48 49 51 53 55 56 56 56 56 56 56 56 57 58 60 61 61 62 62 63 63 63 63 61 54 45 35 26 21 15 13 11 11 14 35 66 96 105 108 103 96 84 67 67 67 71 75 82 83 85 86 86 86 91 100 107 107 107 106 106 106 106 108 109 109 108 105 102 101 101 101 103 104 104 104 104 104 102 101 98 94 89 84 81 81 83 84 90 96 101 106 109 111 111 111 111 111 111 107 102 95 90 83 75 70 64 62 60 60 60 60 61 62 62 62 62 62 63 63 63 62 62 62 63 64 64 65 65 65 64 
54 54 54 53 53 52 52 52 54 54 54 54 54 54 54 54 54 54 54 55 55 54 54 54 54 54 53 53 53 52 52 52 53 53 54 54 55 56 56 56 56 56 56 56 56 56 55 54 53 53 53 53 54 54 55 54 54 57 69 88 146 151 151 151 128 128 123 118 110 76 21 12 8 7 7 7 7 8 8 7 7 7 7 7 8 8 9 9 10 10 10 9 7 5 5 5 5 12 22 32 40 48 57 63 72 78 85 89 94 98 100 105 109 111 113 116 118 119 121 122 123 124 125 126 127 128 128 129 129 129 129 129 129 130 130 130 129 127 124 123 122 121 120 120 119 117 114 108 98 88 81 76 76 76 77 78 78 78 76 74 74 73 72 72 68 68 68 68 68 68 68 68 67 67 67 64 64 64 66 66 66 66 67 67 69 69 69 69 69 70 70 69 66 63 61 60 60 58 57 57 56 55 54 54 49 46 44 44 44 42 42 41 38 37 37 36 34 34 33 32 31 30 30 30 30 30 31 32 34 35 37 39 40 40 40 40 39 39 39 39 39 40 40 40 40 40 40 40 40 41 41 41 41 41 41 40 40 40 40 41 42 42 42 42 42 42 43 45 47 49 50 51 53 54 56 57 57 57 56 56 56 56 57 59 61 62 63 62 62 62 62 61 59 54 48 40 32 25 18 14 13 11 13 23 49 81 108 108 108 102 92 78 65 65 65 69 72 77 82 84 85 86 87 95 103 108 108 107 105 104 104 106 108 109 111 111 107 103 101 100 100 102 103 104 104 105 105 104 102 101 97 92 88 83 82 83 84 88 94 98 105 107 110 111 112 113 113 113 113 110 106 101 95 88 81 73 69 64 60 60 62 62 62 62 62 62 62 63 63 63 62 62 63 63 63 64 64 65 65 65 
54 54 54 53 53 52 52 52 54 54 54 54 54 54 54 54 54 54 54 54 54 54 54 54 54 54 54 53 53 53 52 52 53 54 55 56 56 57 57 56 56 56 56 56 56 56 56 56 55 53 53 55 55 55 56 55 55 58 69 87 143 157 160 160 135 131 128 123 118 91 28 12 8 7 7 7 7 8 8 7 7 7 7 7 8 8 9 9 10 10 10 10 8 6 5 5 5 9 19 29 38 46 53 59 69 76 81 85 89 94 98 102 105 109 111 113 116 117 119 121 121 122 124 125 126 127 128 128 128 129 129 129 130 130 130 130 130 127 126 124 123 122 122 121 120 120 119 117 115 111 107 105 101 98 94 88 83 78 76 74 74 73 72 72 68 68 68 68 68 68 68 68 67 67 67 64 64 64 65 65 65 64 64 63 63 63 62 61 61 61 60 60 56 56 56 56 56 56 55 54 51 48 44 42 41 41 41 41 39 36 35 36 36 36 36 36 34 34 33 32 31 30 30 30 30 31 32 35 35 37 38 39 41 41 40 40 39 39 39 39 39 40 40 40 40 40 40 40 40 41 41 41 41 41 41 40 40 40 41 42 43 43 43 43 43 44 46 47 49 51 52 53 55 56 58 58 58 58 57 57 57 58 59 61 63 63 63 63 62 61 60 58 54 49 41 35 31 24 17 13 13 13 17 37 66 99 110 110 108 94 81 69 65 65 67 70 72 73 76 78 84 86 87 95 106 107 107 106 104 104 104 105 109 111 111 111 109 105 100 100 100 100 102 103 106 106 106 105 104 102 98 95 91 87 84 84 86 87 91 98 101 106 109 110 112 113 113 113 113 113 112 110 107 101 95 88 78 73 66 64 63 63 62 62 62 62 62 63 63 63 63 63 63 63 63 64 64 65 65 65 
54 54 54 53 53 52 52 52 54 54 54 54 54 54 54 54 54 54 54 54 54 54 54 54 54 54 54 54 54 53 53 53 54 55 56 57 57 57 57 57 57 57 57 57 57 57 57 56 56 53 53 55 55 55 57 55 55 58 69 86 138 157 160 160 151 135 128 127 123 105 54 15 9 7 7 6 7 8 8 7 7 7 7 7 8 8 9 9 10 10 10 10 9 7 5 5 5 8 16 25 34 43 51 57 66 72 78 82 85 89 95 98 102 106 109 111 113 115 117 120 121 121 122 123 125 126 127 128 129 129 130 130 130 130 130 130 129 127 126 124 123 122 122 122 121 120 120 118 116 115 115 115 115 115 114 111 107 103 99 97 86 82 76 72 68 68 68 68 68 68 68 68 67 67 67 64 64 64 65 65 65 64 64 63 63 62 61 60 57 56 56 56 52 52 52 52 52 52 52 50 47 44 43 42 41 41 41 39 38 36 35 36 36 36 36 36 34 34 34 33 31 31 31 31 32 33 34 35 37 38 39 41 41 41 41 40 39 39 39 39 39 40 40 40 40 40 40 40 41 41 42 42 42 42 41 41 41 41 42 43 43 43 44 44 46 47 49 51 52 53 54 56 57 57 59 60 60 60 59 58 59 60 62 64 64 64 64 63 61 60 58 54 49 45 39 32 26 21 16 13 13 13 24 51 81 109 110 110 105 85 74 65 63 65 69 71 72 72 72 70 74 79 86 93 101 106 106 105 104 103 103 104 107 111 111 111 109 105 100 98 98 99 101 103 107 107 107 107 105 103 101 97 94 89 86 86 86 87 91 94 99 103 106 109 111 111 113 113 113 113 113 113 114 113 107 102 94 86 76 66 64 64 62 61 61 62 62 62 63 63 63 63 63 63 63 63 64 64 65 66 
54 54 53 53 53 52 52 53 54 54 54 54 54 54 54 54 54 54 54 54 54 54 54 54 54 54 54 54 54 54 54 55 56 56 57 57 57 57 57 57 57 57 58 57 57 57 57 57 57 55 55 55 55 55 55 55 56 58 70 86 133 157 162 164 160 146 130 129 127 127 92 28 12 8 7 6 6 8 8 7 7 7 7 7 8 8 9 10 11 11 11 10 9 7 5 5 5 7 14 20 29 38 46 54 64 70 76 80 82 85 90 95 98 102 106 109 111 113 114 118 120 121 122 123 124 125 128 129 129 130 130 130 130 130 129 129 127 126 125 124 123 122 122 122 122 121 120 119 117 116 115 115 115 115 115 115 114 113 112 110 109 106 101 97 92 91 91 91 91 91 88 84 81 76 74 73 69 68 66 65 65 64 64 63 63 62 61 60 57 56 56 56 52 52 52 52 52 52 52 50 47 44 43 42 41 41 41 39 38 36 35 36 36 38 38 38 38 38 38 38 37 36 35 35 35 35 35 36 37 38 40 42 41 41 41 40 39 39 39 39 40 40 40 41 41 41 41 41 41 41 42 42 42 42 42 42 42 42 43 43 44 44 46 47 49 51 54 55 56 56 56 57 57 59 60 61 61 62 61 60 60 62 64 64 64 64 64 61 60 57 54 49 45 40 35 29 24 18 14 13 13 17 38 72 99 110 111 110 100 80 65 65 65 67 72 72 72 70 68 65 63 72 79 87 96 101 104 103 101 98 101 103 106 109 111 111 111 105 100 98 98 99 101 103 108 108 108 107 107 105 103 98 96 92 88 87 87 87 90 92 98 99 103 106 108 110 111 112 113 113 114 115 117 119 119 115 107 101 89 77 66 64 62 61 60 61 62 63 63 63 64 64 64 63 63 63 63 64 65 66 
54 54 53 53 53 52 53 54 54 54 54 54 54 54 54 54 54 54 54 55 55 54 54 54 54 54 54 54 54 54 55 56 57 57 57 57 58 58 58 58 58 58 58 58 58 58 58 57 57 56 55 55 55 55 56 56 57 58 71 86 133 153 160 164 167 156 139 135 130 129 110 54 18 11 8 7 6 7 7 7 7 7 7 8 8 8 9 10 11 11 11 11 10 9 5 5 5 6 9 16 25 34 43 52 62 68 74 78 81 83 85 90 95 98 102 105 109 111 113 114 118 121 121 122 123 125 128 129 129 129 129 129 129 129 126 126 126 125 124 123 123 122 123 123 123 121 121 120 118 117 117 117 117 117 117 116 116 115 115 113 112 111 109 108 106 106 104 104 103 103 102 101 97 95 94 94 93 91 88 85 83 80 76 74 72 69 65 60 57 56 56 56 52 52 52 52 52 52 52 50 49 47 44 44 44 44 42 41 39 38 38 38 38 38 39 41 41 41 41 41 40 39 38 37 37 37 38 38 39 40 42 42 42 41 41 40 39 39 39 40 40 40 41 41 41 41 41 41 41 41 42 42 43 43 43 43 43 43 44 44 46 47 49 51 54 55 55 56 57 57 57 58 59 60 61 62 62 62 63 63 64 64 66 66 65 64 63 60 57 54 49 46 41 35 31 25 20 17 16 16 17 25 51 86 110 111 111 108 94 78 64 63 65 70 75 75 71 67 59 56 58 63 74 84 95 96 98 97 96 95 96 99 103 108 109 109 108 104 99 98 98 99 101 104 108 108 108 107 107 105 103 101 97 94 89 87 87 87 89 92 94 98 99 103 103 105 107 110 112 113 114 116 119 122 122 122 118 111 101 89 77 67 64 61 60 61 62 63 64 65 65 65 64 64 64 64 64 64 66 67 
53 53 53 52 52 52 53 53 54 54 54 54 54 54 54 54 54 54 55 55 55 55 55 54 54 54 54 54 54 55 55 56 57 57 58 58 58 58 58 58 58 58 58 58 58 58 58 58 57 56 55 55 55 56 57 57 58 69 83 101 133 147 157 162 167 162 150 143 135 131 129 96 50 16 9 6 6 7 7 7 8 8 8 8 8 9 10 11 11 12 13 13 11 9 7 5 5 5 8 14 21 29 38 48 57 64 69 76 79 81 83 86 90 93 97 102 105 109 111 113 114 118 121 121 123 125 127 128 129 129 128 128 126 125 125 124 124 124 123 122 122 121 122 123 123 123 122 121 119 117 117 116 116 116 117 116 116 115 115 113 112 111 110 110 108 108 107 106 106 107 107 108 107 106 105 104 104 103 101 99 97 94 93 87 83 77 75 74 72 70 68 65 62 61 60 60 59 56 53 52 50 50 50 50 48 46 45 44 42 41 41 42 42 42 42 42 42 42 42 42 42 42 41 40 40 40 40 40 41 42 42 42 42 42 41 41 40 40 40 41 41 41 41 41 41 41 41 41 41 42 42 43 43 43 43 44 44 44 45 46 49 50 53 54 55 55 56 57 57 58 58 59 60 61 62 63 65 65 67 66 66 67 67 66 66 64 62 58 54 49 46 42 38 31 26 21 18 17 16 17 21 43 70 100 118 118 116 103 81 68 63 63 64 68 75 75 68 59 55 54 55 58 69 82 93 96 96 96 95 94 95 96 99 104 108 108 108 102 98 98 98 100 101 105 108 108 108 107 107 104 103 98 95 93 89 87 87 87 89 91 93 94 96 95 98 100 103 107 110 112 114 117 120 123 123 124 123 118 111 101 89 76 66 65 61 62 63 65 66 66 66 66 65 65 64 64 64 65 64 66 
53 53 52 52 52 52 52 53 54 54 54 54 54 54 54 54 54 55 55 55 55 55 55 55 54 54 54 54 54 55 56 57 57 58 58 58 58 58 58 58 58 58 58 58 58 58 57 57 57 56 55 55 55 57 57 58 66 81 100 122 133 143 150 157 167 167 162 150 144 143 135 124 84 44 13 8 7 8 7 7 9 10 8 10 11 11 11 12 12 14 14 14 13 10 7 5 5 5 7 13 18 25 34 44 51 62 68 73 77 79 81 83 87 90 93 97 101 105 108 111 112 114 118 120 121 123 126 128 128 127 126 126 125 125 124 124 124 123 122 121 121 121 121 121 122 122 122 121 120 118 117 117 115 115 114 114 114 114 114 113 112 111 110 110 110 109 108 108 108 109 109 109 109 108 107 106 105 104 104 102 100 98 96 94 90 87 83 79 76 74 71 68 66 66 64 64 63 60 58 55 52 52 51 50 50 50 48 46 44 44 44 44 45 45 45 45 45 45 45 44 44 43 43 42 42 41 41 41 42 42 42 42 42 42 42 41 41 41 41 41 41 41 41 41 41 40 41 41 41 42 42 43 43 44 45 45 46 46 49 49 51 53 54 55 55 56 57 58 58 59 59 60 61 62 63 66 67 68 69 68 67 67 67 66 66 63 60 55 50 45 42 38 34 29 22 18 17 16 17 20 33 56 84 110 119 119 116 102 81 68 64 64 65 67 68 68 61 53 49 52 53 60 69 82 93 95 96 96 95 94 95 95 95 101 102 105 102 99 98 98 98 100 104 107 108 108 108 107 104 102 97 95 94 92 88 86 86 87 89 91 93 93 93 93 94 97 100 105 108 110 112 114 118 123 126 127 127 124 118 110 98 86 76 67 66 66 66 66 66 66 66 66 65 65 65 65 65 66 67 67 
53 52 52 52 52 52 53 53 54 54 54 54 54 54 54 54 54 54 55 55 55 55 55 55 54 54 54 54 54 55 56 57 57 58 58 58 58 58 58 58 58 58 58 58 58 58 57 57 57 57 56 56 56 59 65 69 83 100 110 133 140 143 147 149 162 167 167 159 148 145 144 143 114 75 33 11 8 9 8 8 10 11 11 11 11 11 12 12 13 14 14 14 13 12 8 5 4 4 6 9 14 22 31 39 49 57 63 69 74 77 79 81 83 87 90 93 97 100 104 107 109 112 114 117 120 122 124 126 126 126 125 125 125 124 124 124 123 122 122 121 121 121 121 121 121 122 122 122 121 120 118 117 116 115 114 113 113 113 113 111 110 110 110 110 110 110 110 110 110 110 110 110 110 109 109 108 106 106 104 104 102 101 99 97 94 93 87 84 79 76 74 72 68 67 67 66 66 64 61 57 55 53 52 52 52 51 50 50 48 48 48 48 48 48 48 48 47 47 47 47 47 45 45 43 43 42 42 42 42 42 42 43 43 42 42 42 41 41 41 41 41 41 41 41 41 40 40 41 41 42 43 43 45 46 47 48 49 49 51 52 53 54 55 55 56 56 57 58 59 60 61 62 63 65 68 69 69 69 69 68 68 67 67 66 63 61 56 50 46 42 38 34 30 25 20 17 17 17 18 26 44 72 100 119 119 119 116 101 79 72 68 67 67 67 67 65 54 48 49 51 55 62 75 86 91 95 96 96 96 95 95 95 95 95 99 99 99 96 96 97 98 100 104 108 109 109 108 104 101 95 95 94 92 92 88 87 87 87 90 93 93 93 93 93 94 95 99 102 108 109 110 112 116 120 124 127 128 128 124 118 108 96 86 76 68 66 66 66 66 66 66 66 66 66 66 66 66 66 65 65 
54 53 53 52 52 52 53 53 54 54 54 54 54 54 54 54 54 55 55 55 55 55 55 55 55 55 54 54 54 54 55 56 57 57 58 58 58 58 58 58 58 58 58 58 58 58 58 58 58 58 60 63 68 76 85 92 107 118 133 143 143 143 143 147 147 162 167 167 159 150 147 146 144 114 69 25 11 11 10 9 12 13 12 12 12 12 12 12 14 14 14 14 12 10 7 4 4 4 6 9 14 22 30 37 44 52 60 67 71 74 77 80 81 84 88 91 95 97 101 104 105 109 112 114 117 119 121 122 124 124 125 125 125 125 124 124 123 122 121 121 121 120 120 120 121 121 122 122 122 120 119 118 117 116 114 113 113 113 113 112 110 110 110 110 111 112 112 112 114 114 114 114 113 112 110 108 107 107 107 106 105 104 101 100 98 96 93 89 85 81 77 74 72 70 68 67 67 67 64 61 57 56 54 54 53 53 52 51 51 51 51 51 50 50 50 49 49 48 48 47 47 47 47 45 45 43 43 42 42 43 43 44 43 43 42 42 42 42 42 42 42 42 41 41 41 40 40 41 42 43 44 45 46 48 49 50 51 52 52 53 54 55 56 56 56 57 59 60 62 64 65 66 68 69 69 70 70 70 69 69 68 68 66 64 61 56 51 46 42 39 34 30 26 22 18 17 17 17 21 34 56 86 113 121 121 118 110 93 79 75 72 69 68 67 64 56 49 46 48 49 58 68 78 84 89 94 95 96 95 95 95 94 94 94 93 93 92 92 94 95 96 99 104 108 109 109 107 102 96 95 95 94 92 92 90 88 88 88 91 95 95 95 95 94 95 97 99 102 107 108 109 111 114 117 123 127 128 130 130 124 116 108 96 86 76 70 67 66 66 66 66 66 66 66 66 66 66 66 64 63 
56 55 54 53 53 53 53 54 54 54 54 54 54 54 54 54 54 54 54 53 53 54 55 55 55 55 54 54 54 54 54 56 56 57 58 58 58 58 57 56 57 57 58 58 59 59 59 59 61 65 72 80 89 100 111 118 132 140 151 150 147 143 139 131 131 147 162 169 170 163 155 153 150 146 105 64 21 14 12 12 13 13 13 13 12 12 12 12 13 14 14 12 10 8 7 4 4 4 5 7 14 21 27 35 41 50 56 63 68 72 75 79 80 83 86 89 93 95 98 100 103 105 109 111 114 117 119 120 121 123 124 125 125 125 125 124 124 122 121 121 120 120 120 120 120 120 121 122 121 120 119 118 117 117 115 113 113 113 113 112 110 110 110 111 112 112 112 114 114 114 114 114 113 113 112 112 110 109 109 109 108 106 106 105 103 100 98 94 90 85 82 79 76 73 71 71 71 70 67 64 61 58 57 57 57 57 56 55 53 53 52 52 51 51 50 50 50 49 49 48 48 47 47 47 45 45 43 43 43 44 45 44 44 43 43 42 42 42 42 42 42 42 42 42 42 41 42 43 43 44 45 46 47 48 50 51 51 52 53 54 55 56 56 57 59 60 62 64 66 67 68 69 69 69 70 70 70 70 69 68 68 66 64 62 58 53 47 42 39 36 31 27 24 19 17 16 16 19 30 49 73 101 123 124 123 116 102 85 79 76 75 75 70 68 64 59 49 46 48 56 62 68 77 81 87 90 94 94 95 95 94 94 93 92 89 88 90 91 92 93 95 98 104 108 109 110 110 102 96 95 95 95 93 92 92 90 90 91 95 96 98 98 96 96 97 99 101 102 106 108 108 110 112 116 123 128 130 132 132 130 124 116 108 96 88 76 71 66 66 66 66 66 66 66 66 66 66 66 65 64 
75 57 56 55 54 54 54 54 55 55 55 55 55 55 55 55 54 54 53 52 52 53 54 55 55 55 54 54 53 53 54 54 55 56 56 56 56 56 56 56 57 58 60 60 60 62 65 66 78 83 93 103 114 125 135 141 151 153 157 153 150 149 132 126 124 127 152 169 171 171 166 159 157 154 142 104 55 20 13 13 13 13 13 13 12 11 11 12 12 12 12 10 9 7 7 5 4 4 5 7 10 17 24 31 38 46 52 59 65 68 73 76 79 81 84 87 91 93 96 98 100 103 107 110 113 115 116 118 120 121 123 124 125 125 125 125 124 123 122 121 120 120 120 120 120 120 120 120 120 119 118 118 117 117 116 117 116 115 114 113 112 112 112 112 112 112 112 114 115 115 115 114 113 113 113 113 113 112 112 112 112 111 111 109 106 104 101 98 94 92 89 85 81 80 79 79 78 75 71 69 64 63 60 60 60 61 60 58 56 55 55 54 53 52 51 51 51 50 50 49 49 48 48 48 47 47 45 45 45 46 46 46 45 44 44 43 43 43 42 43 43 43 43 43 43 43 43 44 45 46 46 47 48 49 51 51 52 53 54 55 56 57 59 60 62 64 66 66 67 68 69 69 70 70 70 70 69 68 68 68 66 63 61 58 53 50 45 42 37 33 28 24 22 17 16 16 16 26 43 65 90 114 125 125 123 113 95 85 79 79 79 82 79 77 69 60 56 49 60 62 64 69 74 81 82 86 89 91 93 93 93 90 89 88 84 85 86 90 91 93 94 97 102 107 110 111 111 104 100 96 96 96 95 94 93 92 93 95 98 100 103 102 101 100 100 101 102 103 105 107 108 109 111 116 123 128 132 133 136 134 129 125 116 109 99 89 80 72 67 66 65 65 66 66 66 66 66 66 68 67 
60 59 56 55 54 54 54 54 55 55 55 55 55 55 55 54 54 53 53 52 52 53 54 55 55 55 55 54 53 53 53 54 54 55 55 55 55 55 56 56 57 61 61 63 71 79 87 91 104 110 120 130 139 147 154 158 163 161 160 158 155 150 137 127 127 127 144 163 171 175 171 166 160 159 153 127 75 33 15 13 13 13 13 13 12 11 11 11 12 12 10 10 9 8 7 5 5 4 5 5 9 14 21 28 35 41 49 54 59 65 68 73 77 79 81 85 89 92 94 96 99 102 105 107 110 114 116 117 118 120 121 123 124 125 125 125 125 124 123 121 121 120 120 120 120 120 120 120 119 118 118 118 117 117 117 117 117 116 116 115 114 114 113 112 112 112 112 113 114 114 114 113 113 113 113 113 113 114 114 115 115 114 113 111 110 107 105 101 100 98 94 91 89 88 86 85 82 79 76 73 70 67 64 64 63 62 61 61 59 58 56 55 55 54 54 52 52 52 52 51 51 51 50 49 49 48 48 47 47 47 47 46 46 45 44 44 44 44 43 43 43 43 43 43 43 44 44 45 45 46 46 47 48 50 51 52 53 54 55 56 58 59 62 63 66 66 66 67 68 69 70 70 70 70 70 69 68 68 68 66 63 61 58 53 50 46 42 37 33 30 25 23 19 17 16 16 19 34 58 86 109 126 127 125 123 109 90 84 82 79 84 89 91 89 78 75 63 61 62 64 67 70 72 77 80 82 82 85 87 89 89 87 85 83 80 80 83 86 90 92 93 95 101 106 110 111 111 108 104 100 98 98 96 95 95 95 95 98 101 103 104 103 102 101 101 101 102 102 104 105 107 108 110 115 122 128 132 133 136 134 133 128 124 120 110 100 94 87 76 71 67 66 66 65 65 65 65 65 66 67 
62 61 56 55 54 54 54 55 55 55 55 55 55 55 55 55 54 54 53 52 52 53 54 55 55 55 55 54 53 53 53 53 54 54 54 55 55 55 56 56 61 65 71 79 91 104 116 122 126 133 142 151 157 158 159 162 163 161 161 160 157 155 148 132 129 129 149 157 171 178 176 173 164 159 153 145 115 64 16 13 12 12 12 12 12 12 12 12 12 11 10 10 9 8 7 6 5 4 4 5 7 14 21 26 33 39 45 50 54 59 65 68 73 77 80 84 87 90 92 95 98 100 103 107 110 113 115 116 117 119 120 121 123 124 125 125 124 124 123 122 121 121 120 120 120 120 120 119 117 117 116 117 117 117 118 117 117 116 116 116 116 115 114 113 112 112 112 112 113 113 113 112 111 112 113 113 114 115 115 115 116 115 115 113 111 110 107 105 102 101 98 95 94 92 89 87 85 82 79 76 73 71 67 66 64 63 63 62 61 60 59 58 57 55 55 55 54 54 54 53 53 52 51 51 50 50 49 48 47 47 47 47 47 46 45 44 44 44 44 44 44 44 44 44 44 45 45 45 46 46 47 47 48 50 52 53 55 56 56 59 61 63 66 66 66 67 67 68 69 70 70 71 70 70 70 69 68 67 64 62 59 56 51 50 47 43 39 35 32 27 24 22 19 17 17 17 26 44 74 105 125 130 128 124 118 101 88 81 81 82 89 94 95 92 88 77 76 74 73 68 70 73 73 74 77 77 80 80 80 82 84 81 77 76 76 77 80 85 88 90 93 94 99 104 110 111 111 111 108 105 101 99 98 96 95 95 96 100 103 105 105 104 102 102 101 101 102 103 104 104 105 107 109 115 117 125 130 133 136 134 133 130 125 123 120 120 109 100 90 83 76 68 67 65 65 62 61 61 62 63 
55 55 54 53 53 53 54 55 55 55 55 55 55 55 55 55 55 55 54 54 54 54 54 55 55 55 55 54 53 53 53 52 51 53 54 54 55 55 61 66 73 84 99 112 121 129 139 146 153 155 159 162 162 162 162 162 163 161 160 159 156 155 154 148 138 144 152 163 168 177 177 176 160 159 149 131 115 64 16 13 12 11 12 12 12 12 12 12 12 12 11 10 9 8 8 7 5 4 4 4 5 11 17 21 28 35 41 47 50 55 59 63 68 73 77 81 84 87 91 93 96 99 102 106 109 112 115 116 116 117 118 120 121 123 124 124 124 123 123 123 122 121 121 121 120 120 120 118 117 116 116 116 117 117 117 117 116 116 116 116 117 116 116 114 113 112 112 113 113 113 112 111 111 111 112 114 115 115 116 117 117 116 115 114 113 111 110 107 105 104 101 98 96 95 92 89 87 85 82 79 76 74 72 71 67 66 65 64 63 63 63 62 60 59 58 58 58 57 56 54 54 53 53 52 51 51 50 49 49 48 48 48 47 47 46 45 44 44 44 44 45 45 45 45 45 45 45 46 46 47 47 48 49 51 54 55 56 59 61 63 65 67 69 69 69 69 69 70 71 71 71 72 71 70 70 68 66 64 61 59 56 51 51 49 46 42 37 33 30 25 22 20 19 18 18 23 38 70 103 124 133 131 128 124 109 90 84 81 81 83 91 95 95 95 89 80 77 76 75 74 73 74 74 74 74 72 71 70 70 71 74 74 74 75 74 75 77 80 87 88 90 93 95 102 110 111 111 111 110 108 105 100 98 97 96 96 98 102 106 106 106 105 102 102 101 101 102 103 104 104 105 107 109 111 115 122 128 131 132 132 131 130 126 123 122 120 120 117 107 100 90 83 71 65 63 60 58 47 45 47 
53 53 53 53 53 53 53 54 54 55 55 55 55 55 55 55 55 55 54 54 54 54 54 54 54 54 54 53 53 50 49 49 50 52 54 54 56 64 73 84 101 113 125 135 141 148 155 161 164 165 166 165 165 163 162 160 159 159 156 155 155 155 155 155 154 154 158 164 167 176 176 176 160 154 142 127 105 64 16 12 11 10 10 11 12 13 13 13 13 13 12 12 11 10 9 7 6 5 4 4 5 10 16 21 28 33 41 44 47 50 55 60 63 69 74 77 81 84 89 92 94 98 101 104 107 110 113 115 116 117 117 119 120 121 122 123 123 123 123 123 123 122 122 124 122 121 120 118 117 116 116 116 117 117 117 116 116 116 116 117 117 117 116 114 114 113 113 113 113 113 113 112 111 112 113 114 115 116 117 117 117 116 115 114 114 113 111 110 107 105 104 101 100 96 95 93 89 87 84 82 79 76 75 73 72 71 69 67 66 66 66 64 62 61 60 60 59 58 58 57 56 55 54 53 52 51 50 50 49 49 49 48 47 47 46 45 45 45 45 45 45 46 46 46 46 46 46 47 47 47 48 52 53 55 57 59 61 64 66 67 69 69 69 70 70 70 72 72 72 72 73 72 72 70 68 66 64 61 58 56 52 51 49 47 43 39 35 32 27 24 22 22 20 20 23 30 60 88 118 136 136 136 128 118 101 88 80 80 80 80 86 93 94 91 84 80 77 76 76 76 77 77 76 74 72 71 70 65 64 64 64 65 69 71 72 73 75 80 87 87 89 90 93 99 107 111 111 112 111 109 107 104 98 97 97 97 99 103 106 106 106 104 102 98 98 100 102 103 104 104 106 108 109 110 113 117 124 130 131 131 130 128 125 123 122 121 122 123 125 120 113 101 89 80 63 60 50 45 28 27 
52 52 53 53 53 53 53 54 54 54 54 54 53 54 54 54 54 54 54 54 54 54 54 53 51 50 49 49 49 47 47 48 50 52 54 57 66 81 101 113 125 139 154 160 163 165 169 169 170 171 170 167 166 165 160 159 154 152 152 155 155 157 158 160 161 161 161 164 167 173 173 173 156 145 127 105 87 64 15 12 11 9 9 9 10 12 13 13 14 14 16 14 13 11 10 8 6 4 4 4 4 9 14 18 26 32 39 43 46 50 54 58 63 68 72 76 80 83 86 90 93 96 99 103 106 109 112 115 116 116 117 118 119 120 121 122 123 123 123 124 124 123 124 124 123 123 121 119 117 117 117 118 117 117 117 116 116 116 116 117 117 117 117 116 114 113 113 113 113 113 114 113 112 113 113 114 115 116 116 117 117 115 114 114 114 114 114 111 110 107 105 104 103 98 96 95 93 89 87 84 81 79 77 76 74 72 72 70 70 69 67 66 64 62 61 60 59 58 58 57 56 55 55 54 53 52 51 50 50 49 49 48 48 46 46 45 45 45 45 45 47 47 47 47 47 46 47 47 48 52 53 55 57 59 62 64 66 67 69 69 70 70 70 71 71 71 72 72 73 73 73 72 71 70 67 64 61 58 56 52 51 49 48 46 43 38 35 32 27 24 23 22 22 23 30 45 82 110 133 138 138 136 125 109 95 81 79 79 79 80 80 84 89 82 78 76 77 77 77 79 84 81 77 74 71 69 65 64 62 61 57 59 64 68 71 72 73 79 86 87 88 89 90 96 103 110 111 112 112 111 108 106 99 98 98 99 101 105 107 107 106 104 99 98 98 98 101 102 104 106 107 108 109 109 111 114 118 125 130 130 130 128 123 121 121 121 123 125 129 130 127 122 107 100 81 63 50 45 15 10 
54 55 53 52 52 52 52 53 53 53 53 54 53 54 54 54 54 54 51 49 48 48 48 47 45 44 42 44 44 44 46 49 52 57 65 81 101 115 126 139 154 160 165 167 169 170 170 170 170 171 170 169 167 165 160 157 153 152 152 153 156 158 161 165 165 164 165 167 171 173 172 159 142 129 104 87 82 61 16 13 11 9 9 9 9 12 12 13 14 16 16 16 14 13 11 10 6 4 4 4 4 9 13 16 23 30 36 41 44 47 52 56 60 65 69 74 77 81 84 89 92 95 98 101 103 106 110 114 115 116 116 117 119 120 121 121 123 123 124 124 124 124 124 123 123 122 122 120 119 118 118 118 118 117 117 116 116 116 116 117 117 117 117 116 114 113 113 113 114 114 115 114 114 114 114 115 116 117 116 116 115 115 114 114 115 116 117 114 113 110 107 105 104 101 99 97 95 91 89 87 84 81 79 77 76 74 72 71 70 69 68 66 65 63 61 60 59 58 58 57 56 56 55 55 55 54 52 51 50 49 49 48 48 47 46 46 45 45 45 47 47 48 49 49 48 48 49 51 53 56 57 58 62 64 66 67 68 69 70 71 71 71 71 71 71 71 72 72 73 73 72 72 70 67 64 60 58 57 54 52 51 49 46 44 42 37 33 31 27 23 22 22 24 25 38 61 103 125 136 138 136 133 118 98 88 81 79 79 79 79 80 80 78 72 72 73 76 77 79 84 85 85 79 77 69 65 63 62 61 58 56 56 57 63 67 71 73 76 82 86 87 88 89 93 100 108 111 112 112 111 109 106 99 99 99 99 103 106 107 107 106 104 101 98 98 100 102 104 107 108 108 109 109 110 111 113 118 124 128 130 130 128 122 121 120 120 124 126 130 134 134 134 132 123 109 92 77 58 33 27 
57 56 52 52 51 51 52 52 52 52 52 50 49 47 47 47 46 46 44 42 40 40 40 40 40 39 39 40 42 44 52 57 75 88 103 115 126 137 154 157 163 167 170 170 170 170 170 170 170 171 170 169 167 162 159 157 153 152 152 153 156 160 164 165 166 166 166 171 172 172 167 155 127 101 87 82 76 56 20 15 11 10 9 9 10 11 12 13 16 17 17 16 16 14 12 10 5 3 3 3 4 7 11 15 20 27 34 39 43 46 50 54 59 63 69 73 77 80 83 86 90 93 96 99 101 105 107 110 114 115 116 117 118 120 120 121 122 123 124 124 124 124 123 123 123 122 122 121 120 119 119 118 118 118 117 116 116 116 116 117 117 117 117 116 114 113 113 113 114 114 114 114 114 115 115 116 116 117 116 116 116 115 115 115 117 117 117 117 115 113 111 109 107 104 101 100 97 93 90 88 86 83 81 79 77 76 73 72 70 69 68 66 64 63 61 60 59 58 58 57 57 56 56 55 55 55 54 52 50 49 49 48 48 47 47 46 46 46 47 49 50 51 51 51 51 51 53 55 57 58 61 63 65 66 68 69 69 70 71 71 71 71 71 71 71 71 72 72 73 72 71 69 67 65 61 59 57 55 53 52 51 48 45 43 39 36 32 28 24 23 23 23 25 35 59 87 120 133 138 138 136 125 113 95 88 84 80 80 79 79 77 69 65 67 70 72 74 79 82 84 85 85 81 73 65 64 63 62 61 57 55 55 55 58 62 67 71 73 79 82 87 87 89 91 100 107 111 112 113 112 111 106 101 99 99 101 103 106 107 107 106 104 103 100 100 102 104 107 108 109 109 109 110 111 111 114 118 124 130 131 131 130 126 122 120 120 122 125 131 137 138 139 142 142 137 125 109 92 77 69 
54 53 52 50 49 48 48 48 48 48 46 44 42 40 40 39 38 38 38 36 35 34 33 33 33 34 38 39 43 56 75 88 103 116 135 144 154 157 163 167 169 170 170 170 170 170 170 169 169 169 168 167 163 161 157 156 154 154 154 154 157 159 162 164 165 166 166 172 172 165 157 130 99 79 76 74 74 52 20 15 13 11 10 10 11 12 12 13 16 17 17 17 17 16 14 11 4 3 3 3 3 6 10 14 18 23 32 37 41 45 48 52 57 61 66 70 76 79 83 85 89 92 95 98 101 103 106 108 111 114 116 117 118 120 120 121 122 122 123 124 124 123 123 123 123 122 122 122 121 120 119 119 118 118 117 116 116 116 116 117 117 117 117 116 114 113 113 113 114 114 114 114 115 115 115 116 116 117 117 117 117 116 116 117 118 118 118 117 116 116 114 113 110 107 104 102 99 95 91 89 87 83 81 79 77 75 73 71 70 68 66 65 64 62 60 59 59 58 58 58 57 57 56 56 55 55 55 54 52 50 49 49 48 47 47 47 48 49 50 51 53 54 54 54 55 55 57 57 60 61 64 66 68 69 69 70 71 71 71 72 72 71 71 71 71 70 70 70 70 69 69 67 65 62 60 58 57 54 53 51 48 45 43 42 38 33 31 27 24 23 23 24 28 46 76 106 133 138 138 136 130 117 108 94 90 87 83 80 80 77 69 59 59 65 68 71 76 79 82 83 84 83 80 72 65 64 63 63 62 58 55 54 55 56 60 62 67 71 73 79 85 87 89 91 100 105 108 112 113 113 111 106 102 100 99 100 102 105 106 106 105 104 103 103 102 106 108 111 112 112 112 111 111 111 113 118 120 127 132 133 133 132 128 124 122 120 122 124 127 134 138 142 147 149 153 150 141 129 116 109 
46 45 43 41 38 37 37 36 36 36 35 33 31 29 29 29 29 29 29 28 27 26 25 26 30 33 36 43 57 77 100 116 135 144 154 160 166 167 170 171 171 171 171 170 169 169 167 166 166 164 163 162 160 158 157 155 154 154 154 154 155 157 160 163 165 168 171 172 169 157 132 101 79 76 74 66 61 37 20 15 13 11 10 10 11 11 12 12 16 17 17 17 17 16 14 11 4 3 3 3 3 5 8 12 16 22 30 36 40 43 47 52 54 59 65 70 74 78 82 85 89 92 95 97 99 102 106 107 109 112 115 116 118 120 121 121 122 122 124 124 124 123 123 123 123 122 122 122 122 122 121 120 119 118 117 116 116 116 116 117 117 117 117 116 114 113 113 113 114 114 114 115 115 115 116 116 116 117 117 117 117 117 117 119 119 119 119 118 117 116 116 114 113 110 107 104 101 97 92 89 87 84 81 79 76 75 73 70 69 67 65 65 64 63 61 60 59 58 58 58 58 57 57 56 56 56 56 56 54 52 50 50 50 50 51 51 52 53 55 55 55 56 57 57 57 57 59 60 62 64 66 67 69 70 70 71 71 71 72 72 72 72 71 71 71 70 70 69 69 69 68 65 63 61 59 57 55 54 52 49 46 44 42 39 36 32 29 25 24 23 24 24 39 65 98 124 138 139 138 130 122 112 101 95 93 88 87 83 77 70 59 57 57 60 67 72 78 80 82 83 83 81 76 69 64 63 63 63 63 60 56 55 54 54 57 59 61 66 71 76 82 86 87 91 99 104 107 111 112 112 110 106 104 101 100 101 101 104 105 105 104 104 104 104 106 111 116 120 120 120 118 117 117 117 119 122 126 132 136 137 138 137 132 128 124 122 122 123 125 131 136 144 148 153 153 156 157 153 141 136 
39 38 35 32 30 28 27 26 26 25 24 23 22 21 20 20 21 21 21 21 22 22 24 25 29 33 43 61 78 101 123 141 154 160 168 172 172 172 172 172 171 171 171 170 168 167 166 165 163 162 160 157 154 149 149 149 153 153 153 153 153 155 157 163 164 168 169 171 157 132 107 89 79 74 71 62 50 25 20 13 11 11 11 11 11 11 12 12 14 16 17 17 17 16 15 12 3 3 3 3 3 5 7 11 16 22 30 34 38 42 45 48 52 58 64 69 73 77 82 85 89 92 95 97 99 102 106 107 108 111 113 115 117 119 120 121 122 122 124 124 124 124 123 123 122 122 122 122 123 122 122 121 120 118 117 117 116 116 116 117 117 117 117 116 115 114 114 114 114 114 114 115 115 115 116 116 116 116 116 117 117 117 118 119 119 119 119 119 118 117 117 115 114 111 109 106 102 97 92 89 87 82 80 78 76 74 71 69 68 67 65 65 64 63 62 61 60 59 59 59 59 59 57 57 57 57 57 56 56 54 52 52 52 52 53 54 55 56 56 56 57 58 59 59 60 60 61 62 64 65 67 69 70 70 71 71 71 72 73 73 73 72 72 71 70 69 69 69 69 68 66 64 61 59 57 55 54 52 51 46 44 42 40 38 34 31 27 25 24 24 25 29 50 83 116 137 139 139 136 125 116 109 101 100 94 91 88 85 73 62 54 54 55 59 70 76 79 81 82 83 82 77 73 68 64 63 63 63 63 61 56 54 54 54 54 57 60 62 67 71 79 84 86 89 93 100 105 107 110 110 110 106 104 101 100 100 101 102 103 103 103 104 104 105 112 117 120 121 123 121 121 120 120 120 122 125 130 136 137 139 139 138 137 132 128 124 123 123 125 127 133 142 148 153 156 158 158 158 158 155 
32 31 29 26 24 23 22 22 15 15 15 15 15 15 16 18 19 20 20 21 21 21 22 25 32 44 66 84 101 124 143 157 168 173 173 173 173 172 172 172 171 170 169 168 167 166 165 163 162 160 156 151 148 143 137 144 148 150 153 153 153 153 155 157 157 157 163 153 132 113 98 89 79 74 66 53 36 24 17 13 11 11 11 11 11 10 11 12 14 16 17 17 17 17 15 12 3 2 2 3 3 4 6 9 15 20 26 32 36 39 43 46 49 53 59 65 70 77 82 85 88 90 94 97 99 102 105 107 108 110 112 115 117 118 120 121 122 122 124 125 125 125 124 123 123 123 123 123 123 123 123 122 121 119 118 117 117 116 117 117 117 117 117 117 115 114 114 114 114 114 114 114 115 115 116 116 116 116 116 116 116 117 118 119 119 119 119 118 118 118 117 117 114 113 109 105 102 98 92 89 85 82 79 77 76 74 71 69 68 67 66 65 65 64 63 62 62 62 61 61 61 60 60 58 58 58 58 58 57 56 55 53 53 54 54 56 56 56 57 57 59 61 63 64 62 62 64 65 65 67 69 70 71 71 71 72 72 73 74 74 73 73 72 71 69 69 68 68 67 66 65 63 60 58 55 54 52 51 49 44 43 41 38 34 32 28 25 25 24 25 29 46 75 106 131 141 141 139 128 119 109 107 101 100 98 94 91 86 72 59 54 54 57 65 72 78 79 81 82 81 80 76 74 70 66 64 64 63 63 60 56 54 54 54 54 54 57 60 64 71 79 84 86 86 91 99 103 106 109 109 108 106 104 100 99 98 98 101 101 102 102 103 105 109 114 118 121 124 124 123 121 121 121 122 125 127 133 136 137 139 139 138 137 133 132 128 125 125 125 127 131 136 144 149 153 156 158 158 161 159 
18 17 16 15 13 11 11 11 11 12 13 14 15 15 16 18 18 19 19 19 21 21 24 32 46 67 91 108 125 145 159 171 173 174 174 174 173 172 171 171 170 169 167 167 165 165 163 162 161 159 154 149 143 137 135 135 144 148 149 149 149 149 153 154 154 154 153 127 99 98 94 87 79 73 62 50 36 24 16 11 11 10 11 11 10 10 10 12 14 15 16 17 17 17 15 12 2 2 2 2 3 4 5 7 13 18 24 30 34 37 40 44 47 51 58 64 70 75 80 84 86 90 92 96 99 103 106 107 108 110 112 115 116 117 119 120 121 124 125 125 125 125 125 124 124 123 123 124 124 124 124 123 122 120 119 118 118 117 117 118 118 118 118 117 116 115 114 114 114 114 114 115 115 115 116 116 116 116 115 115 115 116 117 118 118 118 118 118 118 118 117 117 115 111 108 104 102 98 92 89 84 82 79 77 76 74 72 70 69 68 67 66 66 65 64 63 63 63 62 62 61 61 61 60 60 60 59 59 59 57 56 55 55 56 56 56 57 58 59 59 63 64 64 65 65 65 65 66 67 69 70 71 71 72 73 73 73 74 75 75 75 74 72 71 69 68 67 67 66 65 65 61 58 55 54 52 51 50 48 43 42 39 35 32 30 28 25 25 24 25 40 66 97 127 141 143 139 137 122 112 107 103 101 101 100 97 93 78 70 61 59 58 61 70 73 78 79 80 81 80 76 75 74 72 69 68 66 63 62 60 56 55 54 54 54 54 56 60 65 72 81 84 86 86 88 96 100 104 107 107 106 106 103 100 98 97 97 98 99 100 100 101 102 107 113 118 121 124 124 123 122 122 122 122 125 129 131 135 136 137 138 137 137 133 132 130 127 126 126 127 130 133 139 144 149 153 156 158 158 158 
14 13 13 12 11 10 10 10 11 11 12 13 14 15 15 16 18 19 19 20 22 25 30 44 66 84 101 124 145 160 172 175 176 176 174 173 171 170 169 169 169 168 167 165 164 163 163 162 161 159 153 146 140 136 135 135 138 148 148 149 149 149 150 153 153 153 127 94 91 91 87 84 83 74 62 49 35 24 17 10 10 10 10 10 10 10 10 12 14 15 16 17 17 17 15 12 2 2 2 2 3 4 5 7 11 16 21 26 32 36 39 42 45 49 56 62 67 73 78 82 85 89 92 94 99 103 106 107 109 110 112 115 116 117 118 120 123 124 125 125 125 125 125 125 124 124 124 124 125 125 125 124 123 122 119 119 119 118 119 119 119 119 119 118 116 116 115 115 114 115 115 115 115 115 115 116 115 115 115 115 115 115 115 116 117 117 118 118 118 118 117 115 112 110 106 103 101 98 92 89 84 82 79 77 77 75 73 72 70 69 69 68 67 66 65 64 64 64 64 63 63 62 62 61 61 61 61 60 59 58 57 57 57 57 59 59 59 59 62 63 64 65 65 67 68 69 68 69 69 70 71 72 72 73 73 74 75 75 76 76 75 75 72 71 68 67 65 66 65 65 63 59 56 54 52 52 50 49 45 43 40 38 33 31 30 27 25 25 25 32 54 85 116 136 142 142 137 127 117 103 102 102 103 107 107 101 94 77 71 63 61 62 69 73 77 78 79 80 80 76 75 72 71 71 69 68 66 63 61 59 56 55 54 54 54 55 57 61 69 79 84 84 86 86 86 93 99 104 107 108 108 106 103 99 97 97 93 97 98 98 98 99 100 105 112 115 119 123 123 123 122 121 121 122 125 127 131 131 135 136 137 137 133 133 131 130 127 126 126 126 128 130 134 142 144 147 152 153 153 153 
16 15 12 11 10 10 10 10 11 11 12 13 14 15 15 16 18 19 20 21 25 40 47 67 73 98 116 145 162 172 176 177 177 176 174 170 169 168 168 168 167 166 164 163 163 162 162 161 160 159 153 146 143 137 136 136 140 147 150 152 153 153 153 152 149 127 94 79 79 84 85 84 84 74 62 49 35 24 17 10 10 10 10 10 10 10 10 12 14 15 15 16 16 16 14 11 3 2 2 2 3 3 4 5 9 14 19 24 28 32 36 40 44 47 53 60 65 71 76 80 85 87 90 94 98 103 106 107 109 110 112 114 116 117 117 119 122 124 124 125 125 125 125 125 125 125 125 126 127 127 126 125 124 122 121 119 119 119 119 119 119 119 119 118 117 116 116 115 115 115 115 115 115 115 116 116 116 115 115 115 115 115 115 114 115 115 115 116 116 116 114 112 110 108 105 102 100 97 92 88 84 82 81 79 77 76 76 73 71 70 70 69 68 68 68 67 66 65 65 65 64 64 64 63 63 63 62 62 61 60 60 59 60 60 62 62 63 63 63 64 65 65 68 69 71 71 71 72 72 72 73 73 74 74 75 75 76 76 77 76 76 75 71 68 67 65 65 65 65 65 63 59 56 54 52 51 50 49 45 42 39 34 32 31 30 30 27 27 32 41 68 101 128 140 142 141 135 121 108 100 100 102 105 110 110 110 100 86 73 71 67 71 73 77 78 78 78 78 77 74 71 70 69 70 69 68 66 66 61 58 55 55 54 54 55 57 61 69 76 82 86 86 86 86 86 96 100 104 109 109 109 106 102 97 96 93 90 90 90 90 90 93 98 103 109 114 119 123 123 122 121 121 120 121 122 125 127 130 131 131 131 132 132 131 130 128 127 126 126 126 126 130 133 136 139 142 144 145 146 147 
13 12 12 11 11 10 11 11 11 12 14 15 15 15 15 15 18 19 20 25 40 61 73 89 106 116 145 160 172 172 175 176 175 174 172 169 167 166 165 165 164 164 163 162 162 161 161 161 160 159 154 150 146 141 140 140 144 147 151 154 155 154 153 149 139 101 87 74 74 84 85 84 84 74 62 48 33 21 13 10 10 10 10 10 10 11 12 14 15 15 15 15 15 15 13 11 3 3 2 2 3 3 4 5 7 11 18 21 26 31 34 39 42 45 52 58 64 69 74 78 85 86 90 94 98 102 105 107 108 110 111 113 115 116 117 118 121 123 124 125 125 126 126 127 127 127 127 127 128 128 128 127 125 124 122 121 119 119 119 119 119 119 119 119 118 117 116 116 116 116 116 116 115 116 116 116 116 116 115 115 115 114 114 114 113 113 113 113 113 113 111 110 108 105 103 101 99 94 90 87 84 83 82 80 79 77 76 76 73 73 72 71 71 71 70 69 68 68 67 66 66 66 65 64 64 64 64 63 63 62 60 60 60 62 63 64 64 64 64 65 66 68 69 71 72 72 72 73 73 74 74 75 75 75 76 77 77 77 77 77 76 75 71 68 66 65 65 65 65 65 62 59 56 54 52 51 50 49 45 42 39 33 32 31 31 31 31 32 40 63 92 119 135 141 141 136 125 111 96 93 93 96 105 110 110 109 100 93 88 78 78 82 82 79 79 78 77 77 73 68 64 62 64 66 69 68 66 64 60 56 55 55 55 55 58 62 69 76 82 87 87 87 87 88 90 97 103 106 110 110 109 108 103 98 96 93 90 90 90 89 89 90 94 100 108 114 119 123 123 122 121 120 119 118 118 119 124 124 124 124 124 125 125 126 126 127 126 126 126 126 126 128 130 133 137 140 142 144 141 142 
12 11 14 12 11 11 11 12 15 15 15 15 15 15 15 15 18 20 24 40 61 82 98 110 133 151 160 169 173 173 174 175 174 171 168 166 165 164 164 164 164 163 163 162 161 161 161 161 160 159 154 153 149 146 143 144 146 148 152 155 157 155 153 148 124 93 83 75 75 85 87 84 84 73 62 48 31 13 11 10 11 11 11 11 11 12 13 15 15 15 15 15 14 14 13 11 4 3 2 2 2 3 3 4 7 11 16 19 24 28 32 36 40 45 51 57 63 68 74 77 84 86 90 93 98 99 103 106 108 109 110 113 115 116 117 118 121 122 123 124 125 127 127 127 127 128 128 129 129 130 130 129 127 125 124 122 121 121 121 120 120 120 120 120 119 119 118 118 118 118 118 117 117 117 117 116 116 116 116 115 115 114 114 113 112 112 111 111 111 110 109 107 106 104 102 100 97 94 89 87 85 84 83 82 81 79 78 77 76 76 75 73 73 72 71 71 70 69 69 68 68 67 67 66 66 66 65 65 64 64 62 62 62 64 64 64 65 65 65 65 67 71 72 72 73 74 74 74 75 75 75 75 76 76 77 77 78 78 77 77 77 75 70 67 66 66 66 66 65 65 62 58 56 55 53 52 51 49 46 43 39 34 32 32 31 31 32 40 63 88 119 134 140 140 136 126 112 100 90 90 91 93 93 105 105 102 94 91 90 88 90 93 87 84 79 78 76 73 67 61 59 60 61 62 64 64 64 61 57 54 54 55 55 58 62 70 76 80 84 87 88 88 88 90 96 97 104 109 111 111 110 109 105 101 97 96 90 90 90 89 89 90 92 98 108 114 121 123 123 122 120 119 117 117 115 114 117 118 118 119 119 119 119 119 123 125 126 126 126 126 126 127 130 133 136 139 142 144 142 142 
15 14 14 14 14 14 15 15 16 16 15 15 14 14 15 15 17 23 37 54 82 106 127 133 160 168 172 173 173 173 173 173 171 168 166 165 164 164 164 164 164 163 162 161 161 161 161 161 159 158 156 154 152 150 147 147 147 150 153 157 159 157 154 139 104 96 89 83 85 92 89 85 84 72 55 33 19 12 11 11 11 11 11 13 13 14 15 16 16 16 16 15 14 14 12 10 4 3 3 2 2 3 3 4 7 10 15 19 21 26 31 34 40 45 51 57 63 68 73 77 84 86 89 93 96 99 102 105 107 109 110 113 115 116 117 118 121 122 123 124 125 127 127 128 128 128 129 129 130 130 131 130 130 127 126 124 124 124 123 122 122 122 122 121 121 120 120 120 120 119 119 119 119 118 118 118 118 118 116 116 115 114 113 112 111 111 111 110 109 108 107 106 104 102 101 98 96 93 89 88 86 85 84 83 83 81 79 77 77 76 76 75 74 73 72 72 71 71 71 70 69 69 68 68 67 67 66 66 66 65 64 63 64 64 65 65 66 66 66 68 71 72 74 75 76 76 76 76 76 76 76 76 76 77 77 77 78 78 78 77 77 75 70 68 66 66 66 66 66 63 61 57 56 55 53 52 51 50 46 43 39 34 32 32 32 33 41 61 84 108 133 141 141 140 135 120 104 87 84 86 89 91 93 98 101 93 91 90 91 93 96 96 93 87 82 78 74 67 60 59 59 59 59 61 61 61 61 57 54 54 54 55 58 62 70 76 80 82 85 87 88 88 90 92 96 102 106 109 111 111 111 110 106 102 102 98 96 96 95 92 91 92 93 100 110 116 122 123 123 123 120 117 117 115 115 114 117 117 117 118 118 117 117 117 118 120 123 125 125 125 125 126 129 133 136 141 142 147 147 147 
16 15 15 15 15 15 16 16 16 16 16 15 14 14 14 15 20 36 54 82 106 128 146 160 171 174 174 174 174 173 173 172 168 167 165 164 164 164 164 164 164 163 162 161 161 161 160 160 159 158 158 156 154 153 153 150 150 153 155 159 160 159 152 130 112 100 96 96 100 105 92 87 79 62 45 25 14 12 11 11 11 12 13 13 15 15 15 16 17 17 16 15 14 14 12 10 5 3 3 2 2 3 3 4 6 10 14 17 21 25 30 34 40 45 51 57 62 68 72 77 82 85 88 91 95 98 101 104 106 108 110 113 114 116 117 118 120 121 122 124 125 127 128 128 129 129 129 130 130 131 131 131 131 131 130 127 127 126 125 124 123 123 123 122 122 122 121 121 120 120 119 119 119 119 119 119 118 118 118 116 115 114 113 112 111 111 110 109 107 106 105 104 102 101 99 97 95 93 90 88 88 86 86 85 84 83 81 80 78 77 77 76 75 74 73 73 72 72 72 71 71 71 69 69 69 69 68 68 67 66 65 65 65 65 66 67 68 68 70 71 73 75 76 76 77 77 77 77 76 76 76 76 77 77 77 78 78 78 78 78 77 75 70 68 67 66 66 66 65 63 60 57 56 55 53 51 51 48 46 43 38 35 34 33 34 41 61 81 107 130 146 146 145 138 126 111 96 83 81 83 86 90 92 92 92 86 86 90 93 96 97 97 96 91 83 75 67 61 58 57 57 58 59 59 60 60 55 54 54 54 55 55 62 68 73 76 80 82 86 87 88 90 91 92 96 97 103 108 110 111 110 110 107 104 103 102 101 101 98 95 92 93 93 100 110 116 122 123 123 121 118 115 115 114 113 113 116 117 117 118 117 117 116 115 115 117 119 122 124 125 125 126 129 136 141 146 150 152 153 152 
17 17 15 15 15 16 16 17 17 16 15 14 13 13 14 20 36 54 82 106 131 147 162 171 177 177 177 176 174 173 172 171 167 165 164 164 164 164 164 167 169 164 163 162 161 161 159 159 159 159 159 158 158 159 160 158 153 157 160 161 160 157 143 136 124 109 106 108 108 107 100 87 66 48 32 18 14 13 11 12 13 13 13 14 15 15 15 16 17 19 18 16 14 14 12 10 5 3 2 2 2 3 3 3 6 8 11 15 19 21 29 33 39 45 51 57 62 66 70 73 80 84 86 89 93 97 99 102 105 107 110 113 114 115 117 118 120 121 122 124 125 127 128 129 129 129 130 130 131 131 132 132 133 133 133 133 132 132 132 130 129 128 126 124 123 122 122 121 121 120 120 119 119 119 119 119 119 119 118 117 116 114 113 112 111 111 110 109 107 106 105 103 101 101 98 96 95 94 90 89 88 88 87 86 85 85 84 82 80 79 77 77 77 76 74 74 74 74 74 74 74 74 74 73 73 72 71 69 69 68 67 66 67 67 69 69 72 73 73 75 75 76 76 77 77 78 77 77 77 77 77 77 77 77 77 78 78 78 78 77 75 72 70 68 67 66 66 65 63 61 59 57 56 54 52 51 48 46 44 41 38 36 35 35 41 56 81 104 129 146 150 150 146 138 120 104 87 81 81 84 88 90 90 84 72 79 82 86 94 97 98 98 94 87 79 68 62 59 56 55 57 58 58 58 58 54 52 52 52 54 55 59 66 70 76 80 80 83 86 88 89 91 92 93 94 96 98 104 108 110 110 110 109 106 103 103 102 102 100 96 93 93 93 100 105 113 116 122 121 118 116 114 114 114 114 114 117 118 118 118 117 116 115 114 112 112 116 119 123 124 125 126 132 140 146 152 154 154 157 159 
15 15 15 15 15 16 16 16 15 15 13 13 12 13 20 36 61 83 106 131 152 163 171 176 177 179 179 178 176 174 172 168 166 165 164 163 164 164 167 170 171 171 167 163 161 159 159 159 159 159 159 159 160 162 163 166 164 165 165 165 160 155 141 136 130 124 113 112 112 110 97 77 61 45 27 18 16 14 13 13 13 13 13 14 15 15 15 17 19 19 19 19 16 14 13 10 5 4 2 2 2 3 3 3 5 8 11 14 17 21 28 32 39 44 51 57 61 65 68 72 78 82 85 88 92 95 98 101 104 107 110 112 114 115 117 119 120 121 123 125 126 127 128 129 129 129 130 130 131 132 132 133 134 134 134 133 133 133 132 132 132 130 129 128 126 125 123 122 122 121 121 120 119 119 119 119 119 119 119 117 117 115 114 113 111 111 110 109 108 106 105 103 101 101 99 97 95 94 92 90 90 88 88 87 87 86 85 84 83 81 81 80 79 77 77 77 79 78 78 78 77 77 77 77 76 74 74 72 71 69 69 69 69 71 73 74 74 75 75 75 75 76 77 78 78 78 78 77 77 77 77 77 77 77 77 78 78 78 77 76 75 72 70 68 67 66 64 63 61 60 58 56 55 53 51 49 46 44 42 41 39 38 37 41 53 71 97 121 141 150 150 150 144 130 111 94 87 84 86 88 88 88 80 66 66 71 80 86 93 97 97 97 93 84 75 65 60 57 54 54 55 56 57 57 54 51 50 50 50 55 56 63 65 70 76 80 80 83 86 89 91 92 93 93 93 94 96 101 104 108 110 110 110 106 104 103 102 102 100 98 92 92 92 93 100 105 113 116 116 113 110 110 113 113 114 117 118 119 120 120 119 117 115 112 109 109 112 116 120 122 124 126 136 142 148 152 154 154 156 157 
14 14 15 15 15 15 15 15 15 13 12 12 13 17 36 61 83 108 137 151 165 172 175 176 178 180 180 179 178 175 173 168 165 164 163 162 162 164 169 171 173 173 171 167 163 159 158 159 159 159 159 160 161 164 166 169 169 169 169 165 157 154 138 136 134 124 112 110 108 98 87 72 55 40 25 18 16 15 14 13 13 13 13 13 14 14 14 16 19 20 20 20 18 16 14 10 6 4 3 3 3 3 3 3 5 7 10 12 16 21 26 31 39 43 50 55 59 63 66 70 76 80 83 87 91 95 97 100 102 106 108 112 114 115 117 119 120 122 124 125 126 127 128 129 129 129 130 130 131 132 133 134 134 134 134 134 134 133 133 133 132 132 130 129 128 127 126 124 123 122 121 120 120 120 120 120 120 119 119 118 117 116 115 114 113 111 111 110 109 107 106 104 102 101 100 98 96 95 94 92 90 90 90 89 88 87 86 85 84 84 84 84 83 83 81 81 79 79 79 79 78 78 78 78 77 77 76 76 74 74 74 74 74 74 75 76 76 76 76 76 76 77 77 78 78 78 78 78 78 78 78 78 78 78 78 78 77 77 76 75 73 71 69 68 67 64 63 61 60 59 57 56 54 51 48 48 45 42 41 40 39 39 41 51 67 90 117 139 150 153 150 150 140 120 104 94 88 88 94 94 88 84 69 57 57 62 72 82 90 97 97 93 87 78 68 62 60 59 54 53 53 55 55 55 52 50 49 49 50 55 58 63 65 69 75 80 81 83 89 92 95 94 94 93 93 93 93 95 101 105 108 109 109 106 103 103 101 100 98 93 91 91 91 93 97 100 104 104 102 101 101 104 108 112 115 118 120 120 120 120 119 118 116 109 106 106 107 112 116 120 122 126 132 140 145 149 154 154 152 151 
15 15 15 15 15 15 15 15 12 11 12 12 13 27 55 83 108 137 151 165 172 175 176 176 177 180 180 179 178 176 174 172 167 163 160 158 158 162 166 171 173 175 175 171 167 163 160 160 159 159 159 160 161 163 166 169 169 169 169 161 154 137 136 135 130 115 112 109 98 87 74 66 52 40 25 18 16 15 14 14 13 13 13 13 13 14 14 16 19 20 20 20 18 16 14 12 7 4 4 3 3 3 3 3 5 7 10 12 15 20 25 30 37 41 48 54 58 61 65 69 73 78 81 85 89 93 95 98 101 104 107 110 112 114 117 119 120 123 124 125 125 126 128 129 129 129 130 130 132 133 134 134 134 134 134 134 134 134 133 133 133 132 131 130 129 128 127 127 126 125 123 122 121 121 121 121 121 120 120 119 118 117 117 116 115 114 113 111 111 110 109 107 105 103 102 101 99 97 96 94 93 92 92 92 91 90 88 87 86 86 86 86 86 85 85 85 81 81 81 80 79 79 79 79 79 79 79 78 78 77 77 77 77 77 77 77 77 77 77 77 77 77 77 78 78 78 78 78 78 78 79 79 79 79 78 78 78 77 76 75 72 71 69 68 66 63 62 60 59 57 57 56 53 49 48 46 44 42 40 39 39 41 46 59 78 105 133 150 153 153 150 144 130 111 101 91 91 94 96 95 90 74 58 56 56 62 73 81 87 92 90 87 79 70 65 64 61 60 55 54 55 55 55 55 52 49 48 48 50 56 59 60 63 67 72 80 81 86 91 97 102 99 95 93 92 90 90 93 96 101 107 108 108 106 103 102 99 96 93 91 88 85 88 89 93 95 95 95 95 92 96 100 103 108 113 117 120 120 120 120 119 118 115 107 106 106 106 109 112 116 120 124 128 132 140 145 145 141 139 139 
19 18 15 15 15 15 13 11 9 9 11 12 19 41 70 106 134 151 162 172 175 176 176 176 176 177 179 178 177 175 173 172 168 165 160 158 158 162 164 168 174 175 176 175 171 167 162 160 159 159 158 159 159 161 166 169 169 169 169 161 137 135 125 124 109 106 106 97 85 77 71 61 52 40 25 18 16 14 14 14 13 13 13 13 13 14 14 18 19 20 20 20 18 16 14 12 8 5 4 4 3 3 3 4 5 6 9 11 14 19 24 29 35 39 46 51 56 60 63 67 71 76 79 83 87 92 94 97 100 102 106 108 112 113 117 119 121 123 124 125 125 126 127 129 129 129 130 131 133 134 134 134 134 134 134 134 134 134 134 134 133 133 132 132 131 129 129 129 128 128 128 127 126 126 126 126 122 122 121 121 120 119 118 118 118 116 115 114 114 114 112 111 109 107 105 103 103 102 99 98 97 97 96 95 95 94 91 90 89 89 89 88 88 88 88 88 88 88 87 86 85 85 84 84 82 82 81 80 79 79 78 78 78 77 77 77 77 77 77 77 77 77 77 78 78 78 78 78 78 79 79 79 79 79 79 79 78 77 76 74 72 71 69 68 64 63 60 59 57 57 56 54 52 50 48 46 42 41 39 39 39 43 52 68 91 120 142 152 154 152 144 130 114 99 91 91 94 106 106 97 95 74 64 58 58 67 76 81 83 86 85 81 76 70 68 65 65 61 60 55 55 55 55 55 55 51 50 50 55 57 59 61 63 67 72 78 81 88 97 103 104 104 99 95 91 87 86 87 93 101 107 108 108 105 102 98 95 93 91 85 82 81 82 88 93 94 94 94 92 91 92 95 100 104 111 117 118 119 120 120 119 118 115 107 106 106 106 109 112 115 117 120 122 128 129 129 125 125 122 124 
20 19 16 15 15 13 11 11 9 9 9 12 27 55 88 123 141 157 170 175 176 176 176 176 176 176 177 177 175 174 173 172 171 167 165 162 161 164 164 165 171 175 177 176 175 171 167 161 159 157 156 156 156 155 160 163 166 166 164 154 133 112 102 97 88 95 92 88 83 74 71 66 54 41 25 17 15 14 14 13 13 12 12 12 13 14 16 19 20 20 20 20 18 16 14 10 8 6 4 4 4 3 4 4 5 6 9 10 12 18 23 27 33 37 44 50 54 58 62 65 70 73 78 81 85 90 93 95 98 101 104 107 110 112 117 119 120 122 124 124 125 125 126 127 129 129 130 132 133 134 134 134 134 134 134 134 134 135 135 135 134 134 133 132 132 131 130 130 131 131 131 131 131 131 131 131 127 127 125 124 122 121 121 120 120 119 118 118 118 117 116 115 114 113 110 109 108 107 104 102 101 101 101 99 98 98 95 94 93 93 92 92 91 91 91 91 90 90 89 88 87 86 85 85 84 83 82 81 80 79 78 78 78 77 77 77 77 77 77 77 77 77 77 78 78 78 78 79 79 79 80 80 80 80 80 79 79 77 76 74 72 71 69 69 64 63 59 58 57 57 55 53 52 50 48 46 42 40 39 39 41 49 66 91 115 140 155 156 154 152 130 114 96 91 91 94 106 121 121 108 97 74 65 62 62 70 76 81 82 82 81 78 75 73 70 70 69 65 63 59 56 56 55 56 55 55 51 55 56 59 60 62 64 68 73 77 81 88 101 106 107 107 102 96 87 83 83 85 92 101 107 108 108 105 100 97 95 92 89 84 81 81 81 84 93 94 94 94 92 91 92 93 96 103 108 115 118 118 119 119 119 118 115 108 107 106 107 110 113 115 116 118 121 122 124 124 125 125 116 119 
19 18 16 14 13 11 11 10 9 9 11 17 40 70 106 134 151 162 170 174 176 176 176 176 176 176 176 176 176 174 173 173 171 170 167 165 165 165 165 167 169 171 176 176 174 172 167 162 159 155 153 153 153 148 153 154 160 160 152 137 125 94 85 85 81 83 86 88 83 73 71 66 54 41 25 16 14 13 13 13 12 11 12 12 14 15 18 19 20 20 20 20 19 16 14 10 8 6 4 4 3 3 3 4 4 6 8 10 12 17 22 26 31 36 42 48 52 56 60 63 68 71 75 79 84 89 92 94 97 100 102 106 108 112 116 117 119 121 123 124 124 125 126 127 128 129 130 132 133 134 134 134 134 134 134 135 135 135 135 136 135 135 134 134 133 132 132 132 132 132 132 132 133 133 134 134 134 133 130 128 126 124 124 123 123 122 122 121 121 121 121 120 118 117 115 114 113 110 108 107 105 105 104 102 102 101 99 98 98 98 97 96 95 94 93 93 91 91 91 90 89 88 86 85 85 84 83 82 81 80 79 78 78 77 77 77 77 77 77 77 77 77 77 77 78 78 78 79 80 80 80 80 80 80 80 79 78 78 75 73 72 71 69 69 64 63 59 57 57 56 53 53 51 48 47 46 43 41 40 40 48 66 87 113 139 155 158 156 152 140 118 99 88 89 91 102 115 121 121 113 97 78 70 67 67 71 76 81 81 81 79 76 75 75 75 76 72 70 66 63 60 59 58 58 58 57 55 57 59 60 62 63 67 71 76 77 81 90 102 107 107 107 101 92 85 82 82 82 90 99 107 108 108 105 98 95 93 90 85 82 81 81 81 88 93 95 95 95 94 92 93 95 96 101 107 112 117 118 118 118 118 118 114 107 107 107 107 111 113 114 116 118 120 122 124 124 125 125 125 129 
17 17 14 13 11 11 10 9 9 9 11 26 49 80 114 138 156 162 170 173 175 176 176 176 176 177 177 176 176 176 174 173 173 172 170 170 169 168 167 168 170 171 174 174 174 172 168 162 157 149 144 144 145 143 142 142 145 147 143 137 123 91 77 78 78 79 83 86 86 76 71 66 54 37 25 16 15 13 13 12 11 11 11 12 15 16 19 19 20 20 20 20 19 17 14 10 8 6 4 4 3 2 3 3 4 5 7 9 11 16 21 26 30 35 42 47 52 55 59 62 68 70 73 78 83 88 92 93 96 99 102 104 107 111 114 117 118 120 121 123 124 125 125 127 128 128 130 132 133 133 134 134 134 134 135 135 135 136 136 136 136 136 136 136 135 134 134 134 133 133 133 134 136 136 136 136 136 135 133 131 129 128 127 126 126 124 124 123 122 122 121 121 121 120 120 118 116 115 113 110 107 107 105 104 104 104 102 102 102 101 100 99 98 96 96 95 95 95 94 93 92 90 89 87 86 85 85 83 82 81 79 78 78 77 77 77 77 77 76 76 76 77 77 78 78 78 79 80 80 80 80 80 80 80 80 79 78 78 75 72 72 70 69 66 64 62 59 57 56 53 53 51 50 48 47 46 44 43 42 45 59 83 112 137 156 158 158 155 143 125 103 85 85 89 92 97 106 115 115 102 90 79 73 71 71 73 81 81 81 81 77 76 76 76 78 78 76 72 69 65 63 63 61 60 59 58 58 59 61 62 65 68 73 76 77 80 85 90 103 104 105 105 98 91 83 82 82 82 90 99 107 108 108 105 101 96 93 89 85 83 82 81 83 89 95 98 98 98 98 95 95 96 98 100 105 110 115 117 117 118 118 117 112 107 106 107 108 112 113 114 115 117 120 122 124 132 134 135 139 143 
10 9 12 11 9 9 9 9 9 11 15 32 57 87 117 138 157 162 168 172 174 176 176 177 177 177 177 177 176 176 176 175 175 174 173 172 171 171 170 171 171 172 173 173 173 172 168 158 153 144 142 142 142 139 137 135 137 141 138 137 128 94 76 76 76 81 86 92 95 89 73 66 46 30 20 16 15 13 12 11 10 10 11 12 15 18 19 19 20 20 20 20 20 19 15 10 8 7 4 3 2 2 3 3 4 5 7 9 11 16 21 26 29 33 40 45 50 54 59 62 67 69 71 76 80 85 90 92 96 98 101 104 106 108 112 115 117 118 120 121 123 125 126 127 127 128 129 131 132 133 134 134 134 134 135 135 135 136 136 137 138 138 138 138 138 139 139 138 137 137 137 137 137 137 137 137 136 136 135 134 133 131 128 128 127 126 125 124 124 123 122 122 121 121 121 121 121 120 116 115 110 108 107 106 107 109 104 103 102 102 101 100 99 99 98 98 97 96 96 96 94 92 91 90 89 87 86 85 83 82 80 78 78 77 77 76 76 76 76 76 76 77 77 78 79 80 80 80 80 80 80 80 80 79 79 79 78 78 75 72 71 69 67 65 63 60 58 57 55 53 51 50 49 47 46 46 46 46 46 53 70 100 130 150 158 158 158 144 126 106 97 85 85 89 92 96 98 106 102 92 84 77 75 75 75 81 81 81 81 79 77 77 77 78 79 79 76 71 68 65 65 65 63 62 61 60 59 61 62 68 78 81 81 80 81 85 86 93 101 103 103 100 94 89 84 82 82 82 84 93 103 108 108 103 99 97 93 90 87 85 84 84 88 93 98 99 99 99 98 98 96 98 98 100 105 108 113 116 117 117 117 115 111 106 104 104 108 111 112 114 115 116 120 126 132 137 151 156 156 155 
14 13 10 8 8 6 6 7 9 11 15 35 62 90 118 140 157 162 167 171 172 174 176 177 178 178 177 177 176 176 176 175 175 175 174 174 173 172 172 172 172 172 172 172 172 171 166 158 149 144 143 142 142 138 134 133 135 138 135 135 123 91 80 78 78 86 94 95 96 95 78 66 37 26 19 17 15 13 11 10 10 10 11 12 15 17 19 19 20 20 20 20 21 21 18 13 10 7 4 3 2 2 3 3 4 5 7 9 11 16 21 26 29 33 39 45 50 54 59 62 67 69 71 76 80 85 90 92 95 98 101 104 105 108 111 114 115 117 118 120 123 125 126 126 127 128 128 131 132 132 132 134 134 134 134 135 135 136 137 137 138 138 138 138 138 139 139 139 139 138 139 139 139 138 137 137 136 136 135 134 134 133 131 129 128 127 126 125 125 124 123 123 122 122 122 122 121 121 119 115 115 114 113 112 112 112 110 106 104 102 102 101 100 100 99 99 98 98 98 97 96 95 92 91 90 89 87 86 84 83 82 80 79 78 77 77 77 76 76 76 76 77 78 79 79 80 80 80 80 80 80 79 79 79 78 78 78 75 73 72 70 69 66 64 61 59 57 55 53 51 50 48 48 47 46 46 46 47 52 64 87 114 142 158 159 158 155 130 107 101 93 92 86 89 92 93 93 93 90 84 79 76 76 76 77 81 81 81 79 78 77 78 79 79 79 79 73 69 66 65 66 65 65 65 63 61 61 64 74 79 81 87 88 86 86 86 89 93 100 102 102 98 91 89 86 82 82 81 82 88 94 101 101 99 97 95 94 92 89 87 87 88 91 95 99 99 99 99 98 98 98 98 99 100 105 108 112 115 116 116 116 114 107 104 102 102 104 109 111 112 115 116 124 132 142 151 157 164 168 168 
12 11 9 8 7 6 6 6 6 10 19 42 69 96 122 140 158 162 167 170 172 173 175 177 178 178 178 177 177 176 176 175 175 175 175 174 174 173 172 172 172 172 172 172 170 168 162 157 149 146 144 142 140 137 133 132 134 138 138 135 119 95 89 80 80 89 95 110 106 95 83 43 30 21 19 17 16 13 12 11 10 11 12 14 15 15 18 19 20 20 21 21 21 21 20 16 10 7 4 2 2 2 2 3 4 5 8 9 11 16 21 25 29 33 39 45 49 54 59 62 67 68 71 76 80 85 89 91 94 97 100 103 105 107 111 113 114 115 117 120 123 125 125 126 126 127 128 130 131 132 132 133 134 134 134 135 135 136 137 137 138 138 138 138 138 139 139 139 139 139 139 139 139 139 137 136 136 135 134 134 134 134 134 131 130 128 127 126 125 124 124 124 123 122 122 123 122 122 120 116 115 115 114 114 114 113 112 110 107 104 103 102 101 100 100 100 99 99 99 98 97 96 94 92 90 90 89 87 86 84 83 82 82 80 79 78 77 77 76 76 76 77 78 79 79 80 80 80 80 80 79 79 79 78 78 78 77 75 72 71 69 66 64 62 59 56 55 53 51 50 48 48 46 45 45 45 46 49 59 77 106 132 150 158 159 156 144 125 103 100 97 97 93 93 92 86 72 65 68 75 75 76 77 77 77 78 79 78 78 78 78 79 80 80 79 78 70 66 64 65 66 67 67 66 65 65 65 74 79 86 89 94 97 93 90 93 93 95 100 100 100 94 91 89 88 83 82 81 80 81 88 93 98 97 95 94 93 92 91 89 89 91 91 95 97 99 99 99 98 98 98 98 99 101 105 108 112 114 116 116 116 111 105 101 100 100 100 104 110 111 113 118 128 142 151 160 165 167 173 173 
12 11 9 8 6 5 4 5 6 7 20 45 74 101 127 145 158 162 167 170 172 173 175 177 178 178 178 177 176 176 173 171 172 174 174 174 174 174 174 172 172 172 172 171 169 166 161 157 152 146 143 142 138 132 128 128 132 138 138 138 119 105 95 91 92 97 114 117 111 100 73 37 24 21 20 19 17 14 13 11 10 11 13 14 15 16 17 19 19 20 22 22 21 21 20 16 10 7 6 3 2 2 3 3 4 6 8 10 13 16 21 25 29 33 39 45 49 54 59 62 67 68 71 76 80 85 87 90 92 95 99 101 104 106 110 112 113 115 116 118 122 124 125 125 126 126 127 129 131 131 132 132 133 134 134 134 135 136 137 137 137 137 137 137 137 137 137 138 139 139 140 140 139 139 139 137 136 136 135 135 134 134 134 133 132 130 129 128 127 126 125 125 124 124 124 124 123 123 121 118 115 115 115 114 114 114 113 111 109 106 104 104 103 102 101 100 100 99 99 99 98 97 95 93 92 90 90 89 87 86 84 84 83 82 81 80 79 78 77 77 77 78 79 79 80 81 80 80 80 80 80 79 79 79 78 78 76 74 71 70 67 65 62 59 57 55 54 52 50 49 48 48 44 44 44 45 49 59 75 94 123 144 155 158 156 147 127 106 100 97 98 98 97 95 86 63 59 58 63 68 75 76 77 79 78 78 78 78 79 79 80 81 81 80 78 73 67 63 63 63 66 67 67 68 69 67 73 79 86 93 97 98 99 98 96 94 95 97 99 99 98 93 91 89 88 84 81 80 78 78 83 89 93 94 94 93 92 92 90 89 89 91 91 94 95 97 97 96 96 96 97 98 99 101 105 108 112 114 116 116 116 111 104 100 98 97 97 101 106 111 111 118 132 147 156 165 167 168 167 166 
14 13 8 6 6 4 4 5 7 14 25 47 74 103 130 150 158 163 167 171 172 174 176 179 180 180 179 177 176 174 171 171 170 171 173 174 174 174 174 174 173 172 172 169 167 163 161 159 155 148 143 142 135 128 123 123 129 138 138 138 119 108 103 101 103 114 121 121 110 95 63 33 22 21 21 20 18 16 14 13 13 13 14 15 15 16 17 19 20 22 23 22 22 21 19 13 10 9 7 5 3 3 3 4 5 6 9 11 14 16 20 24 28 32 39 44 49 54 58 62 66 68 71 76 80 84 85 89 91 94 97 100 103 105 109 111 112 113 115 117 120 123 124 125 125 126 126 128 129 130 131 132 133 133 134 134 134 136 137 137 137 137 137 137 137 137 137 137 137 139 139 139 139 139 138 137 136 135 135 135 135 135 135 134 133 132 130 129 128 127 127 126 126 126 126 126 125 124 122 120 116 116 116 116 115 115 114 112 110 108 106 105 104 103 102 101 100 99 99 99 98 98 95 93 92 91 90 90 88 87 85 84 84 84 83 82 81 79 79 78 78 79 80 81 81 81 80 80 80 80 80 79 79 79 78 78 76 74 71 67 65 63 60 58 55 55 53 51 49 49 48 47 45 44 44 49 53 70 92 119 144 154 155 154 148 130 107 97 93 97 106 101 99 95 72 59 47 47 58 65 72 76 79 79 78 78 78 78 79 80 84 84 83 81 76 68 63 60 60 60 65 67 67 68 70 70 76 80 87 94 98 100 100 100 98 98 98 98 99 99 97 92 90 89 88 86 81 77 76 76 80 87 91 93 93 93 92 91 90 89 89 91 91 92 94 95 95 94 93 93 94 97 99 101 105 108 113 116 116 116 116 111 104 100 97 96 96 98 102 108 111 118 137 148 160 165 167 168 163 162 
10 8 8 7 6 6 6 7 11 23 45 68 92 113 134 153 161 165 169 172 174 176 179 180 181 180 180 178 176 173 171 170 170 170 172 174 174 174 175 174 174 172 171 168 165 161 160 158 156 150 146 142 132 123 117 117 123 140 140 138 122 108 105 103 108 113 119 113 109 87 63 33 22 21 21 20 20 17 14 13 13 14 14 15 16 16 18 20 22 23 23 22 21 20 18 13 11 10 9 7 5 4 4 4 5 7 9 12 14 17 20 23 28 31 37 43 47 52 57 60 65 67 71 76 79 82 84 87 90 93 96 99 102 105 109 111 112 113 114 116 119 122 123 124 125 125 125 126 128 129 130 132 133 133 133 134 134 135 137 137 137 137 137 137 137 137 137 137 137 137 139 139 139 138 137 137 136 134 134 134 135 135 135 135 134 133 132 131 130 129 128 127 126 126 126 126 126 125 122 120 118 118 117 116 116 115 115 114 112 110 108 107 105 104 103 102 100 99 99 99 98 98 95 93 92 91 90 89 88 87 86 84 84 84 84 84 83 81 81 79 79 79 80 81 81 81 81 80 80 79 79 79 78 78 77 76 76 73 70 67 65 62 59 57 55 55 53 51 49 48 48 47 47 46 47 52 70 90 116 142 155 155 155 148 131 111 98 92 93 107 114 112 111 95 59 49 47 47 56 64 73 79 80 80 79 78 76 78 79 83 84 84 83 79 71 64 60 59 59 60 61 66 67 69 70 72 76 82 88 95 99 101 101 101 100 98 98 98 98 98 95 91 90 89 88 86 81 77 76 76 80 87 91 93 93 92 91 90 88 88 89 89 91 92 92 93 92 91 89 89 91 94 97 100 104 108 113 116 117 117 117 111 104 100 96 96 96 98 102 103 110 118 129 147 155 164 167 167 167 170 
4 2 5 7 7 8 11 14 25 44 56 78 106 128 141 156 163 167 172 174 176 179 180 181 182 182 181 180 178 174 172 170 170 170 172 173 174 175 175 175 175 172 169 166 161 161 160 159 158 153 150 142 128 116 108 108 116 133 133 132 124 108 105 103 106 111 119 113 108 90 63 38 23 23 23 23 22 18 14 13 13 14 15 15 16 18 20 23 23 23 23 21 20 18 14 12 11 10 10 11 7 6 5 5 7 9 9 12 14 17 20 23 27 29 36 43 47 52 55 59 63 67 70 75 78 81 84 86 89 91 95 98 101 104 108 111 111 112 114 115 117 119 122 124 124 125 125 126 127 127 128 130 132 133 133 133 134 134 136 137 137 138 138 137 137 137 137 136 136 136 137 137 137 137 137 137 135 134 134 134 135 135 135 135 134 133 132 131 130 129 129 128 127 126 126 126 126 124 123 122 120 119 118 118 116 116 115 115 112 111 109 108 106 104 104 102 101 99 99 98 98 96 95 92 92 91 90 89 88 87 86 84 84 84 84 84 83 82 82 82 82 82 82 82 82 82 82 81 81 80 79 79 78 78 77 76 75 72 69 67 64 62 59 57 55 55 54 51 49 48 48 48 47 48 52 70 90 116 142 155 155 155 149 133 111 98 93 92 95 115 121 117 111 87 59 54 49 49 61 67 75 80 81 80 79 78 78 79 80 83 83 80 76 71 67 60 59 59 59 59 60 63 66 68 70 72 75 80 86 95 99 101 102 102 101 99 99 98 98 97 92 90 90 89 88 86 81 77 77 77 81 88 92 93 93 92 90 87 85 85 86 88 89 90 91 91 90 88 87 87 89 91 95 98 104 108 113 116 117 117 117 111 103 98 96 96 96 98 102 104 108 116 129 143 153 159 164 166 173 179 
5 4 4 6 11 17 31 37 51 68 89 106 118 135 147 158 164 170 173 176 178 180 182 183 184 184 184 183 181 179 174 173 171 172 173 174 175 175 177 177 176 174 168 164 161 160 159 159 158 156 150 140 123 108 98 97 100 123 131 131 124 108 105 102 103 110 113 113 109 98 73 43 29 27 25 25 23 19 14 14 14 15 16 17 19 21 23 23 23 23 22 20 18 15 13 12 11 11 13 13 17 13 9 7 9 9 9 12 14 17 20 23 27 29 36 42 47 51 54 57 61 66 69 74 77 80 82 84 87 91 95 98 100 104 106 111 111 112 114 115 117 119 120 123 124 124 125 125 126 127 128 128 130 132 133 133 133 134 135 136 137 138 138 138 138 137 137 136 136 136 136 136 136 136 136 136 134 134 134 134 134 135 135 135 134 133 133 132 131 130 129 128 128 126 126 126 125 124 123 123 122 120 120 119 118 116 116 114 112 111 110 109 107 106 104 102 101 99 99 98 97 96 94 92 92 91 89 88 88 87 86 85 84 84 84 84 83 83 82 82 82 82 82 82 83 83 83 82 82 81 81 80 79 79 77 76 74 71 69 66 64 62 59 57 56 55 54 52 51 49 48 48 52 61 70 90 116 141 154 160 160 151 133 114 98 92 93 95 110 122 122 117 111 80 59 57 56 57 66 73 77 80 81 80 77 78 78 79 79 80 79 74 67 61 60 59 59 59 60 60 60 63 65 66 69 71 73 78 85 93 96 100 101 102 100 99 99 99 98 97 92 90 89 89 87 84 79 77 77 77 81 88 92 94 93 91 87 85 83 83 84 86 88 89 89 90 89 86 86 86 87 90 92 96 104 108 113 116 117 117 116 110 103 100 97 97 98 102 103 106 109 113 125 140 151 157 162 166 175 182 
3 1 5 11 23 37 51 72 89 96 113 126 135 146 152 158 166 170 173 176 179 180 182 183 184 184 184 183 183 181 179 177 174 174 174 175 175 175 177 177 176 171 166 161 159 159 159 158 158 156 150 134 115 98 96 90 90 100 124 131 124 108 102 93 93 105 111 118 111 105 87 54 39 34 27 27 23 18 15 14 14 15 19 20 23 27 27 24 24 23 21 20 18 15 13 12 12 12 17 20 21 27 17 12 11 11 12 13 15 17 22 25 28 31 36 41 46 51 53 55 60 66 69 74 76 78 82 84 87 90 94 98 100 102 105 108 111 113 114 115 117 117 119 122 123 124 124 125 125 126 127 128 129 132 132 133 133 134 134 135 136 137 138 138 138 137 137 136 136 135 136 136 136 136 136 136 134 134 134 134 134 134 134 134 134 134 133 132 131 130 130 129 128 126 126 125 124 124 123 123 122 121 120 120 119 117 116 114 112 111 111 109 108 106 104 103 102 99 98 97 96 95 93 92 91 89 88 88 86 86 84 84 84 84 84 84 83 83 83 82 82 82 83 83 83 83 83 83 82 81 81 80 79 78 77 76 73 69 67 65 63 62 59 58 56 55 54 52 51 51 49 53 61 72 93 114 136 157 163 163 155 135 115 98 92 92 95 109 118 124 124 115 98 71 63 62 59 63 68 73 77 77 77 77 76 76 77 77 77 77 74 70 64 57 56 57 59 59 60 60 61 62 65 66 69 70 72 76 85 91 94 95 100 101 100 99 100 99 99 98 94 90 89 88 86 81 77 76 76 76 78 84 90 93 93 90 87 83 82 82 82 85 86 89 89 89 88 86 86 86 87 90 92 96 104 109 113 116 118 117 116 111 104 103 101 101 103 104 106 108 109 112 125 135 148 154 161 164 162 166 
4 3 11 23 47 70 89 103 122 126 131 141 147 147 150 158 164 168 171 173 177 179 181 183 184 184 184 183 183 182 181 181 179 176 175 175 175 175 175 176 174 168 163 159 158 158 158 158 156 155 149 132 113 98 88 85 81 88 117 123 122 110 96 88 88 91 109 119 119 109 90 60 43 37 29 27 22 17 17 16 15 20 25 28 30 32 32 31 27 24 21 19 17 15 13 11 11 12 20 22 31 33 31 27 17 13 13 15 16 19 23 26 29 34 36 40 45 49 51 54 59 65 69 71 74 77 81 82 86 90 94 96 100 102 104 107 111 113 114 114 116 117 117 119 122 124 124 124 125 126 127 128 129 131 132 132 132 133 134 134 135 136 137 137 137 137 137 136 136 136 136 136 136 136 136 136 135 134 134 134 134 134 134 134 134 133 132 132 131 130 130 129 127 126 126 124 124 123 123 123 122 121 120 119 119 117 116 114 111 111 110 109 108 106 104 103 102 99 98 96 95 95 93 92 89 88 88 86 85 84 84 84 84 84 84 83 83 83 83 83 83 83 83 83 83 83 83 83 83 82 81 79 78 77 76 76 72 69 67 64 63 62 60 58 56 55 54 52 52 52 53 61 72 93 114 134 153 163 163 157 145 123 100 92 92 92 100 111 117 122 118 109 91 70 65 62 62 67 72 73 76 76 76 73 73 76 76 76 74 72 71 66 59 55 55 56 58 59 60 60 61 62 65 67 69 71 73 78 85 91 93 94 95 97 98 99 100 100 100 100 97 90 89 87 85 79 76 75 72 73 77 81 88 90 90 90 87 83 82 82 82 84 86 89 89 89 88 87 87 87 89 90 91 96 104 109 114 118 118 118 117 116 111 105 104 105 107 107 107 108 109 110 118 129 143 151 158 162 166 168 
6 10 23 47 70 96 122 126 143 148 147 147 147 148 149 156 161 165 169 171 175 177 178 179 179 181 183 183 182 182 181 181 179 176 175 175 175 174 174 172 171 166 161 158 156 156 156 156 156 153 145 128 111 98 85 77 76 76 96 118 118 118 102 85 85 88 101 121 121 121 90 60 43 37 29 25 20 20 20 20 21 26 30 32 33 34 34 34 32 27 23 19 15 14 11 10 10 11 20 31 36 38 50 40 29 21 16 18 19 22 23 28 30 36 38 41 44 49 51 53 56 63 67 71 74 76 78 82 85 87 91 95 100 102 104 106 111 113 114 114 115 117 117 119 119 122 124 124 125 126 127 128 128 130 131 131 132 132 133 134 134 135 135 136 136 135 136 136 135 135 136 136 135 135 135 135 135 134 134 134 134 134 133 133 133 132 132 131 131 130 129 128 126 126 124 124 123 123 123 122 122 120 120 119 118 117 116 114 111 111 110 109 107 106 104 103 102 99 97 96 95 95 94 92 90 88 87 86 85 84 84 84 84 83 83 83 83 83 83 83 83 83 83 83 84 84 84 84 84 83 82 80 79 78 76 74 71 67 66 65 63 62 60 58 56 54 54 53 53 54 61 72 93 114 133 151 158 163 158 153 135 111 81 81 82 92 94 109 115 115 109 94 79 70 65 63 66 68 72 73 76 73 67 66 66 67 71 72 72 70 65 59 59 55 55 55 57 58 60 61 62 64 66 69 71 74 76 85 91 93 93 93 92 92 96 98 100 101 102 102 100 95 90 88 83 77 75 73 71 72 73 77 82 87 88 87 87 83 82 81 82 85 88 89 89 89 88 88 87 88 90 91 92 95 103 110 116 118 120 120 120 119 116 114 114 114 114 109 109 109 109 109 111 125 135 148 154 160 165 166 
11 20 41 70 96 124 143 149 152 150 148 147 147 147 148 151 156 162 166 168 172 175 177 178 179 179 179 179 181 181 181 179 178 176 175 175 174 174 173 171 170 165 159 156 155 155 155 155 154 151 142 126 111 98 85 76 71 71 76 110 118 118 116 96 95 101 116 119 119 119 89 60 43 37 27 21 20 20 21 28 31 31 33 35 35 35 35 35 34 32 24 22 17 13 10 8 9 11 20 36 38 54 54 62 51 40 25 22 23 25 25 28 32 36 38 41 44 48 51 52 56 61 65 70 73 74 77 81 85 86 89 94 98 101 104 106 108 111 114 114 115 116 117 117 119 120 122 123 124 125 126 127 128 129 130 130 131 131 132 133 134 134 135 135 135 135 135 135 135 135 135 135 135 135 135 135 135 134 134 134 133 133 132 132 132 131 131 131 130 129 127 126 126 125 124 123 123 123 122 121 120 119 117 117 117 116 115 113 111 110 109 108 106 105 105 103 102 99 96 95 95 95 94 93 91 88 87 86 85 84 84 84 84 83 83 83 83 84 84 84 84 84 84 84 84 84 84 85 85 84 83 81 79 78 76 74 71 67 66 65 63 62 60 58 56 54 53 53 53 61 72 93 114 132 151 161 163 163 154 135 111 81 78 79 81 82 93 95 108 105 91 82 70 63 63 65 68 71 72 73 71 66 61 58 59 62 62 66 70 66 61 59 59 57 56 56 57 57 60 62 64 65 69 71 76 80 82 86 91 92 92 89 87 87 92 95 98 101 103 103 102 98 93 88 80 77 75 72 71 71 71 73 79 84 87 87 87 82 81 81 81 86 89 89 89 89 88 88 88 89 90 91 93 95 104 110 118 120 121 121 120 120 119 119 122 124 122 115 111 109 109 107 105 110 125 135 148 157 162 165 
20 37 65 96 124 143 152 155 153 152 149 148 147 147 147 148 152 156 162 167 169 173 176 177 178 178 179 179 179 178 177 176 176 176 175 175 174 174 173 171 167 165 159 155 154 153 153 153 153 147 139 124 111 98 85 73 62 62 69 96 110 120 120 116 105 109 118 119 118 113 78 67 44 34 25 21 21 22 31 38 38 38 38 36 36 36 36 36 35 34 30 23 15 11 7 7 8 9 20 36 53 57 72 73 73 62 43 27 26 27 28 30 34 37 39 41 46 49 51 53 56 62 65 70 72 73 77 81 84 85 89 92 96 100 102 105 106 109 112 114 114 115 116 117 119 119 121 122 123 124 126 127 128 128 129 129 130 130 130 132 132 132 133 133 133 133 134 135 135 135 135 135 134 133 133 133 134 134 133 132 132 131 130 130 130 129 129 128 127 127 126 126 125 124 123 123 123 122 121 120 118 116 115 115 115 115 114 111 110 109 108 107 106 105 105 104 102 99 95 95 95 95 95 94 92 89 87 87 86 86 84 84 84 84 84 84 84 84 85 85 86 86 86 86 86 86 86 86 86 85 84 82 79 78 76 74 71 67 66 65 63 62 60 58 56 54 54 54 59 72 88 108 129 150 161 163 163 158 139 113 84 73 76 79 81 83 87 91 91 86 79 70 63 61 62 63 68 71 71 71 67 62 61 58 58 58 57 57 57 59 59 59 60 59 57 56 56 56 59 62 64 68 70 75 79 81 82 85 91 91 88 86 85 85 86 93 97 99 102 103 102 99 93 87 82 79 75 74 71 70 71 72 77 83 86 86 86 81 80 80 82 85 88 89 89 88 87 88 88 90 91 92 94 95 104 110 118 119 121 121 120 120 120 122 125 128 126 124 115 109 106 101 97 97 103 108 122 135 146 152 
37 60 93 122 143 152 158 157 155 153 150 147 146 144 144 147 148 154 160 162 169 173 175 177 177 178 178 178 177 174 174 174 175 175 175 175 175 174 173 171 167 165 159 155 153 153 153 153 152 144 136 122 109 98 84 71 59 59 59 79 109 120 129 129 120 121 121 119 116 108 74 67 44 34 26 24 25 31 41 46 50 52 48 45 42 41 39 38 37 35 32 23 13 10 4 4 7 9 20 36 54 68 74 85 88 86 68 48 34 29 32 34 36 37 40 43 46 50 52 55 58 62 65 70 72 73 77 81 82 85 89 92 95 98 101 104 105 106 109 111 114 115 116 117 119 119 120 121 122 123 125 126 127 127 128 128 128 129 129 130 130 131 131 131 131 131 132 132 134 134 133 132 131 130 130 131 132 132 132 131 130 130 129 129 129 128 128 127 127 126 126 125 124 123 123 123 122 122 120 118 116 115 114 114 114 114 113 110 109 109 108 106 105 105 105 104 102 99 95 95 95 95 95 95 93 90 87 87 87 87 86 86 85 84 84 84 85 85 86 86 87 87 87 87 87 87 87 87 86 86 85 82 79 76 75 74 71 68 66 65 63 62 60 58 57 56 56 58 69 86 103 124 149 161 163 163 158 142 114 84 78 70 76 79 81 82 82 82 71 63 63 60 59 59 60 61 68 70 70 67 64 62 61 58 56 56 55 53 52 55 58 59 61 60 60 58 57 56 59 62 66 70 75 79 81 82 84 86 87 87 84 81 81 84 85 94 98 99 101 101 100 97 91 87 86 82 79 75 74 71 72 72 77 82 86 86 86 80 79 79 81 84 88 88 87 86 87 87 88 90 91 92 94 95 103 110 113 118 119 119 119 119 120 123 128 130 130 126 120 109 105 101 97 97 103 108 116 122 116 120 
60 87 119 142 152 158 159 159 157 153 150 146 144 142 142 142 144 151 156 162 167 172 174 176 177 177 177 174 173 172 172 173 173 174 175 175 175 175 174 172 168 165 163 158 154 153 153 152 149 143 132 118 106 92 77 62 53 53 59 79 109 126 132 135 137 135 125 121 116 101 74 67 52 40 33 33 38 41 46 50 53 54 54 50 47 45 45 41 38 37 33 23 12 7 4 4 4 9 22 36 49 68 85 89 98 99 97 77 54 40 35 36 37 39 41 44 49 52 55 56 60 62 66 71 72 74 76 80 82 84 88 92 94 97 100 102 104 106 108 110 112 115 116 117 119 119 120 121 121 122 124 125 126 126 127 127 128 128 128 129 129 130 131 131 131 131 131 130 130 130 129 128 128 128 128 129 129 129 129 129 129 129 129 128 128 128 127 127 126 126 125 124 123 123 122 122 121 121 119 117 115 114 114 114 113 113 112 110 109 108 107 106 105 105 104 103 102 99 95 95 95 95 95 95 94 92 89 88 87 87 87 86 86 86 85 85 86 86 87 87 88 88 88 88 88 88 88 88 87 86 85 82 80 77 75 74 71 68 66 65 64 62 59 58 58 58 59 67 84 103 123 143 158 166 166 161 143 117 93 78 78 70 79 81 82 81 75 62 57 49 51 54 56 58 60 61 68 69 69 67 63 61 59 56 56 54 53 51 51 54 57 59 60 60 60 58 56 56 62 66 70 75 77 81 81 85 87 87 87 84 80 79 80 81 86 95 98 99 99 99 98 96 93 88 86 86 82 77 75 72 72 72 77 83 86 86 86 80 78 78 79 82 84 85 85 85 85 85 86 89 91 91 94 95 103 107 110 113 115 115 115 115 118 123 130 130 130 130 120 109 105 100 97 97 103 108 116 122 107 108 
79 106 135 152 158 160 160 159 157 152 147 144 142 141 140 140 142 144 151 158 164 169 172 174 176 174 172 171 170 170 171 172 172 173 175 176 177 176 175 173 169 167 165 161 156 154 153 152 146 140 129 116 104 91 74 56 51 51 53 79 109 132 135 137 138 137 127 123 117 101 78 73 67 56 46 41 46 47 50 53 54 55 55 54 50 47 46 46 45 38 37 23 12 4 4 4 4 10 22 36 49 66 86 99 101 110 120 103 79 57 43 40 40 41 44 47 51 54 55 57 60 64 68 71 72 75 77 80 81 84 88 91 94 96 98 101 102 104 106 109 111 114 116 117 118 119 120 120 121 122 122 124 126 126 126 126 127 127 128 128 128 129 130 130 130 130 129 129 128 128 126 126 127 127 127 127 128 128 127 128 128 128 128 128 128 127 126 126 126 125 124 123 122 122 122 122 121 120 119 117 115 114 113 113 113 113 111 110 109 108 107 106 105 105 104 103 102 100 98 95 95 95 95 95 95 93 90 89 88 87 87 87 87 86 86 86 86 87 88 88 88 88 88 88 88 88 88 88 87 87 85 82 80 77 76 74 71 68 66 65 63 62 60 58 59 62 69 84 101 122 138 157 166 166 163 155 132 106 84 78 78 81 86 86 82 75 62 46 44 44 46 51 55 58 60 66 69 69 69 67 63 62 59 56 56 53 52 51 51 54 57 59 60 59 59 58 59 59 65 70 73 76 79 81 84 89 89 87 84 82 79 79 80 82 90 97 99 99 99 98 97 96 95 93 88 86 84 80 76 71 71 72 77 83 87 87 87 80 78 78 79 80 82 83 84 84 84 84 85 85 88 91 94 94 101 106 107 110 109 108 107 108 109 122 127 128 128 125 120 109 105 103 102 105 108 113 119 124 128 127 
106 125 147 158 161 161 161 159 154 152 146 144 140 137 136 136 138 141 147 153 161 165 169 172 172 171 169 169 167 167 169 169 171 173 175 176 177 176 175 173 169 167 167 165 161 156 153 152 144 133 122 112 98 88 73 51 51 51 62 87 114 133 135 137 138 137 126 123 112 103 88 78 74 73 77 77 58 54 54 54 54 55 58 55 55 49 48 47 46 46 38 30 15 6 4 4 5 14 26 37 49 66 86 101 115 124 126 127 120 92 69 49 44 46 47 49 53 55 57 58 62 66 70 72 74 75 77 80 81 83 86 89 92 94 96 99 101 102 104 107 110 113 115 117 117 119 119 120 121 122 122 123 126 126 126 126 126 126 127 127 127 127 127 127 127 127 127 127 126 126 126 126 126 126 126 127 127 127 127 126 126 126 125 125 125 125 125 124 124 124 123 122 122 122 122 121 120 119 118 117 115 113 113 113 113 112 111 110 109 109 108 106 105 104 104 103 102 102 99 97 96 96 96 96 94 93 90 89 88 88 88 88 87 87 87 87 87 88 89 90 90 90 89 88 88 88 88 88 87 86 85 82 80 77 75 74 71 68 66 64 64 62 62 60 64 73 86 103 120 133 153 166 167 166 161 143 109 84 78 78 84 95 93 87 83 71 57 46 44 44 46 49 54 57 65 67 69 69 69 67 63 62 59 56 53 53 53 53 54 57 59 59 59 59 59 59 61 63 68 72 75 77 80 85 90 91 90 87 83 83 81 80 82 88 93 98 98 98 98 98 97 96 96 95 93 89 86 83 74 70 70 72 77 83 89 89 89 81 79 79 79 80 81 83 84 84 84 84 85 85 86 89 91 94 101 106 107 107 107 104 103 103 108 114 125 126 126 124 113 109 107 106 107 109 117 121 127 127 139 144 
128 143 157 161 161 161 161 159 154 152 146 144 138 135 132 131 133 136 140 147 153 158 164 164 164 164 163 161 161 163 164 165 169 171 174 175 177 176 174 171 169 167 166 164 163 160 155 152 143 131 122 112 97 88 73 51 51 51 62 87 114 133 134 135 137 133 124 117 107 102 99 80 78 80 84 85 85 63 54 50 54 55 58 55 55 51 50 49 48 48 47 33 21 9 5 5 6 16 26 37 49 66 86 100 122 127 134 135 139 121 96 70 53 49 49 52 54 56 57 61 65 70 72 73 75 77 79 81 82 84 86 89 92 93 95 98 100 101 103 105 109 111 114 115 117 118 119 120 121 121 122 124 126 126 126 126 126 126 126 127 127 127 127 127 127 127 126 126 126 125 125 125 125 125 125 124 124 124 124 124 124 124 124 124 124 124 124 124 123 122 122 121 121 121 121 120 119 119 118 117 115 114 113 113 112 112 112 111 110 109 108 106 105 105 104 103 103 102 101 99 98 97 97 96 94 92 91 90 89 89 88 88 88 88 88 88 89 90 91 91 91 91 90 89 88 88 88 87 86 85 82 80 78 76 74 72 71 70 68 66 64 64 63 65 73 86 107 120 133 144 164 166 167 166 152 126 91 78 78 78 99 105 105 95 86 63 58 51 46 46 49 51 56 63 67 69 69 69 70 69 64 62 57 56 54 54 54 56 57 58 59 59 59 59 60 62 63 66 70 73 77 80 85 90 92 93 91 89 84 83 82 83 87 92 94 95 97 97 95 96 97 98 99 98 96 93 88 83 71 68 68 70 77 83 89 89 89 81 79 79 79 80 81 82 84 84 84 85 85 85 86 88 91 96 103 106 107 107 106 101 101 101 105 112 125 126 126 123 114 111 108 108 112 117 124 127 130 132 138 143 
147 158 161 161 162 161 161 159 154 152 146 139 135 131 128 126 128 129 134 140 147 152 156 157 157 157 156 155 157 159 160 163 164 167 169 172 173 173 171 169 167 166 165 164 163 160 155 154 141 130 122 110 95 87 73 50 50 50 62 88 115 133 133 133 132 126 118 109 105 101 99 86 85 85 86 98 98 86 60 49 47 49 55 55 55 52 52 51 50 52 52 42 29 14 6 6 10 18 28 40 54 70 87 99 122 132 139 144 145 145 124 100 72 56 54 55 55 57 59 64 69 72 74 75 77 78 80 82 83 84 87 89 91 93 94 96 99 100 102 104 107 110 112 114 117 117 119 119 121 121 123 124 126 126 126 126 126 126 126 126 127 127 127 127 126 126 125 125 125 125 125 124 123 123 123 123 122 122 122 122 123 123 123 123 123 123 123 123 122 121 121 121 120 120 120 119 119 118 118 117 116 114 113 113 112 111 111 111 110 109 109 107 106 105 104 104 103 102 102 100 98 98 97 96 94 93 92 91 90 89 89 89 89 89 89 89 91 91 91 91 91 91 91 90 88 88 87 87 86 84 81 79 77 75 74 72 71 70 69 68 68 68 69 73 86 107 123 133 144 154 166 167 166 158 142 106 78 76 78 93 106 109 109 103 89 75 62 58 51 51 56 59 65 66 69 69 71 71 74 74 68 62 57 56 56 56 56 56 57 58 59 59 59 59 61 63 63 66 70 76 77 81 92 94 94 94 92 89 86 84 84 86 89 94 94 94 94 94 93 94 95 98 99 98 96 95 86 78 69 67 67 69 77 83 87 87 87 81 78 78 78 80 81 82 84 84 85 86 85 86 87 88 92 98 106 108 108 107 106 99 99 99 103 109 124 126 126 123 119 114 111 113 117 124 127 132 138 142 141 145 
157 165 164 162 162 162 161 159 153 149 144 138 132 128 126 124 123 125 128 133 140 144 147 152 152 152 152 152 153 154 159 159 162 163 165 166 166 166 163 161 160 159 159 159 159 157 154 148 138 126 116 109 95 87 72 50 50 50 62 88 115 133 133 133 127 122 115 107 103 100 96 86 86 86 98 105 110 105 86 58 54 51 52 52 52 52 52 53 58 57 53 49 33 16 13 13 13 22 31 43 57 73 88 100 116 131 144 146 154 157 149 133 102 77 58 57 57 58 61 68 72 75 76 76 78 81 82 84 84 86 88 91 92 93 94 94 99 100 101 104 107 109 112 114 115 117 118 119 121 122 123 124 126 126 126 126 126 126 126 126 126 127 127 126 125 124 124 124 124 124 124 124 123 123 123 123 122 122 122 122 122 122 122 122 122 122 122 122 122 121 121 120 120 119 118 118 118 118 118 118 116 115 113 112 112 111 111 111 110 109 109 108 107 106 105 104 104 103 102 102 100 98 98 97 95 94 93 92 91 91 92 92 92 91 91 91 91 92 92 92 92 91 90 89 88 87 86 85 84 82 80 79 77 75 74 72 71 71 70 70 72 72 75 86 99 120 131 142 154 164 166 167 166 146 121 91 74 78 85 99 109 109 109 97 92 82 75 63 63 63 69 73 73 71 71 73 73 75 75 75 70 68 63 58 56 57 57 58 58 58 58 58 59 59 61 62 63 66 70 77 81 87 94 94 94 93 89 87 85 84 84 87 92 94 94 93 90 87 87 90 93 95 99 98 95 89 82 70 65 63 63 67 74 80 85 85 83 77 77 77 77 80 81 82 84 85 86 87 87 87 87 91 96 105 109 112 111 108 104 98 97 97 99 109 121 123 123 121 120 119 117 119 124 130 139 142 142 145 148 152 
164 169 166 165 163 162 161 158 153 147 142 137 131 126 125 123 123 123 124 126 129 134 140 144 147 148 148 148 148 151 153 157 159 160 161 162 162 159 157 154 150 148 146 149 150 154 149 147 137 122 112 104 95 82 67 50 50 50 62 90 116 133 133 133 123 117 109 104 100 97 94 89 89 90 101 115 115 114 105 72 59 55 55 55 55 53 57 61 62 60 58 49 35 24 16 16 17 22 33 46 60 75 88 100 116 130 145 154 157 161 162 162 136 109 79 61 61 61 65 69 74 76 77 78 80 82 84 85 86 88 89 91 93 93 94 96 99 100 102 104 107 109 112 113 115 117 118 119 121 122 123 124 125 126 126 126 126 126 126 126 126 126 126 125 124 123 123 124 124 124 124 124 123 123 123 123 122 122 122 122 122 122 122 122 122 122 122 122 122 121 121 120 119 118 116 116 117 118 118 118 117 115 112 112 111 110 110 111 110 110 110 109 108 107 106 105 104 103 102 102 101 100 99 98 97 95 94 93 93 93 94 94 94 93 92 92 92 92 92 92 92 91 89 88 88 87 86 85 84 82 80 79 77 76 74 72 72 72 72 72 73 78 86 97 114 126 141 153 160 166 166 164 147 124 96 82 75 91 95 100 104 104 99 92 92 89 82 80 77 74 75 75 74 74 74 74 76 78 77 76 71 69 68 66 62 60 59 58 58 58 58 58 58 60 61 63 64 67 70 78 87 88 93 94 92 89 87 84 84 84 84 87 90 93 92 88 85 85 87 89 92 95 95 95 93 85 80 69 63 62 62 66 72 75 80 81 80 76 75 75 76 78 81 82 84 86 87 87 87 87 88 93 101 109 115 115 115 112 104 97 96 94 97 106 112 121 122 119 119 119 119 122 130 140 144 151 153 154 155 157 
172 176 167 165 162 162 161 157 152 146 141 135 131 128 126 124 123 123 123 122 122 126 130 133 137 139 140 142 143 145 148 152 156 157 157 157 155 155 153 150 148 145 145 147 149 150 148 146 133 119 109 99 89 74 61 49 49 50 69 98 125 133 133 133 123 114 102 99 97 96 93 90 90 90 95 111 111 110 101 94 85 66 64 63 61 64 65 65 64 63 59 49 42 33 18 18 22 26 38 53 63 75 88 96 116 129 145 154 161 163 166 169 165 143 109 79 65 66 67 71 75 76 78 79 82 84 85 87 88 89 91 92 93 94 96 98 99 101 103 105 107 110 112 114 116 117 119 119 121 121 123 124 125 125 126 126 126 126 126 126 126 125 124 124 123 123 123 123 123 123 124 123 123 123 124 124 124 123 122 122 122 122 121 121 121 121 122 122 122 122 121 120 118 115 115 115 116 117 118 118 118 115 112 111 110 109 110 110 110 110 110 109 108 108 107 106 105 104 103 102 101 101 100 99 98 98 98 97 96 96 96 96 94 94 93 92 92 92 92 92 92 91 90 88 88 88 87 86 85 83 81 80 79 77 76 75 73 74 74 75 79 86 94 104 123 139 145 157 164 169 166 161 131 99 93 82 91 93 99 100 100 99 92 92 92 92 89 82 80 78 77 77 77 77 77 77 82 80 79 77 71 70 69 68 68 65 63 62 59 58 58 58 59 61 62 64 65 70 78 84 86 87 92 89 89 87 84 82 84 85 85 86 91 92 85 84 84 84 85 89 93 95 94 94 93 83 77 69 62 62 62 64 69 74 75 76 75 72 72 74 75 77 80 82 84 86 87 87 87 88 90 96 104 111 116 116 116 114 104 96 91 91 94 105 111 113 118 118 118 118 119 124 139 145 152 155 158 158 158 158 
171 174 169 167 163 161 160 155 150 144 141 137 132 129 127 125 123 122 121 120 119 119 122 129 133 136 138 139 140 142 144 148 151 153 154 154 154 153 152 150 148 145 145 147 149 150 148 146 133 115 109 96 82 67 53 49 49 51 74 105 133 135 135 134 122 109 100 97 95 95 94 92 92 95 96 106 106 102 99 94 94 94 87 70 66 66 66 66 63 62 52 47 42 36 26 25 26 36 46 56 65 76 90 98 117 129 142 152 162 166 173 177 178 172 146 110 84 71 72 75 76 77 78 80 84 86 87 89 89 91 93 94 94 96 97 99 101 103 105 107 109 111 112 115 117 118 119 120 121 122 123 124 125 125 125 125 125 125 125 125 124 124 123 123 123 123 123 123 123 123 123 123 123 123 124 124 124 123 122 122 122 121 120 121 121 121 121 122 122 122 121 120 117 115 115 115 115 116 117 117 116 115 112 111 110 109 110 110 110 110 110 109 108 108 108 108 106 104 103 102 102 101 101 101 101 101 100 99 98 98 98 96 96 96 94 93 93 92 92 92 92 91 90 88 88 88 88 88 86 86 85 84 83 82 81 81 79 79 79 82 86 94 103 116 132 144 156 163 169 169 161 144 111 96 91 91 94 99 99 99 89 81 81 89 91 91 89 84 80 79 79 79 80 83 87 88 87 85 79 77 71 70 69 68 68 68 66 66 65 60 60 60 60 61 62 65 71 77 80 83 85 87 87 87 84 84 83 82 84 85 86 86 86 84 83 83 84 84 87 92 96 97 94 93 89 83 77 69 63 62 62 64 69 72 72 72 71 71 71 72 75 77 78 82 84 87 87 87 87 88 90 98 105 113 115 116 116 112 102 92 91 91 91 99 107 111 112 113 113 115 119 124 143 151 155 162 163 162 160 159 
165 169 169 167 162 161 157 152 148 145 141 138 135 131 129 127 125 122 121 119 118 119 120 126 130 135 136 138 139 140 142 145 148 152 152 153 153 152 151 150 150 148 148 150 150 149 147 144 131 111 103 92 78 62 49 49 49 51 75 108 135 136 136 135 119 104 99 96 95 96 98 98 104 106 106 106 106 102 102 103 104 104 99 89 70 70 69 65 61 54 48 45 42 38 37 35 38 44 53 61 67 77 90 100 117 126 138 151 161 173 177 180 182 180 172 146 116 88 77 76 76 77 79 80 85 87 89 89 91 93 95 96 97 98 100 103 104 105 107 110 111 112 115 117 119 119 120 121 122 122 124 125 125 125 125 125 125 125 124 124 124 124 123 123 123 123 122 122 121 121 121 121 121 123 124 124 124 123 122 120 119 119 119 119 120 121 121 122 122 122 121 121 118 116 115 115 115 116 116 116 116 114 112 111 111 110 110 110 110 109 109 109 108 108 108 108 107 105 104 103 102 102 103 104 103 103 102 101 100 99 99 99 98 96 96 94 93 93 92 92 92 93 93 93 94 94 94 94 90 90 89 88 87 86 86 86 85 85 86 88 91 97 106 123 139 156 162 169 171 166 152 126 99 91 91 94 108 110 100 94 79 76 77 81 85 88 88 84 80 79 80 80 83 86 89 90 90 87 82 77 71 69 69 68 68 68 68 66 66 66 65 64 62 64 67 70 76 77 78 82 84 85 84 82 82 82 82 83 85 86 86 85 84 81 76 82 84 89 97 99 100 99 95 93 88 83 75 68 65 63 63 65 68 71 71 71 69 69 69 72 75 77 81 83 86 87 88 88 88 89 90 96 106 113 115 115 114 111 102 95 91 91 94 99 107 110 110 110 109 110 114 123 140 152 161 163 166 165 163 161 
175 175 167 165 161 157 153 150 148 146 144 141 138 135 131 129 127 124 121 119 118 119 120 122 129 133 136 138 139 139 141 143 145 149 151 152 151 151 150 150 150 149 149 150 150 149 147 142 130 109 98 87 75 58 48 48 48 57 86 116 135 136 136 131 118 103 97 95 95 104 108 114 115 109 106 106 106 106 104 106 109 113 109 103 87 70 66 63 52 47 45 42 41 40 42 43 44 53 60 65 73 83 91 100 118 126 136 147 158 171 178 181 183 184 183 174 148 116 88 78 77 78 79 80 86 88 89 91 95 95 97 99 100 101 103 104 106 109 110 110 112 114 117 119 120 120 121 122 124 125 126 126 126 125 125 125 125 125 124 124 124 123 123 123 123 122 121 120 119 118 118 118 118 118 118 118 117 117 117 117 117 117 118 118 118 119 121 121 122 122 121 119 118 117 116 116 116 116 116 116 115 114 112 112 111 111 111 111 110 109 109 109 108 108 108 108 107 105 104 104 104 104 105 104 104 104 103 102 101 100 100 100 100 99 97 96 96 96 96 97 99 99 99 99 99 98 97 96 95 94 93 92 90 89 88 87 87 88 88 90 97 105 116 132 145 159 171 174 171 161 131 100 91 86 93 111 116 116 108 82 70 70 70 77 81 84 84 78 74 77 78 80 83 86 90 90 90 88 82 77 71 69 67 66 65 65 66 66 66 66 65 65 65 67 70 71 74 77 77 77 77 76 79 80 81 82 83 86 89 90 86 85 81 79 76 81 89 97 101 104 104 101 99 94 88 83 75 68 65 63 64 66 68 70 70 68 68 68 69 74 76 79 82 85 87 90 92 90 90 90 93 96 106 113 115 115 114 110 102 99 95 94 96 106 107 110 110 107 105 104 108 114 125 145 156 163 166 165 170 167 
170 169 165 161 157 153 150 148 147 146 144 144 144 140 136 132 129 127 122 121 120 120 121 124 129 135 136 139 139 140 142 144 145 147 149 150 151 150 150 150 149 149 149 150 150 149 145 136 125 108 94 85 75 58 48 48 48 59 86 118 135 136 136 130 114 99 97 97 99 108 120 123 125 123 115 106 106 106 110 118 123 123 119 109 98 72 65 52 45 41 41 41 41 42 43 45 53 60 65 73 78 88 96 103 119 126 136 146 155 167 176 181 183 184 186 184 174 149 116 90 79 78 79 80 86 89 91 95 96 98 100 101 103 104 106 107 109 110 111 112 114 117 119 120 121 123 124 125 126 126 126 126 126 126 126 126 125 125 125 124 124 124 123 123 122 121 120 119 118 118 117 117 117 116 116 116 116 116 116 116 116 116 117 117 118 118 119 120 121 121 119 118 118 117 116 116 116 116 116 115 114 113 112 112 111 111 111 110 109 109 109 108 108 108 108 107 106 105 105 105 105 105 105 105 104 104 103 103 103 102 102 102 102 102 102 101 99 99 99 101 101 102 101 101 100 100 99 98 97 96 95 94 92 91 90 89 89 89 90 96 104 112 127 142 158 169 174 174 163 145 109 91 86 91 99 124 124 121 115 82 70 70 73 77 80 81 80 74 73 74 77 78 80 84 88 88 88 85 82 77 72 68 65 65 64 65 66 66 66 65 65 65 66 69 70 71 72 76 76 73 73 73 75 79 82 83 88 91 92 91 90 85 81 80 79 84 91 98 103 104 104 104 100 94 88 83 74 68 65 64 65 67 70 70 69 67 67 68 71 75 78 82 84 86 90 92 93 94 93 94 96 100 107 114 115 115 114 110 102 100 99 99 100 107 110 111 110 107 104 103 103 108 120 140 152 157 163 163 166 164 
164 163 160 157 153 150 148 147 146 145 145 144 144 143 140 135 131 129 124 122 121 121 123 125 132 135 137 139 140 141 142 144 146 147 147 149 150 150 149 149 148 148 148 147 146 145 143 133 117 100 88 82 74 57 48 48 48 65 92 119 132 136 136 122 109 95 95 97 105 114 120 123 125 123 117 115 115 115 117 118 123 123 119 103 98 66 62 47 40 39 39 40 41 42 45 52 61 68 74 80 88 93 98 106 119 127 137 146 152 165 173 179 182 184 186 189 189 176 149 123 94 80 79 82 86 89 91 95 97 100 102 103 106 107 109 110 110 111 112 115 117 119 121 122 123 125 126 126 126 126 126 127 127 128 128 127 126 126 126 126 126 125 124 123 122 121 120 119 118 118 117 117 116 116 116 115 115 115 115 115 115 115 115 116 116 117 118 118 119 119 118 118 117 116 116 116 115 115 115 114 114 113 112 111 111 111 111 110 109 109 108 108 108 107 107 106 106 105 105 105 105 105 106 105 105 104 104 103 103 103 103 103 104 104 104 104 103 103 103 104 105 105 104 103 102 101 100 99 98 97 96 96 95 93 92 90 90 91 95 98 106 116 133 151 163 174 174 169 154 125 94 86 86 94 113 128 128 128 118 95 79 76 77 80 81 81 80 74 74 74 77 80 81 82 83 85 83 82 77 74 72 71 66 65 64 65 66 68 66 65 65 65 66 69 70 71 72 73 72 72 72 73 73 78 83 88 91 92 92 90 88 83 81 81 84 89 94 100 101 104 104 101 100 94 88 80 74 67 65 64 65 67 69 69 68 66 66 68 73 76 79 82 84 86 90 93 94 95 96 96 97 102 110 115 116 116 114 111 104 100 100 100 100 110 113 115 113 107 104 98 98 104 115 135 143 152 157 162 163 163 
159 157 156 153 150 146 143 142 142 143 144 144 144 143 141 137 134 129 124 122 122 122 123 125 132 136 139 140 141 142 144 145 146 147 147 147 147 147 147 147 147 146 146 145 145 144 139 132 114 98 85 80 70 57 48 48 57 76 102 127 132 132 130 119 103 94 94 95 105 114 116 121 122 122 117 115 115 115 117 118 123 123 103 101 99 86 63 45 38 36 37 39 40 43 50 62 69 76 84 88 92 96 101 107 119 128 137 146 149 158 168 179 181 184 188 192 192 192 176 156 128 97 84 83 84 88 91 95 98 101 103 107 110 112 112 112 112 113 115 117 119 121 123 124 126 126 127 128 128 128 128 129 129 129 129 128 128 127 127 127 127 126 126 125 124 123 122 121 120 118 117 117 116 116 116 115 115 115 115 115 114 114 115 115 115 115 116 116 116 116 116 115 115 114 114 114 114 114 114 114 113 112 111 110 110 110 110 109 109 109 108 108 108 107 107 107 106 106 106 106 106 106 106 106 105 105 105 104 104 104 104 105 106 108 108 107 105 105 105 105 105 106 106 105 104 102 101 101 100 99 98 97 97 96 96 95 94 95 98 101 111 124 142 161 171 174 174 159 134 106 91 86 91 101 123 128 128 123 114 104 90 82 82 83 83 83 81 79 76 77 79 80 81 82 83 83 82 79 75 73 72 72 71 66 65 68 68 68 68 65 65 66 68 69 70 71 73 73 72 72 72 73 76 82 88 91 92 92 92 90 86 83 81 83 84 89 94 97 101 104 101 100 95 89 83 77 74 66 64 64 65 68 68 68 66 65 65 66 72 76 79 82 83 86 90 93 95 96 97 98 101 107 115 118 120 120 118 114 108 102 102 102 106 113 119 124 121 115 107 99 99 104 109 124 140 146 152 156 161 162 
157 155 154 151 148 146 143 141 141 141 142 143 143 142 141 137 134 127 122 122 121 122 123 125 132 137 139 140 141 144 145 145 146 146 145 145 147 147 147 147 147 146 145 144 144 143 137 132 113 98 83 75 62 49 48 48 61 84 111 131 131 131 127 111 97 88 88 89 102 114 116 120 123 123 117 115 114 114 105 98 90 90 99 99 99 95 80 51 38 35 36 39 41 47 57 68 76 85 87 90 92 98 103 111 119 128 137 144 149 158 166 175 181 184 189 193 195 198 194 184 165 129 97 90 88 88 90 95 98 102 106 110 112 115 117 117 117 117 118 120 122 123 125 126 127 128 129 129 130 130 130 131 131 131 130 129 129 128 128 128 128 128 127 126 125 124 123 121 121 120 119 118 117 116 116 115 115 115 115 114 114 114 114 115 115 115 115 115 115 114 113 112 112 112 111 111 111 111 112 112 112 111 111 110 110 110 109 109 109 109 108 108 108 107 107 107 107 107 107 107 106 106 106 106 106 106 106 106 106 106 107 108 110 110 110 110 109 107 107 107 107 107 108 107 106 105 104 104 103 103 103 103 102 102 101 99 98 99 100 104 115 133 153 167 174 174 167 146 119 93 91 90 94 114 123 126 123 118 112 104 94 90 88 88 87 87 87 83 81 81 81 82 82 82 82 82 79 77 73 73 72 72 73 73 77 77 77 76 72 68 66 68 69 70 71 75 74 73 72 71 72 74 78 86 91 93 93 93 92 88 83 81 81 83 86 89 92 94 97 100 99 94 90 83 78 75 70 66 64 64 65 69 69 69 66 65 65 65 70 75 76 79 82 84 88 93 96 97 98 101 107 115 120 123 128 128 122 118 111 103 102 102 103 111 119 124 121 115 107 100 100 103 109 124 137 144 148 152 156 157 
156 155 153 152 149 146 143 141 140 140 141 141 141 140 138 135 131 125 122 121 120 121 122 125 130 135 138 140 141 144 145 146 146 144 143 143 145 147 147 147 147 146 144 144 143 141 136 130 112 97 80 71 57 47 47 48 61 86 113 132 132 132 123 105 88 82 82 86 102 114 116 120 120 116 112 111 105 96 88 86 85 84 84 84 86 95 86 75 48 39 40 42 42 50 62 74 83 85 87 90 93 99 106 113 119 128 137 144 150 158 166 171 181 184 189 195 198 199 201 199 190 165 132 102 90 88 88 91 96 102 108 112 115 117 118 119 120 120 122 123 125 125 127 127 128 129 130 130 131 132 132 132 132 132 132 131 130 129 129 129 129 128 128 128 127 126 124 122 121 121 120 120 120 119 118 117 116 115 115 114 114 113 113 113 115 115 115 115 115 113 112 111 110 109 109 110 110 111 111 111 111 111 111 110 110 110 109 109 109 109 108 108 108 108 108 108 108 110 110 110 109 109 109 110 111 110 109 109 108 108 108 108 110 110 110 110 110 110 109 108 110 110 110 110 109 107 107 107 109 109 109 108 106 105 102 101 100 100 102 108 124 142 160 167 169 167 156 130 106 91 90 93 108 116 120 120 116 112 106 100 95 90 90 90 92 93 98 93 89 89 89 89 89 89 84 82 79 75 72 72 72 73 76 79 82 84 84 81 76 72 71 71 71 73 76 77 76 74 71 71 71 74 78 86 93 94 94 93 90 85 79 79 80 83 86 87 89 92 92 93 90 88 81 77 75 70 69 65 64 64 65 69 70 69 68 65 65 66 69 73 74 76 78 82 86 91 95 97 100 104 109 118 126 131 131 131 128 121 113 106 102 100 99 106 111 124 121 108 103 100 101 103 111 124 137 144 147 151 152 152 
154 154 153 152 151 147 145 143 142 141 140 140 141 140 137 135 127 122 117 114 115 117 119 120 126 132 137 137 139 145 148 147 146 142 139 139 143 147 150 150 150 147 144 144 143 140 134 129 112 93 75 62 49 35 32 37 61 87 113 131 141 140 121 101 76 65 62 77 102 120 128 132 133 125 111 98 88 82 78 76 74 71 68 71 82 99 113 120 80 55 34 33 42 52 65 77 86 85 87 88 91 99 107 113 119 126 135 144 152 159 165 170 180 184 189 195 199 203 206 208 206 190 166 140 111 90 83 84 91 98 106 113 117 119 120 120 125 125 125 125 126 127 128 128 129 130 131 133 134 134 134 134 136 135 134 133 132 132 132 132 131 130 129 128 128 127 126 125 121 121 121 121 120 120 120 120 117 117 116 115 114 113 113 112 116 116 115 114 113 111 110 109 109 109 108 108 109 110 111 111 112 112 111 110 109 109 110 110 110 110 110 111 112 113 113 113 111 113 115 114 111 110 112 114 113 113 112 110 110 110 110 110 109 110 112 112 110 109 110 111 112 112 113 113 112 111 111 110 114 114 113 111 110 108 106 106 102 100 104 119 136 153 167 178 179 167 146 119 91 79 90 108 129 126 116 102 96 100 106 108 96 91 88 93 101 106 103 98 98 97 96 96 97 96 93 89 77 73 69 68 72 78 82 84 88 90 92 91 87 81 75 71 73 79 85 86 81 76 74 74 71 74 81 89 96 99 98 97 87 82 76 74 79 84 87 88 90 92 89 82 78 75 72 66 69 70 71 68 63 63 69 75 75 73 70 65 62 63 67 70 73 73 73 76 82 89 95 99 104 109 118 127 133 136 139 140 134 129 121 111 98 90 94 103 101 108 109 101 95 97 100 101 118 130 141 144 144 148 151 152 
152 153 154 154 155 152 150 148 144 141 139 138 138 137 135 133 124 119 114 112 113 115 117 118 124 130 135 136 138 144 148 147 147 143 139 140 144 150 153 153 152 149 144 143 141 137 130 126 110 91 71 56 43 29 28 34 61 88 115 133 143 141 122 99 77 66 64 83 112 135 146 151 141 129 112 94 84 82 86 90 100 88 70 56 58 76 99 113 104 75 48 42 48 56 71 85 84 83 83 84 88 96 106 113 121 125 131 141 150 159 166 169 182 183 186 191 197 201 201 200 208 204 193 169 133 102 88 88 86 93 103 111 116 118 118 119 129 128 127 127 127 127 129 128 129 130 131 133 135 136 136 136 138 137 136 135 134 134 134 134 131 131 130 129 128 127 127 126 120 120 120 120 120 121 121 121 118 117 117 116 115 114 113 113 116 116 116 115 113 111 109 108 109 109 109 109 109 110 111 112 114 113 112 112 111 111 112 112 111 112 113 114 115 116 117 117 112 115 117 116 113 112 114 116 111 111 109 109 108 107 107 107 106 108 109 110 110 111 113 115 115 115 115 115 115 115 115 114 116 116 114 112 111 109 107 106 100 99 105 124 144 160 169 175 160 148 130 106 81 72 88 110 130 120 102 85 81 90 99 103 90 86 84 90 100 105 103 99 103 101 100 100 101 100 97 93 83 78 72 69 72 77 82 85 87 93 98 96 86 76 72 71 74 79 83 81 75 70 69 71 67 70 76 85 93 97 97 95 84 78 72 71 76 83 86 86 85 86 83 76 71 69 65 60 62 64 66 64 62 65 74 82 83 80 75 68 64 65 69 74 74 74 74 77 83 91 98 103 103 109 118 126 130 133 135 135 129 126 121 111 96 83 82 89 93 99 97 87 83 90 99 103 124 135 145 147 147 150 154 154 
