P2
# Processed image
400 400
255
31 31 30 30 31 31 31 32 32 32 33 33 33 32 31 31 35 35 35 35 35 35 35 35 40 40 41 41 40 39 38 37 36 37 38 39 39 39 39 39 40 39 38 38 37 34 29 25 28 25 23 24 23 21 18 15 12 11 9 8 7 6 7 7 4 4 4 3 3 2 2 2 3 2 2 2 2 3 4 5 4 7 10 11 13 14 17 20 22 24 26 27 26 25 25 26 27 32 38 42 47 52 56 59 67 69 73 75 77 83 93 100 109 108 105 103 103 107 114 119 127 127 130 135 141 143 140 136 131 130 129 128 128 128 128 129 128 124 118 115 116 119 123 125 122 117 114 116 122 128 130 130 133 136 141 146 148 148 147 146 149 144 136 132 132 135 138 139 142 141 140 141 141 137 129 123 130 133 136 134 129 124 123 123 129 128 129 132 138 141 142 141 150 150 149 148 146 143 142 141 145 143 142 143 146 150 152 153 169 164 159 157 156 153 147 142 145 145 142 137 134 127 107 86 58 47 48 66 83 83 78 78 68 71 75 76 74 78 94 112 103 84 75 89 105 110 111 113 125 123 119 114 109 108 110 113 102 103 104 107 112 118 124 127 114 96 65 33 10 3 5 12 7 8 8 7 5 6 11 14 8 9 8 5 2 1 3 6 3 3 3 2 1 1 1 1 2 1 1 3 5 6 4 2 4 5 5 6 6 5 5 4 3 2 2 2 4 7 11 14 20 24 31 37 42 49 56 59 64 63 64 66 66 66 65 65 63 64 67 71 75 79 82 83 83 82 81 81 82 84 85 87 85 88 90 92 95 99 104 108 116 120 126 130 133 135 138 140 144 146 149 150 150 149 146 144 143 141 139 137 134 131 126 122 120 115 109 105 104 103 101 100 101 104 107 109 110 108 107 105 
29 29 28 28 29 30 30 30 31 32 32 32 32 32 31 31 32 32 32 33 34 34 35 35 38 38 38 38 38 37 36 35 35 36 37 38 39 39 39 38 41 40 38 38 37 34 30 26 25 23 22 23 23 20 16 12 11 9 8 7 6 6 6 6 4 4 4 3 3 2 2 2 3 2 2 2 2 3 4 5 4 7 10 12 12 14 17 20 23 24 25 25 25 26 28 30 31 34 38 42 44 48 52 55 63 69 75 80 82 84 90 94 96 99 100 101 102 106 110 114 125 127 132 138 143 146 146 145 141 139 135 132 130 129 130 130 129 127 126 125 125 125 125 124 122 119 118 120 125 130 134 136 136 139 144 148 150 149 146 144 149 143 136 132 134 139 143 146 150 148 147 148 148 145 140 136 137 139 141 141 139 137 135 135 134 132 132 133 137 140 141 142 145 144 143 143 143 143 141 139 136 136 137 140 145 150 154 156 168 165 163 164 167 167 163 160 157 154 149 145 147 146 133 118 92 84 85 99 105 102 98 100 100 100 101 100 96 98 111 125 122 110 104 111 117 115 116 122 133 129 124 120 118 118 119 120 113 115 116 115 116 118 123 126 152 136 109 78 50 30 18 12 2 3 5 8 10 9 6 4 9 9 8 5 2 1 2 3 8 8 8 7 7 6 5 5 4 2 1 2 4 5 4 3 4 5 5 6 6 5 5 4 2 2 2 2 3 6 9 12 21 25 32 39 44 51 57 60 63 63 64 66 66 66 66 65 63 65 68 71 75 79 81 83 81 80 80 79 80 82 83 85 86 87 89 91 93 98 104 109 117 120 126 130 133 136 138 140 143 145 148 149 149 148 145 143 144 142 139 137 134 130 125 121 119 114 108 106 104 103 103 103 105 106 108 108 108 106 104 103 
27 27 27 27 27 28 29 29 32 32 32 32 32 32 32 32 30 30 31 32 34 35 36 36 36 37 37 37 37 36 35 35 35 36 37 39 40 40 40 40 41 39 37 36 35 33 29 26 21 21 20 20 21 18 14 9 11 9 8 6 6 5 5 6 5 5 4 4 4 3 3 3 3 2 2 2 2 3 4 5 5 7 10 12 12 14 17 19 23 24 25 24 24 26 30 33 35 37 39 41 43 46 51 54 62 70 81 88 89 89 91 92 87 92 98 101 104 107 110 113 123 128 134 140 145 149 152 155 149 148 143 138 134 132 131 130 126 128 131 133 132 128 124 121 123 123 125 126 129 134 140 144 142 145 150 154 156 154 151 149 152 146 139 136 137 142 146 149 150 149 149 150 152 154 153 152 147 147 148 149 151 151 148 146 140 138 136 134 135 137 139 141 140 136 134 135 138 141 140 139 136 138 143 148 154 160 165 167 167 165 164 166 171 172 169 166 162 160 155 153 156 158 154 146 133 129 131 136 134 126 124 129 132 128 125 123 121 122 131 142 143 139 136 139 133 127 129 137 141 136 130 127 127 128 127 126 126 129 130 126 120 118 121 126 141 143 144 139 122 91 57 34 16 11 7 6 10 11 7 3 4 5 5 6 8 10 11 12 12 12 13 13 12 12 11 10 7 5 2 2 3 4 4 4 4 4 5 6 6 5 5 4 2 1 2 2 3 6 9 12 22 27 34 40 45 52 58 61 63 63 64 66 66 66 66 66 64 66 68 72 75 78 81 82 80 79 78 78 79 80 81 84 86 87 88 89 92 97 105 110 117 121 126 130 133 136 140 143 143 144 146 148 148 146 144 143 146 144 141 138 134 129 124 119 119 114 108 105 104 104 106 106 105 106 106 107 107 107 105 105 
27 26 26 26 26 27 28 29 31 31 31 31 31 32 32 33 32 32 33 34 35 35 36 36 36 36 37 37 37 37 36 35 37 38 39 40 41 41 41 41 40 37 34 32 32 30 27 25 22 20 17 15 16 14 12 9 12 11 9 7 6 6 6 6 5 5 5 4 4 3 3 3 3 2 2 2 2 3 4 5 5 8 10 12 12 14 16 19 21 23 25 26 25 26 28 30 35 37 39 40 43 48 54 58 63 71 84 92 96 97 98 100 92 97 101 106 109 112 116 118 124 129 136 141 144 148 154 159 153 152 150 147 142 137 133 130 121 125 129 131 129 124 119 117 125 127 131 133 134 138 145 151 147 151 157 161 164 163 160 158 159 155 149 146 145 146 146 146 144 144 145 148 152 157 161 163 154 152 151 152 155 155 152 148 143 142 138 134 130 131 135 139 136 130 125 124 129 135 137 137 142 146 152 159 164 169 173 175 167 163 159 158 159 158 153 149 149 153 156 156 155 154 155 155 155 156 159 159 151 142 143 150 145 140 135 135 136 137 143 151 153 151 151 152 145 137 137 143 142 135 128 126 128 130 127 124 133 137 138 132 123 118 121 127 116 128 146 162 162 142 111 87 65 47 24 9 5 9 11 10 6 5 5 9 14 18 20 20 10 11 12 13 13 13 13 13 10 7 3 2 3 4 5 4 3 4 4 6 6 5 5 4 3 3 2 4 6 8 11 13 22 27 34 41 46 52 57 59 63 63 64 66 67 67 67 67 66 67 69 72 75 78 80 82 79 79 78 78 79 80 81 83 86 86 86 87 90 96 105 111 117 120 125 129 133 136 140 144 142 143 145 146 146 145 143 142 148 146 142 138 134 129 123 118 118 114 108 104 104 106 108 107 102 103 104 105 107 108 109 110 
27 27 26 26 26 27 28 29 30 30 29 29 29 30 31 32 33 32 33 32 34 33 34 33 35 35 36 36 37 36 36 36 38 38 39 40 41 39 39 39 37 35 31 29 28 27 25 23 24 18 14 11 10 11 11 11 13 12 9 8 7 7 7 7 5 5 5 4 4 3 3 3 3 2 2 2 2 3 4 5 6 8 11 12 12 13 16 18 19 22 25 28 26 25 26 25 31 33 35 39 44 50 58 63 64 72 83 92 97 101 106 110 105 108 110 112 114 117 122 126 128 133 138 140 142 146 152 157 156 157 159 157 153 145 137 132 122 124 126 126 123 120 120 120 130 133 137 139 140 143 149 154 149 152 158 163 167 168 168 167 166 164 161 159 157 155 151 148 148 148 148 150 153 158 164 168 158 155 151 151 152 151 146 142 144 143 140 132 125 124 129 135 133 126 119 117 120 126 129 131 141 147 155 161 164 166 169 171 164 158 150 145 143 140 135 131 131 142 155 160 155 150 152 157 159 163 168 168 159 152 154 161 153 146 142 143 144 145 150 156 154 151 150 150 146 140 136 136 134 129 124 124 128 131 129 126 132 136 139 134 125 121 124 129 137 137 141 148 153 152 144 136 120 96 62 34 17 11 12 14 13 9 6 8 15 21 22 20 8 8 8 9 9 11 11 12 10 8 3 2 2 5 4 5 3 4 4 6 6 5 5 4 5 5 5 7 9 11 14 15 21 26 34 41 45 51 55 57 63 63 64 67 67 68 68 68 67 69 70 73 76 78 80 81 80 79 78 78 79 81 82 84 85 85 85 86 89 96 104 110 116 119 124 128 131 135 140 144 142 143 144 145 145 144 143 142 149 146 143 139 135 129 123 118 118 113 108 105 105 107 107 108 103 103 105 106 107 110 110 112 
26 26 26 25 26 27 28 28 30 29 28 28 27 29 31 33 31 30 32 32 33 33 35 34 37 37 38 38 39 38 38 38 40 40 40 41 40 39 38 39 39 35 29 26 24 25 24 24 22 18 11 8 8 9 10 10 12 11 9 8 7 7 7 7 5 5 5 4 4 3 3 3 3 2 2 2 2 3 4 5 6 9 11 12 12 13 15 18 19 22 26 28 26 26 28 28 31 34 39 43 46 54 59 64 67 73 82 90 96 104 112 119 119 120 119 119 120 123 129 133 136 138 140 141 144 147 152 156 158 159 161 161 157 148 140 134 130 130 129 126 122 123 128 133 140 141 144 145 147 149 153 155 148 151 155 160 164 167 169 170 170 169 167 166 165 162 157 154 157 157 157 156 156 159 164 168 161 158 154 151 148 145 141 138 142 144 141 132 121 118 123 130 131 128 123 119 118 118 121 123 138 146 156 163 165 166 168 170 163 156 146 141 139 138 135 133 129 139 154 164 163 158 160 165 159 165 170 171 166 161 161 164 163 158 156 155 154 150 152 156 158 153 150 147 146 141 134 129 133 129 126 127 130 132 132 131 129 133 136 134 129 127 130 134 153 150 147 148 151 152 150 147 148 134 109 78 51 35 28 25 17 11 4 9 19 27 29 26 13 11 9 6 6 6 9 9 10 6 5 3 5 6 7 5 3 4 4 5 5 5 5 4 6 7 7 9 12 13 15 16 21 26 34 41 45 51 54 56 63 63 64 67 68 69 69 69 69 70 71 73 76 78 79 80 80 79 78 78 79 81 81 83 82 83 85 86 90 96 104 109 115 118 122 126 129 134 140 144 143 144 144 145 145 144 144 143 149 146 143 139 135 130 123 120 117 113 109 107 107 108 108 107 108 108 109 110 110 109 108 108 
24 24 24 24 24 25 26 26 28 27 27 27 28 30 32 33 30 31 32 35 36 40 40 42 44 45 46 47 47 47 47 46 48 48 48 48 46 45 43 43 40 35 29 26 26 25 26 25 20 17 13 10 10 10 8 7 9 8 7 5 5 4 4 5 5 5 5 4 4 3 3 3 3 2 2 2 2 3 4 5 7 9 11 12 12 13 15 17 21 23 25 24 26 30 34 37 43 46 49 52 55 58 62 66 72 78 87 94 101 109 118 124 129 130 130 129 129 132 137 140 145 144 143 144 149 153 157 158 158 159 158 155 150 142 135 130 138 138 135 130 126 129 138 146 151 150 150 152 154 156 157 156 151 152 154 157 161 166 169 171 173 170 165 162 159 157 153 151 155 156 156 155 154 156 161 166 165 163 160 155 148 143 141 141 141 144 143 133 120 115 121 128 136 138 139 135 128 121 118 119 133 143 156 165 169 171 173 176 168 160 149 144 144 147 148 149 146 146 152 163 169 168 168 170 164 168 172 175 175 172 168 162 166 164 164 166 161 155 154 157 160 159 154 151 146 142 136 132 140 139 135 133 129 129 127 127 129 132 134 135 135 135 137 139 143 147 153 157 157 153 147 142 148 151 145 125 97 75 67 67 51 40 27 22 28 33 31 27 25 21 15 9 5 6 6 9 6 6 4 6 7 8 7 5 3 4 4 6 6 5 5 4 5 6 8 10 12 13 15 16 22 28 36 42 47 52 55 56 63 63 64 67 68 69 69 69 70 71 72 74 76 78 79 80 78 77 77 76 77 79 80 81 80 82 84 87 90 96 103 108 113 116 120 123 127 133 139 143 144 144 145 145 145 145 144 144 148 146 143 139 136 131 124 121 116 114 111 110 109 108 106 104 109 111 112 113 112 110 108 106 
23 22 22 22 22 23 24 25 28 28 27 26 27 28 31 33 31 33 35 39 42 46 49 50 53 54 55 56 56 56 56 56 58 57 57 56 54 52 50 49 41 38 32 28 27 27 28 27 15 14 13 14 14 11 7 3 7 6 5 3 3 2 2 3 5 5 5 4 4 3 3 3 3 2 2 2 2 3 4 5 7 9 11 12 12 13 15 17 24 24 22 23 25 32 40 47 56 58 61 63 63 64 66 67 78 85 94 101 107 114 122 128 135 137 138 138 138 140 144 147 151 148 145 147 153 159 162 162 157 155 151 146 139 133 127 124 142 142 139 134 130 134 144 153 159 156 154 156 160 161 159 157 156 156 156 158 161 166 170 173 175 169 161 153 149 146 144 142 144 146 148 149 149 153 159 164 168 168 166 159 151 145 144 146 140 144 144 134 121 115 120 128 142 149 155 152 140 128 121 119 124 136 152 163 169 172 175 179 173 164 154 148 150 155 159 161 166 153 148 158 169 172 169 168 169 172 174 177 180 177 168 160 163 164 167 168 162 155 155 158 160 161 160 154 150 146 144 142 152 149 145 137 129 122 119 118 131 132 134 137 139 141 142 142 142 145 148 150 148 146 145 144 141 152 160 150 127 110 107 112 102 83 59 44 37 31 20 11 36 30 20 11 6 4 6 8 5 4 4 6 8 9 7 6 3 4 4 5 6 5 5 4 4 5 7 10 12 13 13 15 23 29 38 44 49 53 56 57 63 63 64 67 69 69 70 70 71 71 73 74 76 78 79 79 76 76 75 75 76 77 78 80 78 81 84 88 91 96 102 107 112 115 119 122 126 132 138 142 145 145 145 145 145 145 145 145 148 146 142 139 136 131 125 122 116 114 112 111 111 109 105 103 107 109 112 114 115 113 111 109 
25 24 22 21 20 21 22 22 24 26 27 26 27 29 32 35 33 36 41 45 48 52 57 60 61 62 64 67 68 70 70 71 70 68 67 66 65 62 58 55 50 47 42 37 34 32 29 28 22 19 15 14 14 13 9 5 6 5 4 3 3 3 3 4 1 3 5 5 3 2 3 4 2 4 5 5 5 6 8 10 8 9 12 15 18 20 22 22 15 21 23 21 25 38 54 62 68 77 88 93 94 93 94 96 105 107 113 118 126 133 138 141 137 138 144 152 154 150 148 148 152 152 154 158 163 164 162 158 158 156 154 150 145 140 136 134 130 135 144 153 157 156 151 148 153 161 170 173 168 162 158 157 155 159 164 165 164 163 166 168 158 155 152 148 144 138 131 126 136 139 142 143 149 156 157 154 168 165 164 163 156 146 141 142 134 136 144 153 152 144 140 142 150 151 153 154 152 147 141 136 123 128 137 148 159 167 172 173 164 165 160 149 144 147 152 155 153 149 149 156 162 165 167 172 162 160 162 170 178 181 174 166 169 168 169 171 168 160 156 157 156 158 159 157 151 149 154 161 161 159 155 148 139 133 130 129 121 123 126 134 144 152 157 159 147 152 155 154 153 153 150 144 147 152 156 158 155 147 138 132 139 124 105 91 78 60 40 27 49 50 41 22 7 5 8 8 5 5 5 7 15 19 14 4 2 3 8 6 3 1 1 4 5 6 7 8 9 13 15 16 22 28 36 43 48 54 58 60 67 66 67 69 70 70 71 71 66 67 69 73 78 80 80 78 80 77 75 75 76 78 77 76 76 76 79 86 90 92 98 106 112 113 116 119 122 129 137 143 145 146 148 149 150 149 148 147 151 151 146 139 134 130 123 116 115 112 109 107 106 105 103 101 103 106 109 110 108 107 107 108 
24 23 21 20 20 20 21 21 24 25 25 26 26 29 34 38 39 43 47 51 55 59 63 67 70 71 73 75 76 77 78 78 78 77 75 74 73 70 66 62 59 54 48 43 40 36 32 30 25 20 15 13 13 12 9 5 6 5 4 3 3 3 3 4 1 2 3 3 3 3 3 3 4 3 2 2 3 4 5 5 14 12 9 6 7 12 17 23 26 34 40 41 47 59 71 78 93 102 112 117 117 117 118 120 124 124 125 126 130 133 136 137 138 140 148 159 163 160 158 159 154 156 159 164 169 170 166 162 160 157 154 149 146 144 143 142 143 143 146 151 156 159 157 155 152 161 172 176 174 170 168 168 161 160 158 156 155 155 155 156 153 152 151 148 144 139 136 133 138 140 140 142 149 159 164 164 165 161 160 161 156 148 143 143 142 140 145 157 162 158 151 149 145 144 144 148 152 152 145 138 118 121 130 144 159 166 164 160 163 165 161 152 146 147 148 148 146 145 148 153 157 158 163 170 163 161 162 167 175 176 172 167 164 162 164 167 166 160 155 156 154 156 157 156 153 152 156 160 157 157 154 146 138 133 134 137 127 124 124 133 148 158 159 156 153 158 160 159 158 158 155 149 143 145 151 158 162 161 152 145 153 140 125 113 103 87 69 55 76 74 61 37 17 10 11 11 10 14 13 9 9 11 11 8 3 4 5 5 4 4 5 5 6 6 7 9 11 14 16 18 23 28 36 43 48 54 58 60 66 66 66 68 69 70 70 71 66 67 69 74 78 80 80 79 80 77 75 75 76 78 77 77 77 76 80 86 90 92 99 106 112 114 117 120 124 130 137 143 146 147 149 150 150 150 149 148 150 150 145 138 133 130 123 116 114 112 108 106 105 104 102 100 102 105 108 108 107 106 106 107 
22 21 20 19 18 20 21 22 24 24 25 25 27 32 38 43 49 52 57 61 64 68 73 76 83 83 85 86 87 88 88 88 88 87 86 85 83 80 75 72 69 65 58 53 48 43 38 35 29 23 17 13 12 11 9 6 6 5 4 3 3 3 3 4 2 1 1 2 4 5 4 3 8 4 3 3 6 7 4 2 12 11 10 11 17 27 40 49 77 86 93 97 103 112 121 124 124 131 139 143 142 141 141 142 141 140 137 135 134 135 135 137 135 138 147 159 165 165 166 168 160 162 166 172 176 177 174 171 165 161 155 149 146 147 149 151 148 147 148 155 162 167 166 163 153 159 167 174 176 177 176 176 169 164 156 148 144 140 138 136 139 143 146 146 142 139 137 138 138 139 136 135 142 153 161 161 154 149 148 152 155 153 150 150 151 146 148 159 169 168 161 156 145 140 138 144 153 157 152 145 123 120 122 132 147 157 156 152 161 165 165 159 153 150 145 141 138 141 147 151 149 148 156 166 166 165 165 166 169 170 168 166 157 153 151 154 154 151 150 152 150 152 154 155 156 157 158 158 150 152 150 143 134 133 139 146 135 129 126 136 152 162 160 154 162 166 167 164 163 164 162 157 141 140 143 154 165 167 159 151 152 146 139 135 132 125 111 99 107 103 88 61 36 25 25 26 29 36 38 29 19 14 12 11 10 8 6 6 7 7 6 4 7 7 7 9 11 15 18 20 23 29 37 43 49 54 58 60 65 65 65 67 68 69 69 70 67 67 70 74 78 81 80 79 80 77 75 75 76 78 77 77 77 77 80 87 90 93 99 107 114 116 117 120 125 130 137 142 147 148 149 151 151 151 150 149 149 149 144 137 132 130 124 116 114 111 107 105 104 103 100 98 100 102 105 106 105 104 104 104 
18 18 17 17 17 19 21 22 23 24 26 27 30 36 44 49 59 62 67 71 74 78 83 86 93 93 95 95 96 95 96 96 97 96 94 92 90 87 82 79 76 72 65 60 54 49 43 39 34 28 19 14 12 11 8 6 6 5 4 3 3 3 3 4 2 0 0 1 4 7 8 6 9 6 5 7 12 12 8 3 4 10 22 36 50 67 84 95 107 115 121 123 127 134 139 139 137 142 149 153 152 151 150 150 148 146 142 139 138 139 140 142 134 134 140 151 158 161 164 169 168 169 172 176 179 181 181 181 175 168 158 149 145 146 151 154 146 146 149 159 170 176 174 169 159 156 157 163 173 178 178 175 174 170 162 150 137 128 122 120 127 136 146 149 146 142 141 142 144 143 139 135 138 147 151 150 138 132 131 139 149 154 156 157 156 153 153 158 163 165 162 159 151 147 143 146 152 157 157 155 145 136 126 123 130 140 147 150 159 166 170 168 164 158 148 140 135 141 147 149 144 140 149 160 171 170 169 167 166 164 164 163 152 143 135 132 131 131 136 143 146 148 150 152 156 160 159 156 142 145 145 137 128 128 138 148 143 139 137 144 155 161 158 152 171 173 171 166 165 168 169 167 155 148 143 150 162 169 163 154 150 149 147 147 148 145 134 122 126 121 106 81 56 44 44 50 54 67 74 68 54 40 24 13 14 14 14 13 10 6 5 3 7 7 7 8 9 14 17 20 24 30 38 44 49 54 58 59 65 64 65 66 67 68 69 69 67 68 70 74 79 81 81 79 80 77 75 75 76 78 77 77 78 78 81 88 91 94 100 107 115 117 119 123 126 131 137 141 146 148 149 151 151 150 149 149 148 147 143 135 131 129 124 117 114 110 106 104 102 100 98 96 97 99 102 103 102 101 101 101 
14 13 14 15 15 18 20 22 24 26 28 32 36 43 51 56 67 70 75 79 82 86 91 94 98 100 100 102 102 103 102 101 101 99 97 97 96 92 88 84 80 76 71 66 61 55 49 46 40 33 23 17 14 12 8 5 6 5 4 3 3 3 3 4 3 1 0 0 4 10 13 15 7 5 5 9 16 17 11 6 5 20 43 65 82 96 107 113 108 113 116 115 118 125 129 129 130 134 141 146 148 150 151 151 150 148 145 144 144 146 148 150 142 139 140 146 151 155 162 169 174 175 175 177 179 182 186 188 184 176 163 152 145 145 149 152 154 151 151 156 165 173 177 175 171 160 151 155 169 178 176 170 174 175 171 159 141 125 116 113 123 134 148 154 152 147 144 143 149 149 146 143 144 148 148 144 131 124 121 129 139 144 148 150 155 159 162 158 154 153 156 159 159 157 154 151 149 151 156 160 168 160 147 135 128 128 135 140 156 165 173 176 175 170 157 146 138 143 150 151 145 140 144 154 174 173 171 168 165 162 159 158 149 137 123 114 108 110 119 130 142 146 147 146 149 156 156 152 137 140 139 131 121 120 128 138 143 146 151 155 156 156 155 154 175 176 173 167 167 171 174 173 174 163 152 153 162 169 168 165 163 164 161 157 154 150 137 124 133 129 117 95 70 57 59 67 72 86 100 105 99 79 51 29 16 18 20 18 13 8 7 7 8 7 7 7 9 12 16 19 25 31 38 44 49 54 58 59 65 64 65 66 67 68 69 69 67 68 70 75 79 81 81 80 80 77 75 75 76 78 77 77 78 78 81 87 92 95 100 107 115 117 120 123 126 130 136 140 145 146 148 149 149 149 148 147 147 146 141 134 130 129 125 118 113 110 105 102 100 98 95 93 93 96 99 100 98 97 97 98 
10 10 11 12 14 17 19 21 24 28 33 38 44 51 58 63 74 77 82 86 89 93 98 100 104 104 106 106 108 108 109 109 106 105 104 103 102 98 95 92 87 83 78 73 68 62 55 50 43 37 28 22 18 14 9 4 6 5 4 3 3 3 3 4 4 3 2 1 4 12 21 29 15 11 11 13 17 19 19 17 27 42 65 82 92 96 99 102 104 108 109 108 111 118 122 121 119 123 130 138 144 148 149 150 150 149 148 148 149 152 155 157 152 148 146 149 152 155 161 168 175 176 177 176 177 180 184 188 187 179 167 156 149 148 150 153 169 163 154 151 153 162 173 178 181 169 158 160 170 177 174 168 172 175 175 167 151 135 123 118 121 130 142 149 148 143 139 137 144 146 146 144 146 149 147 142 134 128 125 128 130 127 125 125 146 159 168 161 150 146 151 157 162 163 162 157 151 150 154 158 173 174 171 161 147 136 130 129 148 158 170 178 182 180 169 158 147 147 151 154 151 147 148 153 168 167 166 165 164 161 155 150 144 136 125 113 102 98 107 119 138 143 142 137 138 147 150 148 136 138 136 127 116 111 114 119 132 144 158 162 157 153 155 159 172 175 174 171 171 175 177 174 176 167 156 152 156 163 168 170 166 171 171 165 163 162 152 138 142 138 128 108 84 68 69 79 81 92 107 119 123 113 88 65 34 32 31 27 22 19 17 16 12 10 8 8 9 12 16 18 26 31 39 45 49 54 58 59 65 65 65 67 68 69 69 70 68 68 71 75 79 82 81 80 80 77 75 75 76 78 77 77 79 79 82 89 93 95 101 109 115 117 121 124 126 129 134 137 142 143 145 146 146 146 145 144 145 144 139 132 129 129 125 119 113 109 105 101 99 96 93 90 89 93 96 96 95 94 94 95 
7 8 8 11 12 16 19 21 25 30 37 45 51 58 65 68 79 83 87 91 94 99 102 107 107 109 110 113 113 115 114 114 112 111 110 111 111 109 105 101 97 93 88 82 75 68 60 55 47 41 33 26 22 16 9 4 6 5 4 3 3 3 3 4 4 5 5 3 3 13 28 43 37 33 27 22 24 28 36 41 56 67 80 88 89 90 95 99 110 113 113 112 114 119 120 117 119 123 127 134 139 142 142 142 142 143 145 148 152 156 159 162 155 151 150 152 153 153 156 162 171 174 177 178 177 177 179 182 185 179 169 160 155 155 157 159 170 167 160 155 153 157 168 174 180 177 173 172 173 173 172 170 170 170 169 168 163 153 139 129 127 131 136 140 141 138 135 132 141 143 143 142 144 147 146 141 137 135 135 134 127 113 101 98 129 149 165 163 151 146 148 150 162 164 167 167 163 159 156 155 163 170 178 180 173 159 146 137 136 148 162 174 184 186 178 168 155 150 150 156 160 158 156 155 155 154 155 159 163 160 151 143 137 139 139 131 114 101 104 112 133 139 136 126 124 135 143 143 139 139 135 126 114 104 100 99 115 132 152 161 159 157 160 165 165 172 177 178 180 181 177 171 169 165 159 153 151 155 163 169 162 170 172 169 171 174 168 157 154 151 144 127 102 84 85 95 94 98 103 111 122 128 122 112 80 66 51 41 38 37 31 26 17 15 12 10 10 13 16 19 27 32 40 45 50 54 58 59 66 66 66 68 69 70 70 71 68 69 71 75 80 82 82 80 80 77 75 75 76 78 77 77 79 79 83 90 94 95 101 110 115 117 121 123 125 128 132 135 139 140 141 143 142 143 141 141 143 143 137 131 127 128 124 120 112 109 104 100 97 94 91 88 87 90 93 94 93 92 92 93 
6 6 7 9 12 14 18 21 26 32 40 49 56 63 68 72 82 86 90 94 97 101 106 109 110 111 113 115 117 119 119 119 118 117 116 116 118 116 113 110 104 100 95 88 81 72 63 57 49 42 35 29 24 17 9 3 6 5 4 3 3 3 3 4 5 6 6 3 2 13 33 50 62 55 45 36 33 41 53 63 76 82 88 89 89 94 104 113 137 140 141 139 138 140 137 132 126 128 130 134 136 137 134 132 130 133 138 144 151 158 161 165 152 149 149 151 151 149 150 153 167 172 177 179 178 175 174 175 180 176 169 163 160 161 163 165 160 164 166 165 161 160 163 167 175 180 184 181 174 168 168 171 170 164 161 165 171 167 152 138 141 140 139 140 142 142 140 138 148 149 147 145 146 150 149 145 137 139 142 141 128 106 89 82 113 137 159 161 153 148 145 143 162 164 170 175 176 171 162 154 151 159 172 184 188 181 166 155 128 140 155 170 183 188 183 173 159 151 149 157 167 167 164 159 144 144 146 154 161 159 148 137 133 142 152 148 129 108 104 109 129 136 132 118 114 126 137 139 142 141 136 126 113 100 91 88 103 121 144 158 161 161 164 169 159 169 179 184 187 185 177 168 168 169 166 159 152 152 161 170 164 172 175 170 171 176 171 159 164 162 157 142 118 99 100 112 108 105 99 99 111 130 142 145 124 98 70 53 52 51 42 30 21 18 15 12 12 14 18 20 27 32 40 45 50 53 58 59 67 67 68 69 70 70 71 71 68 69 71 75 80 82 82 81 80 77 75 75 76 78 77 77 81 80 84 90 94 95 102 110 114 117 120 123 125 127 131 134 136 137 139 140 140 140 139 138 143 143 136 130 128 128 125 120 112 108 103 99 97 94 90 87 87 88 91 93 92 91 91 91 
9 10 8 9 8 13 18 24 33 38 45 52 59 67 73 78 85 88 93 98 101 105 109 112 115 118 121 123 123 123 123 125 125 123 121 120 119 117 113 111 106 104 99 93 85 76 67 62 57 49 39 33 29 25 18 12 5 8 9 7 4 4 8 12 2 5 10 14 10 16 35 59 85 84 83 81 81 82 85 87 91 95 104 114 124 131 132 131 136 137 139 140 140 139 137 137 144 143 142 141 140 138 137 137 133 136 138 138 138 143 152 159 152 152 155 156 149 139 139 146 151 162 177 184 183 181 183 187 180 169 157 155 161 164 160 155 147 154 157 157 162 172 171 162 164 177 186 185 180 177 173 166 163 170 176 174 165 155 149 147 141 132 124 124 132 143 149 150 162 163 164 160 153 148 146 147 137 136 140 144 136 114 95 86 119 132 148 158 161 160 158 156 150 167 178 174 168 168 167 161 139 140 147 161 176 184 182 177 152 144 138 142 155 171 184 191 171 162 154 153 155 159 166 174 158 139 129 142 156 157 149 147 141 141 145 155 152 135 115 104 118 129 139 135 123 120 132 145 143 138 120 119 125 98 65 65 84 97 124 153 170 171 166 163 165 168 173 179 185 185 183 180 183 180 172 160 149 149 157 166 171 173 175 179 180 176 169 162 163 161 163 160 141 118 115 125 123 113 101 97 106 124 144 157 151 136 116 100 90 83 76 72 50 30 14 11 15 16 15 17 27 35 42 47 48 51 56 62 65 65 66 67 67 66 64 65 64 66 71 75 78 79 79 79 76 75 75 75 74 75 76 78 77 80 84 88 92 97 102 106 116 118 120 122 124 127 130 133 135 135 136 136 138 139 139 140 138 134 128 123 121 120 118 116 112 107 100 95 92 91 88 87 89 89 87 88 88 88 85 83 
9 9 8 7 9 13 21 25 35 39 46 53 60 67 75 80 87 91 96 101 104 108 112 114 119 122 125 127 127 127 128 129 129 127 125 124 123 120 116 113 110 107 102 96 88 79 70 65 57 51 41 34 29 24 17 12 8 6 5 3 2 2 4 5 12 13 18 21 23 26 40 56 77 86 96 99 95 91 89 90 96 102 111 119 125 128 130 130 139 142 145 148 147 145 144 143 144 145 145 144 142 140 137 135 135 134 134 135 138 140 142 142 150 149 152 154 147 135 130 131 146 152 160 169 176 179 181 180 176 176 173 165 156 149 147 148 139 148 156 158 159 161 162 162 168 180 188 183 175 170 167 164 158 163 168 168 164 158 154 153 148 142 136 136 143 153 160 162 167 170 171 168 160 152 146 143 140 137 137 141 138 129 123 122 128 133 138 147 159 167 160 147 146 154 161 161 160 163 166 167 142 142 143 147 155 165 174 179 166 158 150 150 157 165 169 169 169 167 164 158 149 149 163 179 175 159 147 149 149 141 136 138 147 144 146 151 149 137 126 122 129 136 143 143 136 129 127 129 139 138 124 119 122 97 64 56 56 71 99 130 149 155 157 159 160 164 171 178 182 183 184 182 186 181 171 158 148 148 157 166 172 170 169 173 179 180 175 170 168 165 165 162 146 127 124 133 135 127 116 111 115 128 144 156 159 149 133 118 108 100 95 90 68 50 33 28 29 27 23 22 24 30 40 49 54 58 62 63 66 66 68 68 68 68 66 66 64 67 71 75 78 79 79 79 76 76 75 75 75 75 76 78 77 80 85 89 92 97 103 107 117 119 121 124 125 128 131 135 136 136 137 138 139 140 141 141 138 135 130 126 123 121 118 116 111 106 100 95 93 91 89 88 88 87 86 86 87 86 84 82 
6 7 6 7 9 14 22 27 37 40 47 54 61 68 77 81 92 95 100 105 108 112 116 119 124 127 131 133 133 133 134 136 135 134 132 130 129 125 121 117 114 111 106 100 93 84 75 68 59 53 43 36 30 25 18 13 12 8 4 2 2 4 4 4 15 15 19 29 37 43 54 61 73 89 109 117 114 106 102 102 109 116 124 128 129 129 131 133 144 147 152 155 154 153 152 151 145 147 149 149 146 140 134 130 130 128 128 133 139 141 138 134 135 136 140 145 143 135 129 128 137 134 135 143 158 169 173 172 168 168 166 159 149 142 142 144 142 144 147 147 141 140 149 161 160 172 181 180 174 170 169 168 155 156 158 159 159 158 157 156 153 150 148 149 154 161 169 174 172 176 179 178 170 158 148 142 139 135 133 137 141 143 145 148 145 138 126 123 141 165 168 155 146 143 145 153 159 160 160 161 148 146 143 139 140 148 163 175 175 169 163 160 160 160 157 155 165 172 176 166 146 138 155 177 187 178 169 161 147 130 124 127 147 146 148 150 146 139 136 138 142 143 146 148 147 139 127 118 126 134 129 123 122 100 64 44 34 45 71 103 129 145 153 160 158 164 173 180 184 186 188 189 187 182 171 159 150 149 155 161 171 167 165 168 175 180 181 178 175 170 166 163 153 139 137 143 149 145 138 130 128 134 146 155 165 160 151 140 130 121 114 111 95 79 62 55 52 46 40 36 22 24 31 44 56 63 64 60 67 67 69 69 69 69 67 68 64 67 71 75 78 79 79 79 76 76 75 75 75 76 77 78 78 81 85 89 93 98 103 107 117 120 122 124 127 130 134 138 138 139 140 141 142 142 143 143 139 136 133 130 127 123 119 115 109 105 99 95 94 92 91 90 88 87 86 85 85 84 81 79 
4 5 5 6 9 15 23 29 38 41 48 55 61 70 79 84 95 98 104 108 112 116 120 123 130 133 137 139 140 140 141 142 142 140 138 137 134 130 125 121 118 114 109 103 96 88 77 70 60 55 46 39 33 27 21 17 16 12 6 7 12 16 18 17 17 17 22 37 55 69 78 81 86 98 114 124 125 122 119 119 123 129 137 139 137 134 137 140 148 152 155 156 154 154 156 158 151 153 155 155 150 141 132 126 121 121 122 127 133 137 138 137 129 127 128 130 132 130 128 126 126 118 112 116 131 148 159 163 171 160 149 143 142 140 134 129 132 131 136 142 136 126 127 137 148 157 168 175 177 174 170 166 158 156 154 154 154 155 154 152 151 152 153 154 155 161 169 176 173 177 180 180 175 166 156 150 140 134 130 134 143 148 148 145 159 149 123 101 108 143 171 179 161 147 143 156 166 161 150 144 149 150 149 148 149 152 158 163 170 171 170 165 159 154 153 153 157 171 183 175 152 137 146 164 180 180 180 176 159 135 119 113 135 142 150 154 150 144 141 142 145 144 146 151 154 148 135 124 114 127 129 123 119 105 72 42 27 29 45 78 113 137 148 153 150 159 171 182 186 188 189 190 184 181 175 167 158 153 150 150 166 166 166 167 170 174 177 179 178 171 165 162 155 147 146 150 157 157 154 147 141 141 147 154 162 162 160 154 145 135 128 125 117 105 91 82 75 68 61 56 37 32 30 39 53 64 66 62 66 67 68 69 69 69 68 68 65 67 71 75 78 79 79 78 77 76 76 76 75 76 77 79 79 82 86 90 94 99 104 108 118 119 123 124 126 131 135 138 141 142 142 143 144 144 145 145 140 138 136 133 130 125 119 114 108 104 99 96 94 93 91 90 87 86 84 83 83 81 78 76 
3 4 5 6 10 16 24 30 39 42 48 55 61 70 81 86 97 100 106 111 116 120 125 128 136 139 143 145 146 146 148 149 148 147 145 143 140 135 129 124 123 117 109 103 98 90 79 71 61 57 50 43 37 32 28 26 21 19 18 22 30 37 41 42 40 41 46 60 80 99 109 111 115 116 118 123 128 132 133 133 134 141 147 148 144 141 143 146 152 154 154 152 149 149 155 160 160 162 163 161 155 145 135 129 117 118 117 115 115 117 123 127 132 128 122 117 117 118 118 117 116 110 101 99 106 122 141 151 175 168 159 152 145 135 121 110 108 109 121 137 139 124 109 104 132 136 147 162 173 173 166 159 167 163 159 156 155 153 151 149 149 152 153 153 153 156 164 171 170 172 175 177 176 172 166 162 153 143 133 134 144 153 151 145 162 160 136 100 88 114 155 181 183 163 151 158 167 160 145 136 143 145 151 161 171 172 165 158 166 171 172 165 152 144 143 147 149 164 181 184 168 150 145 150 165 171 181 188 179 152 121 101 120 135 153 161 159 152 146 143 139 142 150 159 164 160 148 139 121 126 126 115 109 106 88 61 29 21 26 54 94 122 131 132 135 145 160 174 182 185 186 185 178 179 179 177 171 161 149 141 159 165 171 170 165 164 169 175 177 170 163 159 154 150 150 152 158 161 162 158 151 148 150 154 156 159 163 161 155 146 137 133 130 124 113 103 96 90 84 79 67 55 43 43 52 63 68 68 64 65 67 68 69 69 67 68 66 68 72 75 78 78 78 78 77 77 76 76 77 77 78 78 80 83 87 91 95 99 105 109 117 118 121 125 127 129 135 138 143 143 144 145 145 146 147 147 142 140 138 135 132 126 119 114 107 105 99 96 95 93 91 88 86 84 82 81 80 78 75 72 
3 4 5 6 10 16 24 30 39 42 48 54 61 71 82 88 97 101 108 114 120 125 130 134 142 145 149 152 152 153 155 156 155 153 151 149 146 140 133 128 126 119 110 105 100 93 81 71 61 59 53 47 43 40 37 36 31 33 37 45 55 66 73 75 83 86 90 97 109 124 131 132 140 133 126 127 132 139 143 144 145 149 152 153 149 147 147 148 153 155 155 150 145 144 150 155 165 165 165 162 156 148 140 135 121 119 114 105 98 97 102 108 121 122 119 114 115 120 124 124 117 113 106 100 99 110 127 139 157 167 177 174 159 139 125 120 111 103 100 109 118 120 115 110 109 110 118 135 153 161 163 163 167 167 165 162 158 155 153 152 152 153 153 151 150 153 160 165 167 168 170 173 176 175 172 169 169 159 146 140 148 160 166 164 163 167 156 126 102 105 131 155 184 171 159 157 159 157 150 146 138 135 139 155 174 182 175 164 172 175 175 167 153 140 134 133 142 153 171 184 182 168 155 151 157 163 176 191 192 168 130 100 110 129 149 161 164 161 156 151 138 142 150 160 168 166 158 151 142 135 127 113 102 107 105 85 42 27 22 43 80 106 114 113 121 129 144 161 176 184 186 185 174 176 179 182 180 170 155 144 155 163 170 169 164 161 166 172 175 171 164 158 153 150 150 152 158 162 165 165 160 156 154 154 154 159 164 167 164 156 146 140 136 134 127 117 110 108 105 101 94 80 63 52 52 57 64 66 64 64 67 68 69 69 68 68 66 68 72 75 78 78 78 77 77 77 77 77 77 78 79 79 80 83 88 91 95 100 106 110 115 119 122 124 126 131 136 139 144 144 145 145 146 147 148 148 144 142 139 136 132 127 119 115 108 104 100 97 95 93 89 87 85 83 80 79 78 75 72 70 
4 5 5 6 10 16 24 29 39 41 47 53 61 70 82 89 99 105 112 119 125 132 138 142 147 151 155 158 159 160 161 163 161 160 158 156 152 145 137 131 129 122 113 108 103 96 83 73 61 60 56 52 48 46 46 47 49 55 65 76 86 97 106 112 122 129 133 131 131 135 137 135 142 139 137 138 143 148 153 157 158 159 160 159 157 154 150 149 152 156 158 154 146 142 144 149 158 158 157 154 150 145 140 138 126 120 112 103 99 99 101 104 107 117 126 128 130 136 140 139 133 130 125 119 116 119 126 132 134 151 169 175 167 155 146 144 132 117 99 91 101 119 129 130 108 101 99 106 115 127 142 155 154 158 162 162 159 157 157 158 157 155 152 149 147 150 155 159 167 167 170 174 177 177 173 169 169 170 165 156 155 165 176 180 173 172 170 160 142 125 122 128 150 159 165 161 155 155 159 162 144 131 121 127 148 167 174 174 181 180 178 175 169 157 141 131 132 137 153 173 183 179 169 162 156 159 169 184 192 179 146 118 105 121 137 147 156 165 168 166 154 146 139 141 151 160 162 161 159 145 140 130 113 113 111 90 56 39 30 43 71 91 100 101 103 106 117 137 160 177 184 184 174 173 175 179 182 178 168 159 154 158 162 164 166 168 171 173 175 174 168 160 153 150 151 152 161 164 167 169 167 162 157 155 156 159 165 171 172 166 154 144 139 140 136 125 119 120 120 118 115 105 90 74 62 58 62 65 65 65 68 69 70 70 69 70 67 69 72 75 77 78 77 77 78 77 77 77 77 78 79 80 81 84 88 92 96 101 106 110 118 120 124 126 129 132 137 141 144 144 145 146 146 147 148 148 146 144 139 136 131 126 119 115 109 105 101 98 96 93 89 86 84 82 79 77 76 73 69 66 
4 5 5 6 9 16 23 29 39 41 46 53 61 70 82 89 101 106 114 122 129 136 142 145 151 155 159 162 163 164 165 167 166 164 162 160 156 148 140 134 131 124 115 110 105 97 85 74 61 60 58 55 51 50 51 53 64 73 87 99 109 119 130 137 139 150 155 148 139 136 134 130 131 136 143 149 153 158 164 168 170 168 166 165 163 160 155 151 152 158 162 158 149 142 141 143 148 147 146 143 141 139 138 137 127 120 111 108 110 114 115 115 110 126 141 146 146 148 146 142 150 148 144 140 137 134 132 130 133 138 148 159 165 164 158 151 136 130 116 105 112 128 133 127 131 117 101 90 83 87 107 129 138 146 155 159 157 156 158 161 160 156 150 146 145 148 151 154 168 169 171 176 179 177 170 165 159 173 180 172 163 165 175 181 187 176 173 181 176 152 128 118 108 142 169 169 157 155 163 169 155 132 107 101 118 146 168 178 185 180 178 184 189 180 157 137 123 126 139 161 177 180 176 173 156 157 163 176 188 183 160 138 103 114 125 132 145 163 175 178 174 151 124 114 126 146 162 168 162 150 154 152 131 120 108 84 60 44 35 42 61 77 88 93 82 82 90 111 139 163 174 177 176 172 170 173 180 182 178 173 156 153 153 159 168 175 177 176 176 176 172 163 154 150 151 153 164 166 169 172 172 167 160 156 157 159 165 172 176 171 158 146 140 144 140 129 124 126 128 126 132 128 116 98 80 69 69 72 66 67 69 70 71 72 71 72 67 69 72 75 77 78 77 76 78 77 77 77 77 78 79 80 81 84 87 92 96 101 107 111 119 122 125 128 131 135 139 143 144 144 145 146 146 147 148 149 148 144 140 135 129 125 118 114 109 106 102 98 96 92 88 85 83 81 78 76 75 72 68 65 
3 4 4 5 8 13 21 25 37 40 45 50 58 68 82 92 101 108 117 123 128 133 140 145 157 160 165 169 171 171 169 168 173 170 166 161 156 149 142 137 129 121 115 112 110 102 87 74 63 62 59 58 57 58 61 62 76 87 105 120 129 134 138 140 145 148 149 143 133 126 124 125 135 143 153 161 163 164 165 167 171 175 174 167 156 149 150 154 154 154 154 153 151 146 139 135 131 136 139 133 123 119 124 131 130 127 121 112 106 105 110 114 109 115 124 133 140 142 142 141 146 155 162 158 148 141 143 148 151 142 135 138 145 147 137 127 126 132 134 128 124 128 136 141 142 133 124 109 82 63 72 94 93 125 141 151 163 154 140 148 158 157 156 155 151 145 144 146 161 172 171 163 170 185 178 157 154 169 179 175 169 169 171 171 186 178 171 170 173 171 161 151 123 128 148 172 176 162 154 158 168 150 126 105 97 108 137 163 175 179 183 185 186 182 170 157 142 132 125 132 151 170 178 178 155 156 159 165 175 179 174 166 129 110 102 118 140 154 165 174 183 177 150 114 106 131 156 164 153 153 157 163 161 140 104 78 63 59 42 24 28 53 75 82 79 65 76 95 106 135 168 176 180 170 159 160 169 179 185 186 167 151 140 147 164 178 184 185 184 178 173 168 156 145 144 150 166 167 167 168 168 166 163 162 158 161 166 171 173 171 165 160 150 145 139 136 136 137 136 135 142 148 144 125 101 83 74 69 68 67 70 73 72 69 70 75 68 69 72 75 78 80 82 82 77 77 78 79 80 80 81 81 84 86 90 93 95 101 107 111 124 125 127 130 134 138 141 144 145 147 147 149 149 150 149 149 149 146 141 137 133 127 120 115 112 109 106 102 99 95 90 86 83 81 78 74 70 68 66 65 
3 4 4 6 9 14 22 26 35 39 45 51 59 70 85 94 102 109 118 124 129 134 140 145 156 159 164 168 170 170 168 167 164 162 158 154 150 146 139 134 126 119 113 110 107 100 89 79 68 69 69 68 67 70 74 76 93 99 109 118 124 127 130 131 131 132 132 129 126 125 128 131 141 148 157 162 163 162 164 164 166 168 165 159 151 148 151 154 151 149 148 150 154 151 142 134 127 129 130 125 115 106 101 101 123 127 129 124 113 102 98 96 106 106 106 109 117 129 140 146 150 151 153 156 159 162 164 165 157 149 139 135 137 141 144 144 136 137 132 124 122 130 141 146 141 139 141 142 126 94 66 54 82 99 112 134 155 143 122 124 141 147 154 156 154 150 146 142 159 167 168 161 164 175 174 163 162 169 172 167 165 169 175 176 186 182 178 175 173 172 171 170 170 144 130 146 171 178 169 158 175 168 153 127 100 93 112 136 157 166 174 176 176 178 178 176 178 155 129 121 134 155 168 173 151 147 147 155 166 172 174 173 145 124 103 100 107 123 149 174 189 191 176 145 119 115 125 134 153 165 171 166 161 153 131 106 79 73 57 36 26 33 52 69 78 73 78 84 87 109 145 168 170 169 163 159 163 173 180 180 174 160 147 149 159 169 177 182 183 175 168 165 158 149 144 144 160 163 166 167 165 163 160 159 161 163 168 173 176 175 171 167 158 151 142 138 138 142 146 148 154 161 160 144 120 101 88 79 75 70 71 75 76 73 69 70 70 71 73 76 78 80 81 81 75 75 76 77 79 81 83 83 84 86 90 93 96 100 106 111 122 124 126 130 134 139 142 144 146 147 148 149 150 150 150 150 148 146 141 137 132 126 119 116 113 110 107 103 100 96 91 87 82 81 78 74 71 67 65 64 
2 4 4 6 9 15 22 27 35 39 45 52 61 72 86 96 103 109 118 125 129 135 141 146 155 157 162 165 167 167 166 165 156 154 151 148 145 141 135 131 121 117 110 103 99 95 89 86 83 87 91 91 89 91 96 102 109 109 111 114 119 122 123 124 118 117 117 119 123 130 137 141 150 154 160 164 163 161 160 161 162 159 152 147 144 146 150 153 152 149 148 154 161 161 151 141 128 126 123 119 110 97 81 69 72 87 106 121 128 129 130 131 124 116 106 99 101 112 126 136 150 146 145 151 161 165 160 154 172 172 168 159 146 134 126 122 131 126 114 102 99 103 106 105 106 110 119 133 141 135 118 104 88 85 86 109 137 131 110 104 121 137 152 157 159 159 153 143 152 160 167 168 169 171 172 171 158 158 156 155 160 171 178 180 182 184 182 176 169 169 176 183 182 166 146 141 151 165 174 177 184 190 186 159 118 90 93 109 138 150 158 157 154 161 174 182 180 175 160 139 127 135 162 187 162 150 144 148 154 156 161 168 170 148 119 96 85 97 132 167 168 183 195 188 165 138 114 100 127 154 172 170 171 175 160 135 109 97 82 63 36 17 22 41 71 80 81 77 75 81 105 136 153 166 169 158 154 164 173 172 181 171 161 156 156 159 167 176 184 175 169 168 165 157 149 144 154 159 165 166 163 159 157 156 161 162 166 171 176 178 177 175 167 159 147 140 140 145 153 157 163 172 177 166 146 125 106 93 80 71 68 74 81 80 74 70 72 74 76 77 78 79 79 79 75 75 75 76 78 82 86 87 85 87 90 93 97 102 108 112 120 122 125 130 135 139 143 145 147 148 149 150 151 151 151 152 148 146 142 137 133 127 121 115 115 111 107 104 101 97 92 89 83 81 78 75 71 68 66 64 
2 4 4 6 10 16 23 28 36 40 47 53 61 71 85 93 102 109 119 124 130 134 141 145 151 153 157 160 162 162 161 160 153 151 147 144 141 136 131 127 117 113 105 96 90 87 87 89 93 101 109 110 107 106 111 117 112 109 108 112 117 122 121 120 115 115 116 122 131 140 147 150 155 157 161 163 163 162 161 160 161 153 142 137 138 142 147 149 153 153 155 161 167 166 158 151 138 132 126 123 119 107 88 73 63 71 85 101 116 128 136 139 136 131 123 115 112 114 118 122 139 141 145 152 157 156 150 144 145 151 158 159 153 143 135 131 132 126 116 107 106 107 101 92 109 112 112 111 115 126 135 138 113 99 84 89 112 124 115 102 101 121 139 147 154 160 157 146 143 149 159 170 174 171 169 171 147 141 137 140 153 167 177 179 180 183 183 176 167 165 171 178 165 170 166 150 139 147 167 182 182 190 195 180 145 112 100 102 130 137 138 132 129 138 155 168 152 163 168 157 142 142 163 184 171 157 148 150 150 147 153 164 178 163 140 115 94 91 110 133 143 165 188 200 201 183 141 100 93 117 144 164 182 190 174 151 120 102 90 83 58 24 12 22 44 63 67 70 80 75 76 99 134 160 172 158 148 157 166 165 180 177 174 169 162 156 160 168 176 173 170 169 166 158 150 144 150 157 164 165 161 155 153 152 153 155 159 165 173 178 180 180 174 165 153 143 140 144 150 155 163 174 184 180 166 147 125 109 85 71 63 70 81 85 80 77 75 76 77 78 79 78 78 78 78 77 76 76 78 82 86 88 85 88 91 94 98 103 108 113 119 121 125 130 136 140 143 145 148 149 150 151 152 152 152 152 148 145 142 139 134 128 122 117 113 110 107 104 101 98 93 89 84 83 81 77 73 69 66 65 
2 4 4 6 9 15 22 27 37 41 47 53 60 69 81 88 101 107 115 123 126 130 136 141 145 147 149 152 154 154 153 152 149 147 143 139 135 129 124 119 115 109 100 89 81 80 84 88 94 103 112 114 110 108 111 116 110 109 110 112 118 121 119 117 119 121 125 133 141 147 149 150 155 156 158 161 163 163 162 161 161 151 139 133 134 138 142 143 146 151 158 161 161 158 156 154 145 138 132 133 137 134 122 111 95 85 76 79 92 108 119 124 125 129 135 138 139 133 126 121 131 140 149 151 150 150 157 163 144 141 138 138 140 141 139 137 124 118 111 109 118 127 126 119 120 121 118 110 108 113 116 115 123 112 93 80 91 117 122 104 82 97 114 125 137 150 155 153 144 141 146 157 165 166 168 172 153 140 127 125 135 152 167 176 180 183 184 180 174 169 167 167 160 159 152 143 143 151 157 157 169 172 180 183 173 152 133 124 131 131 124 114 113 125 141 151 143 137 134 141 154 163 162 158 166 157 153 155 153 151 156 167 165 161 154 141 121 99 85 80 116 145 169 180 196 204 175 133 97 94 106 136 168 181 175 166 125 100 85 86 77 53 34 32 18 30 34 51 79 79 68 75 112 145 166 156 146 152 160 159 168 172 177 179 171 161 160 164 161 165 167 164 157 151 145 142 150 155 161 162 159 154 149 148 147 149 153 161 170 179 183 185 178 172 162 152 145 143 145 147 158 169 183 185 179 165 145 129 100 81 67 68 77 82 81 79 76 77 78 79 79 79 79 79 82 81 79 78 79 82 86 87 87 90 94 97 100 104 110 115 119 122 126 132 137 141 144 145 148 149 151 152 153 153 153 153 148 145 142 138 134 129 122 117 113 111 106 104 101 98 93 90 87 86 84 81 77 72 68 66 
3 4 4 5 8 13 21 25 35 39 46 52 58 65 77 84 96 102 111 117 121 125 131 136 137 138 141 143 144 144 144 144 141 139 135 131 127 121 115 110 111 104 93 83 77 78 84 90 99 104 109 110 107 107 112 116 115 115 115 118 118 118 116 114 122 127 134 142 146 148 148 148 153 153 154 157 160 162 162 161 162 153 142 135 134 136 138 139 137 143 150 152 150 147 148 150 146 140 136 140 148 154 153 151 132 115 97 90 98 111 123 127 120 129 142 151 152 144 134 125 136 141 142 135 126 129 144 158 166 159 154 151 149 142 130 119 117 108 95 92 105 122 130 130 117 111 106 110 117 120 116 111 111 104 93 80 79 102 114 98 78 84 94 106 121 137 150 159 157 148 143 145 152 162 172 181 172 154 132 118 117 127 145 161 173 177 182 185 183 177 171 166 160 152 142 136 136 139 142 144 158 156 162 179 191 187 174 163 144 139 127 114 112 123 134 139 141 132 124 129 141 153 155 152 159 160 159 156 151 150 153 157 153 154 157 158 148 121 84 59 66 106 145 165 182 196 185 161 140 111 94 110 137 155 167 175 156 132 107 98 97 86 68 53 27 20 17 33 59 66 56 52 88 122 149 150 143 146 152 153 151 156 165 174 174 168 165 166 156 164 169 164 157 152 148 146 147 150 154 157 157 154 149 147 145 147 151 159 169 177 182 184 178 175 169 161 152 147 145 146 154 165 177 183 184 178 163 149 125 105 84 76 75 75 74 76 75 76 78 79 81 81 81 81 84 83 82 81 82 84 86 88 89 93 96 99 103 107 112 117 121 124 129 134 139 142 145 145 148 149 150 151 152 153 151 152 148 146 142 139 134 130 123 119 114 112 107 105 103 99 95 92 91 90 88 85 81 77 71 68 
3 4 4 4 6 11 18 22 31 36 43 49 56 64 75 82 92 97 106 112 116 120 126 131 130 131 132 134 135 136 136 136 133 131 128 125 121 116 110 106 107 99 88 79 77 82 89 94 105 104 102 100 100 106 115 121 123 124 123 122 118 116 115 116 124 131 140 145 147 147 148 149 153 151 150 153 157 160 160 160 160 155 146 140 137 137 138 139 135 138 143 145 146 147 148 149 146 143 139 139 144 150 156 160 171 162 148 137 131 130 130 130 134 138 145 150 152 149 145 142 150 146 136 124 115 114 119 125 128 130 138 149 157 155 145 135 132 121 106 99 107 123 132 132 127 118 113 115 114 107 107 112 107 88 84 80 70 79 93 90 87 82 82 92 102 111 129 148 159 156 148 141 142 153 167 176 176 162 144 126 112 106 116 129 150 159 171 180 182 179 175 173 158 154 151 142 126 115 125 142 143 139 145 163 182 190 190 189 173 165 147 127 116 117 122 124 125 128 132 132 133 136 142 147 146 156 158 149 142 145 147 144 146 145 148 156 160 145 113 85 55 79 112 142 161 169 168 165 170 147 122 112 120 135 151 163 180 171 149 125 116 114 95 71 52 31 21 29 39 48 48 38 67 96 127 140 140 140 143 146 136 136 143 156 166 170 172 175 162 168 170 166 163 162 157 150 142 142 143 149 154 155 151 148 144 146 149 156 164 171 175 177 173 172 170 163 156 151 150 151 153 160 169 177 183 183 174 163 149 131 108 91 78 71 69 73 72 75 77 79 82 83 84 84 83 83 84 84 86 87 89 91 93 95 99 102 105 110 115 119 123 126 131 136 141 143 145 145 148 148 150 150 152 151 152 152 148 145 142 138 135 129 123 119 116 114 110 108 106 102 98 95 95 94 93 90 85 79 75 72 
3 4 5 4 5 9 16 21 26 32 40 47 55 64 75 83 89 96 103 109 113 117 123 127 125 126 128 129 130 131 131 131 129 127 125 122 120 116 110 107 103 95 84 78 79 86 94 98 105 99 91 86 90 100 113 122 128 129 128 123 118 116 118 121 125 133 142 146 146 146 149 153 153 151 149 152 155 159 158 158 159 155 149 143 139 138 139 140 139 139 140 145 150 154 154 153 149 146 142 136 134 137 144 150 164 169 174 172 165 157 153 152 146 144 143 144 148 156 164 169 161 151 139 132 129 124 116 108 87 90 98 111 127 140 148 150 134 126 115 109 115 127 132 130 114 117 126 129 113 95 101 120 117 81 74 79 64 60 78 88 95 79 72 79 82 83 100 123 146 153 151 140 134 142 153 159 165 161 153 139 116 96 93 101 126 140 158 170 174 175 176 177 165 157 152 147 129 110 114 131 124 122 128 142 158 171 182 190 201 192 171 140 117 108 106 106 108 111 120 132 142 141 131 121 126 143 149 139 136 146 151 146 138 132 132 142 157 159 140 121 100 83 82 107 130 138 146 162 172 170 154 132 121 128 138 141 168 180 171 143 129 129 111 82 58 33 29 34 32 43 53 43 53 78 111 132 137 135 136 140 127 122 125 139 156 168 176 181 164 166 166 163 164 166 159 148 136 135 136 143 152 157 153 149 142 144 147 152 159 164 167 167 166 167 166 161 156 153 154 156 152 157 163 170 178 183 178 169 160 145 124 103 83 71 68 73 72 74 76 79 82 85 86 86 81 82 84 86 89 91 92 93 94 97 100 103 106 111 117 122 125 128 133 138 141 143 145 144 147 148 149 150 151 151 151 151 148 145 142 138 135 130 124 119 118 115 112 110 108 105 101 97 97 97 95 92 88 82 77 74 
4 4 4 3 4 6 12 16 20 27 37 43 50 59 72 81 86 91 98 105 109 113 115 117 120 121 122 124 125 126 126 126 126 125 121 118 115 112 110 111 103 93 81 78 82 92 100 104 103 96 89 91 101 113 121 125 129 127 121 112 107 110 121 130 126 131 138 146 152 155 155 155 152 153 154 155 156 156 156 155 153 150 147 143 140 140 144 146 149 148 147 148 151 154 157 158 160 159 156 149 140 132 127 125 132 140 152 164 170 169 165 161 155 154 151 149 152 161 173 181 179 163 146 143 144 138 126 117 88 73 59 61 82 111 135 147 151 137 125 118 109 103 112 129 131 120 111 106 96 86 87 96 98 90 71 55 57 71 74 66 78 99 100 72 53 62 83 94 110 129 145 142 125 116 125 136 157 156 153 147 132 113 94 83 109 134 154 156 151 158 174 185 166 164 171 173 151 115 98 102 114 101 92 100 123 147 158 161 192 195 182 150 124 111 103 95 87 91 103 122 134 134 126 120 108 116 129 140 145 144 139 135 139 121 112 122 136 141 149 157 136 110 83 74 83 102 124 139 144 165 165 154 151 148 134 126 143 151 175 180 154 138 120 86 67 34 38 42 36 44 47 53 52 64 90 118 130 129 129 134 132 112 100 115 143 167 179 183 168 171 167 159 160 167 164 155 130 128 129 136 148 155 152 148 143 142 145 149 150 149 158 170 164 160 156 156 159 161 162 161 161 159 158 164 172 176 175 173 168 157 140 120 102 88 78 74 76 76 77 78 79 79 78 78 80 80 83 87 92 94 93 93 91 93 97 101 106 112 120 125 125 127 131 134 139 144 147 149 153 152 152 151 151 152 152 153 148 146 143 141 137 132 125 121 121 118 115 112 110 107 104 101 100 99 97 93 89 84 81 79 
4 4 3 2 3 6 10 15 20 27 36 43 48 56 67 76 83 88 95 102 106 109 111 113 119 119 120 121 122 121 120 120 121 119 118 116 113 112 111 111 99 93 88 90 97 106 111 112 113 107 101 101 107 113 116 117 115 112 107 100 98 104 114 123 128 132 139 146 151 153 153 153 154 155 155 156 156 156 156 156 150 148 146 144 142 141 143 144 149 149 148 149 151 152 153 153 160 164 167 167 162 155 149 146 137 135 132 131 134 142 152 159 167 160 153 152 159 165 169 170 178 176 171 166 153 140 134 135 134 113 84 68 71 92 117 134 137 124 114 109 100 91 95 107 111 106 100 96 89 81 77 78 84 82 69 53 50 62 73 74 70 85 94 85 68 61 67 76 84 101 123 132 126 116 108 107 137 146 157 159 146 123 99 86 107 132 155 158 151 148 152 155 175 168 166 168 156 129 103 92 95 86 75 72 82 104 130 146 152 171 184 179 159 137 113 95 88 85 80 82 93 109 123 129 105 109 117 128 137 138 130 123 124 109 102 112 121 124 129 136 143 118 96 90 89 89 98 111 134 155 158 148 148 149 142 139 132 135 157 170 159 150 137 110 73 40 36 34 37 44 38 42 48 60 84 106 119 122 123 125 133 112 94 101 128 158 173 179 181 179 170 157 152 155 161 164 138 132 126 129 136 144 146 145 142 141 143 146 145 144 150 160 164 161 158 159 161 163 163 162 160 158 160 165 172 175 172 169 167 160 149 134 117 101 87 79 77 77 76 77 78 79 81 82 81 81 83 87 92 94 94 93 92 95 98 102 107 113 121 126 129 130 133 136 140 144 147 148 152 151 151 151 151 151 151 152 149 147 144 142 138 133 127 122 121 118 115 112 110 108 104 101 101 100 97 93 89 84 81 78 
3 3 2 2 2 5 8 13 21 27 34 40 45 53 63 70 80 84 91 97 99 102 105 107 113 113 114 115 114 113 111 110 113 111 109 108 107 107 107 108 101 101 103 110 118 123 123 122 117 113 109 107 108 108 104 101 101 98 95 94 97 105 113 119 130 134 141 147 152 154 154 153 158 158 158 157 157 157 156 156 149 148 147 146 145 143 142 141 135 136 140 144 148 152 155 156 157 161 166 169 169 167 166 166 164 154 136 118 108 111 123 133 155 155 155 154 154 155 159 160 166 169 172 170 158 143 136 138 139 140 141 138 131 124 117 114 117 104 94 92 90 86 88 95 105 108 105 97 88 78 67 59 73 79 74 59 50 58 71 79 56 50 52 59 61 54 54 59 63 76 97 113 120 114 98 84 102 121 146 158 153 133 108 93 79 101 126 137 136 135 137 139 171 162 156 158 159 145 115 89 71 66 58 54 58 73 92 106 121 140 163 174 170 160 150 145 125 116 95 72 69 83 101 110 113 102 93 93 104 116 121 121 123 110 102 105 110 113 119 127 143 125 110 104 96 85 87 98 117 140 148 142 146 149 143 141 132 126 140 162 169 170 159 141 93 60 38 28 42 45 24 26 43 59 80 98 112 121 124 122 134 116 95 89 106 137 160 171 184 180 172 162 151 146 154 166 149 139 126 122 126 135 141 144 142 141 143 144 141 139 143 149 159 158 158 159 161 162 162 160 159 159 161 166 171 172 168 164 163 161 156 147 134 116 98 87 84 82 79 77 79 83 88 91 86 86 86 89 93 95 94 93 94 97 100 104 108 115 122 127 133 134 136 139 142 145 148 149 152 151 151 151 151 151 151 152 151 149 146 143 139 134 128 124 121 118 115 112 111 108 105 102 103 101 98 94 89 83 80 78 
1 2 2 1 2 3 6 10 20 24 31 37 44 51 60 67 76 80 87 92 94 97 99 101 104 105 106 108 108 106 104 103 106 104 101 98 97 98 98 99 100 102 107 114 121 123 121 118 115 114 113 112 111 106 99 94 98 98 100 105 112 119 123 125 133 137 144 151 156 157 157 157 162 161 160 159 158 157 156 156 151 150 150 150 148 146 141 137 130 132 136 139 144 149 156 160 157 158 158 158 160 165 171 176 185 177 162 142 123 112 111 113 126 140 152 152 143 138 145 154 154 151 152 160 162 155 146 140 140 138 135 131 127 124 122 121 113 100 90 88 90 88 87 88 104 116 120 107 93 86 76 66 76 85 87 76 64 63 70 75 78 57 39 38 47 53 59 62 59 62 72 88 99 100 92 81 75 92 118 141 148 141 124 110 66 80 94 103 108 116 127 136 146 146 145 147 154 153 132 106 81 69 54 45 47 57 69 77 105 115 130 141 145 149 159 168 160 159 142 114 95 94 95 93 110 98 84 79 85 95 103 107 116 104 94 93 96 102 112 122 135 133 125 111 99 94 95 98 107 128 134 134 143 148 139 132 140 126 128 149 169 175 167 156 126 94 57 36 51 52 17 13 32 51 73 92 109 123 126 122 130 124 109 93 91 112 144 165 177 173 173 174 163 149 148 156 155 144 130 123 125 134 141 145 142 142 143 143 141 140 143 147 152 152 154 156 157 158 158 157 160 160 161 163 166 167 165 162 157 157 155 152 143 128 109 96 92 88 84 81 82 86 94 98 96 95 94 95 98 98 96 94 96 98 102 105 109 116 123 128 134 135 138 141 145 148 151 152 153 153 154 154 154 154 153 153 153 151 147 144 140 136 130 126 121 118 115 113 111 109 106 103 103 102 99 94 89 84 80 78 
1 2 2 2 2 2 5 8 17 20 27 34 42 51 59 65 71 76 82 88 91 93 96 97 98 99 102 104 105 104 103 102 100 99 95 91 88 87 88 88 90 92 96 102 107 109 109 108 113 114 116 117 116 112 106 102 105 108 115 124 132 137 137 136 139 143 150 156 161 163 162 162 165 163 161 158 156 155 154 154 155 153 152 151 150 146 140 135 143 143 142 140 139 143 149 155 160 160 159 158 159 163 169 174 175 176 174 166 153 140 131 127 119 130 143 147 146 142 141 143 145 143 145 156 164 164 160 158 152 138 121 110 110 117 126 130 132 125 118 117 115 105 93 85 96 114 123 111 95 88 86 83 80 87 93 90 83 78 72 68 85 79 61 38 27 30 38 41 49 50 55 64 74 80 82 81 64 71 87 109 129 137 134 127 98 95 89 82 79 86 104 119 120 132 140 140 143 149 144 133 114 97 68 42 30 36 55 71 81 96 114 123 121 117 115 115 141 153 158 149 138 131 124 117 109 110 111 111 109 103 96 91 102 94 87 84 84 83 85 88 111 127 130 112 102 106 105 95 112 124 122 119 135 147 140 132 142 127 116 128 154 165 160 154 160 130 90 59 68 63 22 10 16 32 56 81 103 117 121 119 117 124 124 108 90 95 129 161 176 173 177 183 175 158 148 149 152 144 134 129 130 135 139 141 139 140 141 140 141 144 148 150 145 147 150 152 153 153 154 154 161 160 160 160 161 162 162 161 154 152 151 150 146 136 121 110 100 95 88 84 84 87 94 98 103 103 103 103 105 103 99 96 98 100 103 106 110 116 123 128 132 134 137 141 146 150 154 155 155 156 157 158 158 157 156 155 155 152 147 144 140 136 131 127 120 118 115 113 112 110 107 104 103 102 99 95 89 84 81 79 
1 3 3 3 2 3 5 7 15 17 22 30 38 48 56 60 65 70 77 83 86 89 92 93 94 96 100 103 104 103 102 100 95 94 90 86 84 85 86 87 89 90 93 96 100 104 106 108 108 110 113 116 116 115 112 111 116 121 130 138 144 147 147 147 148 151 157 162 165 166 164 163 164 162 158 155 152 150 149 149 153 149 146 145 145 144 139 135 137 138 137 135 133 136 143 150 153 157 161 162 161 159 159 159 163 164 166 166 163 156 148 144 137 132 132 141 154 156 145 133 130 134 141 146 145 142 148 157 145 139 134 134 137 140 139 137 146 147 150 155 153 141 122 108 100 114 122 112 94 82 81 83 82 84 88 92 93 87 76 67 58 78 83 59 30 17 18 21 36 39 45 53 62 69 73 77 59 59 63 77 96 112 119 121 121 111 95 78 64 62 76 92 102 118 130 128 125 132 141 145 120 115 97 65 35 24 35 51 60 81 103 105 100 95 84 74 91 105 124 136 139 138 137 137 134 137 140 140 135 128 120 116 121 118 112 106 96 81 65 53 72 98 112 104 102 112 111 99 121 128 118 111 129 145 145 140 140 131 112 112 140 158 157 155 171 148 123 94 90 82 39 19 10 21 43 73 96 108 113 117 107 114 123 120 101 91 114 148 179 179 183 185 179 167 157 153 148 144 138 134 132 132 130 129 133 135 134 132 136 142 147 148 139 142 145 146 146 147 150 152 159 159 159 159 159 159 159 159 152 149 146 147 147 142 132 123 106 101 94 87 85 86 89 92 103 104 106 108 109 106 102 98 98 100 103 106 110 116 123 128 131 132 136 141 146 150 154 156 157 158 159 160 160 159 158 157 155 152 147 143 140 136 131 128 120 118 115 113 112 110 107 105 102 101 98 95 90 86 82 80 
2 3 4 4 3 3 5 7 13 15 19 25 34 43 49 53 59 64 71 77 81 85 87 89 90 92 96 98 99 97 95 94 91 89 87 86 87 90 94 97 102 102 103 103 105 107 110 113 109 110 112 113 114 115 117 118 128 133 140 144 146 148 152 155 157 159 162 165 166 164 161 159 159 157 153 148 145 143 142 142 144 139 134 133 136 139 137 134 126 130 134 134 133 135 141 147 146 148 152 153 152 149 147 147 159 156 153 153 154 153 148 144 139 131 125 130 142 148 143 135 131 130 129 130 125 118 118 124 125 122 119 118 122 130 139 144 140 143 148 153 154 149 139 130 117 121 125 122 108 93 88 90 88 84 82 86 90 88 80 73 58 71 85 84 68 46 34 33 24 27 33 41 50 59 67 72 61 61 61 64 72 82 92 100 112 109 104 92 73 59 60 70 83 92 100 100 98 105 120 133 112 113 107 89 64 41 29 24 39 65 82 79 78 84 82 69 59 61 73 90 97 96 102 113 132 128 125 127 131 137 139 140 147 143 138 134 126 111 89 71 63 74 85 89 91 96 102 104 119 131 126 119 129 140 138 134 136 137 113 101 128 153 155 156 159 146 146 126 109 101 62 31 14 13 31 63 85 92 99 111 111 102 108 122 114 93 96 118 162 175 185 186 180 174 167 162 150 148 144 139 133 126 119 114 122 123 121 118 122 133 140 140 131 133 135 136 136 138 142 146 153 156 160 162 161 159 156 154 147 143 140 142 146 145 137 130 115 110 103 95 89 86 87 87 94 97 102 108 111 109 104 99 98 100 103 106 110 115 122 127 131 133 136 140 144 148 151 153 156 157 159 160 160 159 157 156 154 151 146 141 138 134 130 127 120 118 115 113 112 111 108 106 101 100 98 95 91 87 83 82 
2 4 5 5 4 4 5 7 12 14 16 23 30 38 44 46 55 60 67 74 78 82 84 86 86 87 90 93 92 90 86 84 87 86 85 87 91 97 104 108 113 112 111 109 107 107 108 110 118 118 117 117 117 120 124 127 136 141 145 146 144 147 154 160 162 164 166 167 166 162 159 156 157 154 149 144 140 138 137 137 136 130 124 124 130 135 136 134 134 139 144 144 140 138 139 142 146 146 146 144 143 144 146 149 155 149 145 146 149 151 146 142 123 124 123 121 121 126 136 144 151 136 123 123 125 118 105 94 98 104 111 114 113 115 120 125 132 130 126 122 122 125 126 124 124 122 127 135 132 119 111 113 96 87 79 79 83 83 81 78 75 57 58 79 87 67 41 31 14 14 17 23 34 48 59 65 72 75 76 71 66 68 79 89 101 108 117 114 94 68 57 60 65 67 69 72 76 84 100 114 123 109 94 87 82 67 40 19 21 50 69 63 63 76 75 61 46 36 40 53 58 54 62 78 88 87 90 102 119 130 131 128 140 136 134 138 144 144 133 121 86 76 73 77 75 70 80 99 109 132 139 132 134 133 123 116 129 137 112 91 117 144 148 150 141 137 156 145 122 114 79 42 14 6 19 51 71 74 83 100 122 96 94 119 121 95 81 91 137 164 185 188 182 179 173 167 157 155 151 144 134 123 112 106 114 115 111 107 111 123 131 130 123 125 127 126 126 129 134 139 148 153 161 165 164 159 154 150 141 137 135 138 144 144 138 131 123 119 111 103 96 90 87 86 85 89 97 106 111 109 105 100 98 100 103 106 109 115 122 127 132 134 136 139 142 146 148 149 155 156 158 160 160 158 156 155 154 151 145 141 137 134 130 127 120 118 115 113 113 111 108 106 100 99 97 95 91 88 85 83 
1 3 4 4 4 4 6 8 7 11 17 22 25 30 35 39 47 50 56 63 69 72 75 75 74 78 81 83 82 81 80 80 79 84 92 101 110 116 120 122 122 119 114 110 111 115 120 124 126 126 127 128 131 135 138 140 146 142 139 142 148 155 156 155 158 159 161 163 162 158 154 151 154 152 148 144 138 134 133 134 134 132 131 132 137 142 145 146 140 140 140 140 139 138 137 136 138 142 147 147 142 137 133 132 139 138 145 157 161 152 142 138 124 111 98 97 105 113 113 109 131 137 142 142 134 123 114 110 95 94 94 97 101 106 108 108 121 118 108 98 96 100 98 93 102 104 111 121 128 129 123 115 114 97 78 69 72 77 77 74 80 65 56 61 65 59 49 42 39 36 26 17 20 37 51 56 68 77 82 74 63 60 64 67 78 93 104 113 112 88 62 56 70 62 55 56 65 75 80 81 119 104 83 72 71 68 54 38 27 35 51 68 73 63 50 42 52 45 36 32 33 37 41 43 42 54 62 63 73 91 102 101 112 119 126 127 123 125 142 162 126 106 95 91 68 40 42 65 103 116 128 135 144 146 131 110 112 108 91 75 90 130 152 150 131 128 147 149 124 119 104 59 25 13 21 45 53 49 63 88 123 106 105 123 127 102 75 66 107 142 176 186 181 177 175 172 170 167 164 158 145 125 106 95 110 111 106 97 97 108 119 122 119 120 119 117 116 118 123 129 137 147 157 162 165 164 157 149 139 133 128 129 134 137 134 129 120 119 115 106 96 89 90 91 86 86 85 86 95 105 110 109 107 107 107 109 113 120 126 130 135 136 139 142 145 147 149 149 155 156 155 153 151 150 151 152 149 147 143 139 136 132 127 123 118 116 113 112 110 108 105 102 101 100 98 93 87 84 83 83 
1 3 4 4 4 4 7 9 8 11 16 20 23 27 33 37 43 46 51 56 63 66 68 68 68 71 75 76 76 78 79 80 87 92 100 110 118 123 127 128 128 125 121 119 120 124 129 132 137 138 139 141 142 145 147 148 147 143 140 143 148 151 151 149 148 149 152 154 154 154 152 151 146 146 144 141 138 137 137 137 142 141 140 142 144 145 145 144 136 137 137 137 137 136 135 134 139 144 149 150 147 143 140 140 137 134 137 146 151 147 142 140 120 111 102 98 99 99 96 92 98 119 142 150 142 128 121 120 106 103 96 94 94 94 94 94 108 109 101 94 91 94 93 87 78 76 74 79 88 97 101 102 93 93 88 78 66 64 73 83 85 74 69 76 79 71 55 43 56 49 36 21 19 26 34 36 50 59 64 54 43 35 36 35 50 61 75 90 100 83 58 49 63 59 51 45 44 50 59 66 100 93 83 76 75 69 53 37 28 32 43 58 63 54 42 34 47 44 39 33 29 30 35 39 40 41 31 18 20 39 55 60 65 76 90 97 95 96 110 127 154 137 121 106 79 47 31 32 61 83 109 123 128 130 128 124 95 93 76 57 65 104 138 150 137 125 136 140 126 129 122 87 48 30 27 48 59 53 50 55 94 105 121 131 122 100 77 65 92 126 165 184 182 173 164 159 169 169 168 164 152 133 113 101 104 107 104 95 93 101 111 115 114 117 119 115 110 108 112 116 128 138 151 159 165 164 155 144 130 124 120 124 132 136 132 127 119 117 112 105 98 93 93 93 89 90 90 90 97 105 106 105 106 107 107 109 113 120 126 129 134 136 139 143 146 149 150 151 155 156 156 154 151 150 151 153 150 147 143 139 136 132 127 123 117 115 112 111 109 107 104 101 101 100 98 93 87 83 82 82 
2 4 4 4 4 5 8 10 12 14 16 18 20 25 32 36 42 45 49 54 58 60 62 63 65 68 70 73 75 77 81 83 94 100 108 118 124 128 129 129 122 121 119 118 121 125 130 134 140 141 142 144 145 147 148 148 147 144 142 143 147 148 147 144 135 136 138 140 143 146 147 149 146 146 146 146 146 148 149 151 153 152 152 152 151 149 145 141 131 131 132 133 134 135 135 136 138 142 147 150 149 147 145 144 128 123 122 127 133 134 135 136 132 132 130 127 122 118 115 115 108 105 106 114 126 131 126 121 121 112 99 86 76 68 61 58 76 80 82 80 80 82 84 84 78 70 61 57 60 66 70 72 74 81 85 77 65 62 72 85 85 77 74 81 85 75 55 40 48 49 47 44 42 41 37 31 34 40 40 31 20 17 18 19 25 34 46 68 89 80 56 47 60 57 51 38 28 27 37 47 82 86 91 94 92 78 52 30 31 29 34 44 50 46 38 33 38 37 33 24 17 15 20 25 26 29 24 15 11 19 24 24 26 29 34 40 43 54 77 98 139 137 131 120 102 75 39 12 21 46 81 106 112 109 114 123 97 89 67 44 49 84 122 142 146 129 135 144 137 141 139 117 75 52 40 52 66 63 46 32 59 94 128 135 123 106 88 75 65 93 137 172 184 175 162 155 165 168 172 171 162 146 126 112 103 107 106 96 88 89 95 100 105 112 117 113 102 96 97 103 113 124 137 150 160 162 151 138 126 120 116 120 130 135 132 126 119 115 110 105 101 97 94 92 89 92 92 92 98 105 105 104 105 106 107 109 114 120 126 129 133 135 139 143 147 150 152 153 154 155 156 154 152 151 152 153 150 147 143 140 136 132 126 122 115 113 111 109 108 106 102 99 100 100 97 92 87 83 82 82 
3 4 4 4 4 6 9 12 16 17 19 20 21 26 33 38 47 49 51 56 59 60 63 63 66 70 73 76 79 83 88 92 98 104 112 120 124 125 123 121 113 113 113 115 118 123 127 130 136 137 139 141 142 142 142 141 145 143 143 144 147 147 145 143 134 134 134 136 139 144 147 150 153 153 154 156 159 162 163 164 159 158 156 155 153 149 143 139 129 128 127 127 128 132 135 137 134 137 141 144 145 143 141 140 129 122 115 114 115 116 116 116 127 131 134 128 118 111 111 113 117 98 78 77 90 102 102 95 106 100 91 82 74 68 62 58 56 62 68 70 70 71 74 76 81 77 71 66 62 59 54 50 60 59 56 56 58 62 66 69 63 58 57 66 74 71 58 45 42 44 48 52 56 54 47 40 42 42 34 21 9 9 14 17 22 29 37 58 80 76 58 51 54 56 54 44 31 26 29 35 51 63 82 98 105 92 60 32 37 28 25 31 40 44 45 45 40 34 25 15 8 7 10 13 11 20 28 29 29 30 27 22 24 18 15 18 25 36 50 63 86 104 118 122 123 109 64 18 10 22 53 92 109 103 96 98 110 95 70 47 45 67 99 121 145 136 143 150 141 140 140 129 104 84 66 65 75 78 66 50 43 71 106 124 127 118 103 89 58 72 107 151 176 174 161 153 156 163 170 172 168 157 140 126 109 114 114 103 87 79 80 84 95 105 115 111 99 90 91 96 100 108 119 134 148 156 150 139 129 120 113 114 120 125 123 119 118 113 108 104 103 99 94 89 88 90 90 89 95 103 107 107 105 106 107 109 114 120 125 128 132 134 138 143 147 151 154 155 153 155 156 155 153 152 152 153 151 148 143 140 136 131 126 122 114 112 109 108 107 105 101 98 98 97 96 92 87 84 84 85 
4 5 5 5 5 7 11 14 21 22 23 24 26 31 36 42 51 53 56 58 62 64 66 67 72 75 79 82 85 90 95 99 103 107 114 119 121 120 117 114 111 113 115 119 123 128 131 133 136 137 139 141 142 142 141 140 144 144 144 146 148 149 148 147 145 145 144 144 146 150 154 156 155 154 154 157 162 164 164 163 157 155 153 152 149 145 139 135 131 128 123 120 119 122 127 130 133 134 136 138 139 138 135 133 133 127 120 115 114 114 112 107 111 114 114 104 90 82 81 84 80 81 79 71 60 53 51 53 54 55 58 63 68 70 70 69 60 63 66 66 62 59 59 61 61 62 65 67 67 64 59 54 54 47 40 38 44 49 52 52 48 45 44 48 58 64 62 57 56 50 44 43 43 40 35 32 49 48 39 25 14 12 11 10 31 35 39 53 70 65 52 50 41 45 50 50 46 40 35 33 19 29 48 72 94 99 80 58 44 32 22 23 31 40 50 58 52 40 23 12 9 11 11 10 7 11 13 12 15 23 30 32 36 30 30 39 45 42 35 30 54 80 102 113 123 122 88 45 22 11 28 74 114 115 92 75 99 96 84 62 41 42 70 101 134 139 147 143 130 126 132 135 134 120 101 87 83 86 86 83 52 54 71 102 125 123 106 91 76 74 90 127 157 162 154 146 147 156 164 167 167 163 151 138 116 121 123 113 95 80 76 78 86 98 109 108 97 88 89 94 94 98 104 116 134 149 150 145 136 125 113 106 107 110 110 108 108 105 103 102 103 101 97 93 91 92 88 84 88 98 105 108 103 105 106 109 114 119 124 127 131 133 137 142 147 151 154 155 153 155 156 156 154 153 153 153 151 148 144 140 136 131 125 121 113 111 110 108 107 104 100 97 95 95 95 92 89 87 88 89 
5 5 6 5 5 8 12 16 24 26 28 29 32 35 41 46 54 56 59 62 66 70 72 74 79 82 86 89 92 95 98 101 107 110 115 119 120 119 115 113 113 116 120 125 130 134 137 138 136 137 138 140 141 141 141 141 146 147 148 148 151 152 153 154 152 152 151 151 152 153 153 154 147 146 145 149 153 156 154 151 150 150 150 149 147 141 133 127 132 129 123 118 116 116 118 120 132 131 132 134 135 134 131 128 120 120 119 119 125 133 134 131 132 134 134 129 121 117 118 121 109 109 108 102 93 83 76 73 65 67 69 73 74 73 68 64 57 55 55 56 54 51 51 53 49 50 52 54 58 61 63 64 56 56 52 44 35 35 43 52 60 58 53 48 48 53 55 53 53 50 48 50 48 37 23 14 30 33 33 28 26 24 20 15 33 35 34 45 59 55 42 41 23 28 38 46 50 46 39 32 19 22 30 47 70 89 91 84 54 41 28 22 25 34 46 59 58 42 23 12 11 12 10 5 8 8 5 4 5 11 19 24 32 26 25 34 42 43 39 36 47 67 87 97 106 111 102 87 44 16 11 55 108 123 99 72 75 88 98 83 45 26 49 87 121 141 148 133 114 115 131 145 146 137 122 104 89 83 88 95 79 63 64 92 121 123 103 85 83 75 79 103 133 150 154 151 144 152 157 157 159 162 156 145 122 126 129 125 109 90 81 81 82 91 100 99 91 83 83 87 90 91 92 100 115 135 144 145 144 134 120 109 103 101 102 104 94 95 97 99 102 102 99 98 97 96 91 83 83 92 102 106 103 104 106 110 114 119 124 126 130 132 136 141 146 150 153 154 152 154 157 157 155 154 153 154 152 149 144 140 136 131 125 121 113 111 109 108 107 104 100 97 95 96 95 93 91 89 90 92 
5 6 6 6 5 8 13 17 25 28 31 34 36 40 45 48 57 59 62 67 72 77 81 83 87 91 95 98 99 100 101 103 107 109 113 117 119 119 118 116 118 122 127 132 138 141 143 143 139 139 139 140 142 143 145 146 151 151 152 152 153 154 157 159 156 157 158 159 159 157 154 153 146 143 143 146 152 154 151 147 144 146 150 152 148 139 127 118 127 127 126 125 124 123 122 122 127 126 126 128 131 130 127 124 114 117 118 119 130 142 147 144 151 151 154 157 160 163 164 164 171 158 144 143 150 153 146 138 134 131 125 118 110 99 88 81 64 57 51 51 49 44 44 48 48 47 45 44 46 49 55 59 59 63 61 49 35 32 40 51 62 66 65 56 50 53 55 56 44 41 45 55 57 47 31 22 18 21 23 23 26 30 29 25 27 25 24 37 57 54 38 32 17 21 28 34 36 34 28 24 26 29 32 38 51 71 84 89 71 59 44 32 25 25 36 47 55 43 27 18 13 11 6 4 7 9 13 14 13 10 9 11 20 13 9 10 16 24 37 48 43 58 77 85 83 84 95 108 73 35 13 37 85 111 101 81 65 75 90 89 58 30 37 64 101 136 146 123 105 109 124 138 140 134 128 121 107 92 89 95 110 101 97 107 125 130 112 90 74 75 78 89 110 136 152 157 146 152 152 147 149 157 156 148 130 131 135 134 121 100 86 83 81 86 90 87 80 73 71 73 82 82 81 83 94 114 128 133 140 136 126 113 102 96 97 100 87 90 95 98 98 97 97 97 97 98 93 85 84 92 101 105 102 104 106 110 114 119 123 126 130 132 136 140 145 148 151 152 151 154 157 158 156 154 154 154 152 149 144 140 136 130 124 120 113 111 110 108 107 104 100 97 99 99 98 95 92 90 90 91 
6 6 5 5 5 9 14 18 25 28 32 36 38 42 46 49 61 63 66 71 77 83 88 90 94 97 102 105 105 104 104 105 103 106 110 114 118 119 119 119 126 130 135 143 148 150 151 150 145 144 144 145 147 150 153 153 156 156 156 154 154 155 159 161 164 166 169 170 169 166 162 159 151 148 148 152 157 160 156 152 140 145 151 155 152 139 122 111 120 124 129 134 136 135 133 131 122 121 120 123 126 127 124 121 126 126 122 119 122 131 132 127 128 128 131 137 144 147 145 142 146 146 145 145 146 146 147 149 149 145 139 131 124 115 107 101 92 79 65 58 51 42 37 37 40 40 39 38 39 42 46 51 54 55 50 43 35 33 36 40 40 53 60 58 57 63 71 75 53 41 32 35 42 44 46 49 31 28 22 15 18 26 29 27 22 18 15 34 61 61 41 29 21 24 26 25 21 17 15 14 13 24 33 37 43 59 76 86 85 74 59 43 28 20 26 36 54 48 39 28 20 14 10 7 12 9 9 9 6 5 8 13 13 13 15 11 6 7 19 34 43 55 75 82 68 55 71 97 95 56 22 26 61 91 95 87 68 61 67 79 70 42 28 33 78 124 139 115 99 102 109 115 134 129 132 139 133 113 101 101 129 138 137 130 134 142 128 103 73 83 87 85 95 119 141 151 150 154 150 142 143 153 155 148 137 137 141 141 127 104 86 80 81 84 83 79 71 64 60 60 74 74 71 70 79 96 111 118 127 127 121 110 96 88 88 92 87 92 97 98 95 91 91 91 93 95 94 88 88 95 104 107 102 104 106 110 114 119 123 125 131 132 135 140 144 147 149 150 151 154 156 158 157 155 154 154 152 149 144 140 136 130 124 120 114 112 110 108 107 105 101 98 103 102 101 97 92 89 89 89 
4 5 6 6 7 10 16 18 26 29 32 36 39 45 51 55 59 63 69 75 80 85 88 93 98 105 110 109 107 106 104 100 101 104 110 114 116 121 124 126 134 140 146 150 150 151 153 157 150 152 154 154 152 151 152 153 156 156 156 156 158 161 163 165 169 173 177 180 178 175 167 164 159 161 160 161 159 159 157 157 149 146 145 148 150 143 131 120 118 126 136 144 146 142 136 132 129 126 123 121 122 128 136 141 143 139 134 132 131 127 118 111 106 102 99 99 98 93 85 77 84 83 84 88 92 93 89 86 89 91 92 91 90 89 89 90 83 76 64 55 49 42 35 29 27 35 39 37 35 34 32 29 38 39 39 38 38 37 33 30 39 40 45 55 61 65 73 81 74 54 31 20 25 42 60 71 59 53 39 22 10 11 22 32 26 26 18 32 69 72 46 36 29 37 36 24 14 13 15 16 9 20 32 40 50 63 66 64 79 76 71 61 49 36 24 17 29 46 59 50 26 9 11 20 19 17 12 7 6 8 13 16 16 18 20 16 10 7 9 14 26 38 61 87 83 51 50 84 97 73 34 18 42 73 90 101 79 62 53 69 86 64 31 20 59 103 121 97 72 69 89 115 133 143 137 130 141 146 133 120 132 150 156 143 140 149 146 132 90 80 76 83 90 101 123 146 153 154 152 146 140 137 141 146 146 147 146 142 132 115 97 85 85 82 78 72 63 55 55 60 63 70 65 61 67 75 89 108 118 116 112 103 94 85 79 77 87 91 96 99 99 94 87 83 85 87 88 89 89 93 97 101 99 100 103 105 109 115 122 129 130 133 136 140 144 147 149 151 151 154 157 157 154 152 152 153 155 150 144 138 133 129 125 122 116 113 109 107 106 103 102 100 103 101 99 96 94 93 93 93 
5 6 6 7 7 11 15 19 27 30 34 38 41 47 54 58 65 69 74 79 85 88 93 95 98 105 108 105 105 105 104 101 100 105 110 115 118 123 126 129 140 143 148 150 149 149 152 154 150 152 152 151 149 148 148 149 156 156 157 158 161 164 168 170 174 176 180 182 181 177 172 169 165 164 161 159 157 156 156 156 146 142 140 143 149 150 144 137 135 136 137 138 138 137 136 136 130 130 130 132 137 145 154 161 165 155 142 132 126 119 112 106 87 78 66 57 52 46 39 34 23 22 21 21 23 24 23 22 28 28 28 28 30 33 38 41 47 44 41 39 38 38 36 35 38 43 45 39 32 30 26 21 19 20 23 28 32 36 36 34 38 34 33 38 44 54 69 81 93 83 68 53 44 44 51 57 72 71 65 50 32 22 23 26 32 32 25 38 71 75 53 43 33 44 48 35 20 13 12 13 8 17 25 36 51 61 58 49 60 70 78 74 56 37 25 21 18 33 47 48 35 23 21 24 17 17 16 14 11 8 9 10 17 21 23 20 15 11 12 15 10 20 40 68 78 57 47 65 85 70 38 24 42 66 81 93 91 65 42 52 79 72 40 22 51 91 106 80 52 49 69 97 111 140 155 153 152 148 135 125 130 150 161 155 150 151 146 135 96 86 82 84 85 89 104 123 147 152 156 152 142 135 136 139 149 149 148 144 135 119 102 91 91 82 75 72 67 59 52 50 58 63 59 52 57 61 72 89 103 105 106 101 94 86 83 82 81 84 87 91 94 93 92 90 91 90 89 88 87 90 96 100 103 104 105 106 109 114 121 126 130 132 137 140 144 147 150 151 152 155 158 158 156 154 154 155 154 150 143 138 134 130 126 123 118 115 111 109 107 106 103 101 103 101 100 97 95 95 95 95 
5 6 7 8 9 12 17 21 26 29 34 38 43 49 55 60 70 74 78 83 86 90 93 96 97 103 105 102 101 103 103 101 101 105 110 116 120 126 130 134 144 145 148 148 146 145 147 148 149 149 149 148 145 144 144 146 155 155 156 158 162 166 169 171 170 172 173 175 173 171 167 164 165 162 157 152 150 150 152 153 152 147 143 144 149 152 151 147 137 133 128 125 127 133 141 146 149 150 151 152 154 158 164 168 155 147 137 129 124 118 112 107 90 84 75 70 68 66 63 60 48 46 41 35 28 25 25 25 20 21 21 23 25 26 26 27 21 22 23 23 22 22 23 24 31 35 37 33 29 27 24 19 17 15 15 19 25 31 34 37 33 32 35 40 44 49 57 66 91 96 98 89 73 59 53 54 74 81 86 81 67 53 44 41 41 39 32 43 69 75 62 55 64 69 65 46 22 10 10 14 7 9 15 28 46 56 51 41 39 58 79 80 61 36 20 14 13 21 33 39 38 32 26 22 20 23 25 24 20 13 9 5 14 19 23 22 18 13 11 11 5 11 19 41 65 64 52 52 71 66 46 34 46 62 72 83 90 70 43 40 61 68 53 42 55 87 96 76 56 43 35 37 81 119 149 149 142 145 151 153 132 146 159 164 162 155 144 135 105 95 88 86 81 77 83 93 135 149 163 164 151 138 133 134 147 147 146 143 135 122 107 97 97 84 72 72 72 65 54 46 50 55 48 40 42 45 52 68 88 94 100 100 94 88 86 86 82 83 85 88 91 96 101 104 97 95 93 89 87 89 94 99 105 105 106 106 109 113 120 124 130 132 136 140 144 148 150 151 153 156 158 159 157 156 155 156 152 148 143 138 135 131 127 124 120 117 113 111 110 108 106 104 104 102 101 98 97 97 97 97 
5 7 8 8 9 13 18 22 24 28 33 38 43 49 55 60 70 74 77 81 85 86 90 92 97 101 102 98 97 100 102 100 100 104 111 117 123 129 134 139 145 146 146 145 144 143 143 143 148 148 147 144 141 140 142 144 150 150 150 152 155 159 162 164 160 160 159 158 157 154 152 150 157 153 147 143 141 144 148 151 156 152 150 151 154 155 152 148 131 125 118 114 117 124 131 137 150 153 154 153 151 150 151 154 151 150 150 150 149 144 136 130 119 115 110 106 100 92 84 78 85 83 78 70 59 53 52 54 56 59 63 64 60 50 38 30 40 41 39 34 26 21 20 20 21 29 35 39 42 45 44 40 34 32 29 27 25 26 32 38 41 41 44 50 51 50 52 57 74 88 104 108 97 80 68 63 69 76 84 90 88 80 69 61 49 43 37 43 59 68 66 64 69 75 76 66 47 32 21 18 13 10 10 17 31 43 47 46 38 50 67 76 70 49 25 8 11 15 22 29 34 36 36 35 28 32 37 36 29 21 14 11 17 23 28 30 27 21 16 14 16 16 8 18 48 66 60 53 56 59 48 41 53 62 65 72 75 76 56 36 38 48 57 67 80 89 80 67 67 57 29 6 46 81 120 133 131 141 155 159 140 138 143 157 167 160 143 129 113 101 90 88 85 80 76 77 114 136 160 169 159 142 130 125 140 139 138 136 130 121 109 102 103 87 72 69 69 65 58 53 52 54 43 32 34 36 44 59 75 84 94 96 91 86 84 84 84 83 83 84 88 95 104 109 101 101 99 96 92 92 94 97 102 104 105 105 108 113 119 124 131 133 136 141 145 148 150 151 153 154 156 157 157 156 156 155 150 147 143 139 136 133 129 126 120 117 114 111 110 109 107 105 104 103 101 100 99 99 99 100 
5 6 7 8 9 13 18 22 25 30 36 42 46 52 57 61 69 72 76 80 82 84 86 89 94 98 98 94 93 97 99 99 99 105 111 119 126 131 138 142 146 147 147 147 147 147 145 144 146 145 142 138 134 134 136 139 138 138 138 139 141 143 146 148 148 147 145 143 141 140 140 140 147 144 140 138 139 144 149 153 153 153 155 159 160 156 148 142 127 122 116 112 111 111 109 108 114 119 125 126 123 122 126 129 139 139 140 140 139 134 129 125 133 132 130 129 128 125 121 117 116 118 119 116 109 104 103 104 88 88 86 82 74 60 44 33 41 40 37 29 23 18 19 22 13 21 30 35 42 46 45 39 38 38 41 43 37 31 32 38 48 46 47 50 50 49 53 59 63 76 95 108 108 98 86 78 74 74 75 83 92 93 84 75 61 52 46 45 49 60 68 69 37 48 65 79 81 67 47 32 29 25 19 16 18 26 41 52 47 43 47 63 79 74 48 23 12 14 16 20 27 37 46 52 35 41 46 44 38 29 24 22 31 36 42 45 43 38 31 26 17 20 7 6 36 62 62 54 44 49 43 41 54 60 58 59 65 77 64 36 25 32 48 66 91 86 62 43 54 64 53 18 39 43 7 21 132 139 45 95 150 132 124 140 161 161 144 125 115 102 90 89 94 93 87 82 93 113 140 159 160 147 130 118 130 129 126 125 122 118 112 107 108 92 75 65 60 56 54 55 58 57 41 28 28 30 37 51 59 68 79 84 83 79 77 77 81 79 77 78 81 87 96 100 102 103 105 104 100 97 96 96 99 100 102 104 107 113 120 125 131 133 137 141 145 148 151 152 152 152 154 155 156 156 155 154 150 147 143 140 137 134 129 126 119 116 112 110 109 108 106 104 104 103 101 100 100 100 101 101 
4 5 6 7 9 13 18 22 29 33 40 45 49 54 59 63 67 71 75 78 80 83 85 87 90 94 95 92 91 95 97 96 101 106 116 126 132 137 142 145 151 151 150 152 154 152 148 145 141 139 134 128 123 122 124 126 120 121 121 121 123 124 128 129 138 135 131 130 128 131 133 135 136 136 135 136 140 146 152 156 159 160 161 160 155 145 132 123 118 116 115 115 115 111 104 98 93 99 105 106 103 101 103 107 108 106 102 99 98 100 103 105 100 99 98 99 104 111 118 122 116 117 118 115 108 101 95 92 77 70 61 54 50 44 37 31 23 21 18 16 18 24 32 38 27 32 37 40 45 48 46 40 32 32 37 46 46 37 32 34 29 34 44 55 57 51 48 48 57 64 75 89 100 105 104 102 84 78 76 83 98 108 108 104 82 71 66 60 51 57 68 68 42 41 47 62 74 74 64 56 49 46 39 29 19 19 36 54 51 39 32 45 68 76 60 41 24 21 19 16 18 25 36 42 41 47 54 54 47 40 36 35 40 45 52 56 57 50 42 36 15 23 13 8 31 54 54 48 37 44 39 37 48 53 49 50 65 73 60 40 34 34 37 7 21 82 66 25 21 50 58 33 71 21 7 20 115 127 41 55 154 133 118 128 148 157 147 133 121 109 97 93 96 99 96 93 86 96 116 141 159 156 137 119 119 115 112 110 111 112 112 111 107 95 80 68 58 49 47 50 54 51 33 19 19 19 23 36 45 51 59 66 69 69 69 68 76 76 76 78 80 85 91 94 99 103 106 107 105 101 99 98 98 99 102 104 107 113 121 126 131 133 137 141 145 149 151 152 151 151 152 154 157 157 155 153 150 147 144 141 138 134 129 126 117 115 111 109 109 108 106 104 103 102 101 100 100 101 101 102 
2 4 5 6 8 13 17 22 28 33 39 45 48 52 56 59 64 68 72 75 78 80 82 85 87 92 94 91 90 93 95 95 103 112 124 133 140 144 146 147 152 152 152 154 156 152 146 141 137 133 125 116 109 106 107 109 103 103 103 104 107 110 113 115 121 119 116 116 118 124 130 134 129 130 133 137 143 148 153 155 160 158 155 151 143 134 124 118 118 117 119 124 127 124 116 109 104 110 115 113 107 102 103 106 108 106 102 99 100 105 111 116 130 126 119 112 106 105 106 108 110 108 102 94 85 74 62 55 34 28 20 18 20 24 25 24 37 31 25 24 31 43 56 64 66 68 68 70 77 86 88 85 67 49 38 43 50 46 40 39 26 29 38 48 51 48 47 49 59 57 57 61 71 85 98 106 93 89 86 89 99 110 116 119 109 98 98 88 65 62 71 67 69 56 45 47 54 58 61 65 57 58 60 54 39 30 38 51 59 50 39 36 41 47 48 47 40 35 28 25 27 29 32 33 45 54 65 68 62 53 50 50 49 53 58 63 63 58 49 44 33 18 39 13 28 124 156 43 25 21 45 38 18 39 44 50 59 67 63 55 6 30 38 7 20 85 77 7 4 38 48 62 48 18 37 78 83 95 134 157 151 141 130 127 137 148 153 150 137 130 117 101 89 86 88 91 88 82 88 116 148 159 142 120 103 99 94 92 95 101 106 109 101 94 86 80 70 58 49 46 46 45 31 20 21 22 25 35 43 44 47 53 59 61 60 58 67 70 74 79 83 87 90 92 97 100 103 105 104 103 102 103 100 102 104 105 109 114 121 127 132 134 137 142 146 149 151 152 153 152 152 155 158 159 156 154 151 148 145 142 139 134 128 124 117 114 111 110 109 108 107 105 102 101 100 100 100 101 101 102 
2 3 4 5 7 11 17 21 25 30 36 41 44 48 52 54 60 64 68 72 74 77 79 83 85 90 93 90 90 93 94 93 107 116 129 140 146 148 149 149 150 150 150 154 154 149 141 134 134 129 119 109 99 94 94 95 91 91 92 94 97 101 105 107 106 105 102 104 108 116 125 131 122 125 130 136 140 146 149 150 145 143 141 138 136 134 133 132 132 130 129 132 133 130 121 113 114 121 127 125 118 114 117 120 124 124 123 121 119 119 120 121 128 127 125 119 112 105 101 100 81 75 67 58 50 40 29 21 20 17 15 19 27 35 37 37 47 37 26 21 27 38 51 57 75 76 77 79 92 109 119 121 128 88 53 47 55 58 55 53 52 41 29 24 26 36 56 74 72 63 51 41 41 53 73 87 102 99 94 90 88 92 99 104 128 119 121 111 78 69 74 66 72 62 55 57 58 54 52 54 55 61 71 73 60 44 42 49 75 72 60 41 23 20 31 45 45 41 38 42 49 54 51 48 50 61 75 80 75 66 61 59 57 60 66 71 72 66 59 52 62 33 71 16 26 156 190 44 7 4 54 43 33 71 42 53 6 63 72 74 44 54 45 51 82 90 70 37 27 37 52 68 62 24 41 78 68 64 101 131 145 149 144 133 129 141 157 166 156 152 136 107 80 68 73 81 86 68 62 89 131 152 137 114 91 86 80 78 83 91 100 105 94 90 89 92 87 72 57 48 46 48 39 33 38 39 41 51 50 47 45 49 54 57 54 51 54 59 67 75 81 85 87 88 95 98 100 101 101 102 104 106 105 106 107 108 110 115 121 126 132 134 137 142 146 149 152 153 154 153 153 156 160 161 158 155 151 149 145 142 139 134 128 124 118 115 112 110 110 109 107 106 101 101 100 99 99 101 101 102 
2 2 2 4 7 12 16 19 23 27 32 36 39 42 44 47 55 59 64 68 70 73 75 77 81 85 89 89 87 89 95 100 107 118 135 147 151 151 149 149 141 140 139 140 141 141 139 137 132 129 124 113 102 94 90 88 89 92 95 99 102 103 104 103 102 99 99 100 108 114 120 123 115 116 119 125 132 135 134 131 122 130 133 131 133 140 142 141 141 139 135 130 124 118 113 110 111 111 111 108 102 99 100 102 114 113 110 107 105 105 107 110 114 105 96 93 93 90 84 77 62 53 46 43 39 36 36 38 37 40 42 40 41 49 54 56 57 52 44 38 36 36 37 37 50 40 38 54 84 111 123 124 134 132 118 93 75 72 76 79 80 74 65 54 47 47 53 60 69 71 69 61 53 52 59 67 83 83 86 91 88 81 76 76 100 111 123 121 108 87 72 65 67 73 79 76 67 58 55 56 61 65 68 68 65 64 68 73 75 76 77 73 58 42 34 34 39 41 39 36 42 54 60 60 62 66 70 73 74 76 78 80 81 73 62 59 71 83 80 68 74 62 53 52 50 44 39 40 33 33 45 53 44 42 50 53 54 62 79 86 63 32 27 42 83 75 59 43 38 42 46 47 49 58 43 41 69 73 65 81 118 130 138 137 137 147 160 166 168 164 146 122 96 64 52 63 83 72 60 68 103 135 137 121 91 85 76 73 82 94 96 92 84 87 93 99 93 76 60 52 51 52 52 54 59 66 75 81 72 67 60 54 51 49 47 46 47 54 63 72 77 81 83 85 84 92 98 99 102 108 110 107 104 106 109 111 112 114 117 120 128 131 136 141 144 147 150 153 153 155 157 158 159 159 158 157 152 149 145 141 138 133 128 124 121 118 115 113 112 111 109 107 106 105 104 103 103 103 103 103 
2 2 2 3 6 10 14 16 19 23 28 33 37 42 46 49 53 57 62 66 68 70 73 75 76 79 83 84 86 90 97 103 115 123 135 143 144 142 142 141 137 135 134 135 138 140 141 141 139 137 133 125 116 109 106 105 103 104 105 106 106 105 104 103 105 104 102 103 107 109 112 112 106 106 108 111 114 115 113 111 115 123 130 131 135 142 146 145 138 135 129 121 112 104 97 94 88 85 79 72 66 64 65 68 68 67 63 57 54 54 56 60 62 61 61 65 71 73 70 66 65 56 49 46 46 47 51 57 58 62 66 64 68 73 79 79 67 63 62 62 63 54 42 30 26 25 27 38 58 81 100 110 105 122 133 128 115 105 100 97 94 97 99 96 86 74 61 54 66 72 79 82 78 73 68 66 71 75 84 91 88 75 63 57 75 87 102 109 104 91 79 73 65 72 80 82 77 69 61 57 57 62 66 69 69 67 66 66 60 62 69 76 73 59 45 38 36 37 36 34 40 52 60 61 70 69 66 67 69 76 81 84 78 78 75 73 79 89 94 91 80 71 66 69 70 61 51 45 31 29 41 53 52 56 64 64 58 55 63 72 61 36 26 30 60 69 60 35 26 37 43 37 39 53 45 50 77 74 55 61 92 110 128 135 139 147 157 162 165 172 167 151 122 78 47 43 81 73 60 60 82 110 120 114 104 96 83 75 79 88 91 89 90 93 96 93 79 61 51 50 57 60 66 72 79 85 91 95 83 80 75 71 65 58 50 45 47 50 56 64 71 77 80 82 87 94 100 100 102 107 108 106 104 107 111 113 114 116 119 121 129 132 136 140 142 145 149 152 153 154 156 158 159 159 158 157 154 151 147 144 140 136 131 127 120 117 114 112 112 111 109 108 106 106 105 105 104 104 104 104 
3 3 3 4 6 9 12 13 16 20 25 30 34 39 44 47 50 53 56 60 62 64 67 69 71 75 79 82 88 94 105 113 127 129 133 135 133 132 132 131 130 129 129 131 137 142 145 146 145 145 143 138 131 128 125 125 124 124 124 121 116 110 103 100 106 105 103 103 104 105 104 103 97 98 99 99 98 97 99 99 115 125 135 139 140 139 135 129 124 122 117 111 104 97 91 88 78 70 59 48 40 38 36 36 40 40 39 35 31 29 29 30 34 35 38 42 48 54 59 60 67 61 56 54 52 51 54 60 65 72 75 76 79 87 92 93 74 64 52 50 54 54 47 39 23 28 36 43 54 72 94 109 102 108 119 136 148 144 119 94 91 94 99 104 107 106 102 98 86 85 84 84 83 80 74 69 81 82 85 88 83 70 59 55 66 73 82 90 91 87 80 76 63 65 69 74 77 74 66 61 63 65 68 69 68 62 55 49 46 44 47 59 65 57 43 33 49 49 46 44 45 52 58 59 67 64 62 62 66 71 76 79 86 93 95 88 83 87 96 103 91 83 80 85 88 82 70 61 42 33 38 49 56 68 81 83 63 51 47 60 63 48 30 23 38 65 64 30 13 30 38 29 34 45 43 53 79 76 56 54 73 93 114 124 130 140 152 161 162 176 181 175 153 105 58 39 67 67 62 57 67 90 111 120 123 116 101 88 84 86 85 81 94 97 98 88 67 46 40 45 56 61 69 79 86 90 91 91 100 100 100 98 93 83 72 64 57 55 56 60 71 79 84 85 91 96 102 102 103 105 105 103 105 108 113 116 117 118 120 122 131 133 136 138 140 143 147 150 153 154 156 158 159 158 158 157 154 152 148 144 141 136 131 127 119 116 113 112 112 112 111 109 108 108 107 107 107 106 106 106 
5 5 5 5 6 8 10 11 18 20 24 26 29 32 36 40 44 46 49 51 53 55 58 61 68 71 76 82 90 103 116 125 131 130 128 126 124 124 125 125 126 127 130 136 143 148 149 149 148 149 149 146 142 138 136 136 139 141 141 140 132 120 108 101 103 101 98 97 97 98 98 97 90 91 90 87 86 89 97 102 114 123 135 140 138 129 119 112 104 103 103 102 100 99 97 95 88 79 70 62 59 55 50 46 44 45 44 41 34 28 25 23 38 37 34 31 31 37 47 56 56 54 54 55 52 48 48 50 61 65 69 69 75 84 93 94 83 68 53 44 47 50 51 48 38 43 50 57 65 76 91 101 112 107 109 124 143 144 122 100 86 85 85 89 97 104 106 106 108 100 92 91 93 93 88 82 90 91 96 100 96 85 73 69 73 69 66 67 72 78 82 84 83 76 69 69 72 74 67 61 68 65 62 62 61 59 51 44 51 40 30 32 36 34 29 27 50 51 50 48 48 50 53 55 47 52 57 61 62 65 68 70 91 97 99 91 82 84 97 109 106 97 91 93 98 97 90 82 61 45 41 44 48 63 84 91 66 51 44 55 67 61 45 31 35 62 67 36 15 22 33 31 35 38 34 43 69 75 66 66 67 78 91 98 103 116 136 151 157 170 175 176 171 139 93 68 68 78 82 76 73 86 109 125 135 132 123 112 103 96 85 75 88 92 95 90 72 54 45 45 55 59 67 74 81 83 82 80 98 100 104 107 106 100 92 85 74 68 63 66 77 86 92 94 93 97 102 104 104 103 102 101 105 109 114 117 119 120 122 123 133 134 137 138 139 142 146 149 152 154 156 157 158 158 157 157 153 150 146 142 139 134 129 125 119 116 114 113 113 114 112 111 110 110 110 110 110 109 108 108 
7 7 6 7 7 8 9 10 15 17 20 22 24 27 32 35 41 42 46 48 48 50 54 57 60 63 69 78 89 102 117 125 126 123 120 117 118 119 121 123 129 132 139 147 153 155 152 149 146 148 149 149 145 142 140 139 141 146 151 152 146 134 119 109 102 98 93 89 88 88 88 87 83 82 81 79 80 88 100 109 110 113 117 119 118 114 112 112 96 97 99 101 103 104 104 104 99 96 94 93 91 87 79 74 83 81 77 71 66 63 63 65 51 50 48 43 42 45 55 62 71 68 69 70 67 65 68 74 65 69 70 70 75 87 97 101 113 111 109 107 103 95 85 78 63 62 63 69 76 80 80 77 95 107 122 130 128 123 124 129 128 127 127 127 123 112 97 87 88 86 86 90 93 88 76 65 68 18 39 101 104 96 87 85 77 65 50 45 52 68 84 93 109 99 88 83 82 80 71 65 67 59 51 49 52 55 54 52 62 48 35 28 24 23 26 29 33 35 39 41 41 41 43 45 32 42 53 58 59 63 71 80 87 90 91 90 89 94 107 119 119 114 109 109 113 111 101 91 72 58 51 47 42 49 68 76 63 54 50 58 67 69 59 49 47 61 67 51 28 18 26 37 36 33 28 34 56 68 69 69 54 60 68 74 80 93 113 129 149 160 160 165 178 169 135 111 101 115 123 113 99 96 107 119 130 134 135 132 127 116 96 79 73 73 80 89 90 79 65 57 54 55 58 65 74 80 83 83 82 84 88 92 96 96 94 91 86 78 70 70 77 87 93 95 91 94 99 103 103 100 98 98 104 108 113 117 119 120 123 125 133 135 138 139 140 142 145 148 152 153 155 157 158 158 157 156 153 150 146 143 139 135 129 126 120 118 115 115 115 115 114 113 112 113 114 114 113 112 111 110 
6 6 5 6 7 8 8 8 8 10 14 17 20 25 31 36 41 41 44 45 45 47 50 54 53 56 62 72 85 99 112 118 119 116 114 114 117 122 126 128 137 141 149 157 161 158 152 146 142 145 149 150 147 144 142 141 140 145 153 156 152 141 127 119 104 100 94 89 86 83 81 79 85 84 83 83 87 95 105 112 114 105 95 88 85 87 97 107 108 109 110 111 112 112 112 112 107 105 103 99 93 83 74 67 53 51 49 49 52 62 75 84 75 80 85 88 88 87 89 90 92 86 78 73 67 65 72 81 76 79 79 78 81 92 101 105 114 117 121 125 124 120 114 109 97 94 92 95 99 97 90 83 79 90 108 122 125 123 125 130 144 145 147 147 142 132 121 113 91 88 84 79 73 64 54 46 44 33 71 54 63 72 82 90 80 66 47 36 39 52 68 78 90 89 90 91 91 87 79 74 73 63 50 44 44 46 46 46 58 51 44 39 32 29 31 36 35 35 37 38 35 32 33 39 43 49 56 59 61 70 84 96 94 93 95 100 103 106 112 120 128 130 133 133 134 126 112 97 82 70 67 62 50 49 57 59 61 63 62 61 63 64 64 61 57 56 63 64 47 22 22 36 33 29 28 34 45 55 58 55 47 50 58 69 78 86 98 109 135 149 150 153 171 177 159 143 133 144 152 148 134 125 125 128 124 128 132 137 140 135 116 98 67 59 61 79 99 101 86 73 55 51 49 53 64 73 80 83 82 81 82 85 90 95 98 99 88 81 72 69 73 78 83 85 87 89 95 101 101 97 95 97 104 107 111 114 116 119 122 125 132 135 139 142 143 144 146 148 152 153 155 157 157 157 156 156 156 153 149 145 142 137 132 128 123 121 118 117 117 117 116 114 114 115 116 117 117 115 114 112 
2 3 3 4 5 6 6 6 5 8 11 13 18 22 28 33 38 38 41 41 41 42 47 50 54 56 63 74 88 102 113 117 120 118 118 121 127 134 138 140 147 150 155 160 161 156 148 142 140 144 150 153 152 150 148 148 147 150 153 152 146 136 126 119 109 106 104 101 98 93 87 83 90 89 89 91 94 98 100 102 104 90 77 67 64 65 78 91 108 109 111 112 113 114 114 114 105 103 97 87 77 68 62 59 51 54 60 67 75 86 98 105 95 101 107 110 108 102 95 91 75 71 67 61 54 50 56 64 82 86 87 84 85 91 95 96 84 77 72 71 79 90 98 101 106 110 114 114 111 109 110 112 92 82 79 91 107 113 112 110 110 110 109 109 110 114 119 124 121 118 109 95 79 66 6 30 41 31 23 22 27 39 55 70 73 65 53 44 41 45 49 53 58 64 71 75 73 72 72 72 70 63 52 45 42 41 39 38 49 46 46 47 45 41 40 42 51 47 46 45 42 39 45 55 72 72 72 71 74 79 85 90 99 100 107 118 121 117 116 119 129 138 145 146 145 140 129 116 102 86 80 76 66 64 69 67 66 75 75 66 57 59 63 64 58 54 64 76 65 37 25 30 33 28 31 36 38 45 49 45 48 47 53 67 77 82 87 93 119 137 138 131 144 160 164 163 151 155 160 163 161 157 154 152 135 130 127 130 140 145 135 120 95 75 64 79 105 117 109 99 84 75 64 60 65 71 75 77 85 82 80 82 88 95 100 103 88 83 76 70 68 70 74 76 82 83 90 99 99 94 93 96 103 105 107 109 112 116 122 126 131 135 141 144 146 147 147 148 151 153 155 156 157 157 156 156 156 153 149 146 142 138 132 129 127 124 121 119 119 118 117 115 116 117 119 120 119 117 115 114 
1 1 1 2 3 4 4 4 9 10 11 12 14 18 23 27 33 35 36 36 36 37 42 45 60 63 69 82 95 109 118 122 125 125 124 129 138 146 150 151 153 155 157 159 158 153 145 139 140 145 152 156 157 156 155 154 159 158 154 148 139 128 118 112 111 112 114 115 113 107 99 92 88 88 89 91 94 92 87 82 77 68 62 60 60 62 71 83 92 94 97 101 105 107 109 110 97 94 88 80 73 71 74 79 78 87 97 106 109 107 104 103 96 95 95 91 83 73 63 58 64 68 74 79 78 74 77 83 84 89 92 88 87 88 88 85 91 77 64 61 72 84 90 91 84 96 107 107 99 99 112 126 114 95 77 71 74 82 95 108 106 106 104 99 93 91 94 98 103 111 117 111 94 74 44 55 44 39 36 36 34 30 31 34 55 55 54 53 51 49 48 48 53 58 60 57 51 49 54 59 52 50 47 45 46 46 45 45 49 46 46 51 53 51 49 50 51 48 46 49 50 55 69 85 96 91 86 85 86 84 78 71 89 95 112 128 135 129 126 127 127 137 145 145 146 148 145 138 124 101 85 82 77 82 89 87 75 85 85 70 56 55 60 62 57 55 67 82 77 51 30 25 35 29 33 36 34 41 49 47 51 45 46 57 67 71 74 79 106 129 127 110 115 139 160 175 165 161 161 167 172 172 169 165 153 142 128 126 138 150 146 137 140 111 87 93 116 134 132 127 129 117 99 86 82 81 80 79 74 72 69 72 77 85 92 96 91 87 81 73 69 68 70 73 77 79 86 97 98 93 91 95 103 104 105 107 110 114 121 126 129 134 141 146 148 148 148 149 151 153 154 156 157 157 156 155 154 151 147 143 140 136 130 126 129 126 123 121 120 119 117 115 117 118 120 121 120 119 116 115 
1 1 2 2 2 3 4 4 9 11 13 14 14 15 17 19 24 28 33 35 35 36 40 43 58 67 80 92 102 109 115 119 126 126 130 139 150 157 156 152 155 153 152 154 158 158 153 147 149 151 154 154 153 156 163 169 162 158 151 138 126 122 123 127 124 127 130 131 125 113 97 86 79 81 85 88 88 81 72 64 59 52 52 62 76 84 87 88 95 87 78 79 88 98 102 103 87 89 92 93 95 100 107 112 123 113 105 104 102 95 89 86 82 83 79 69 64 68 78 83 93 98 102 103 98 95 95 96 104 103 100 94 87 86 90 94 92 92 88 82 83 90 96 97 95 99 103 105 106 107 111 115 129 122 104 85 77 77 74 68 66 76 85 88 83 80 83 87 93 97 99 30 84 77 75 76 70 66 61 60 60 55 46 39 50 54 59 59 52 45 40 38 46 44 43 47 51 52 48 43 43 40 37 41 47 51 50 47 58 51 41 34 32 37 42 46 51 54 58 64 70 78 86 92 90 91 95 100 103 100 93 87 93 104 116 125 129 131 135 139 140 144 149 154 156 155 152 150 138 116 91 85 93 100 96 88 82 86 87 77 65 60 66 73 59 58 64 75 79 66 46 33 36 38 38 34 30 35 49 62 55 43 41 50 57 57 60 68 92 104 112 109 110 124 141 152 152 148 147 153 163 173 175 176 170 154 141 137 137 137 140 145 145 142 136 134 141 149 149 143 143 138 135 135 134 127 112 100 90 70 57 55 59 61 71 83 82 82 82 83 83 84 84 84 87 88 89 90 95 101 98 92 106 105 106 109 112 116 116 116 121 129 138 144 145 146 148 150 153 154 155 157 157 156 155 155 151 148 145 143 141 138 133 130 126 127 127 126 125 122 120 118 117 118 120 122 122 121 119 118 
1 1 2 2 2 3 4 4 8 10 13 13 14 14 17 19 21 25 30 33 34 36 41 45 58 67 80 91 101 107 114 120 124 126 134 143 153 156 155 153 144 145 148 153 156 157 154 151 153 153 154 157 161 165 167 168 165 158 147 136 128 130 135 140 140 143 147 146 137 119 97 84 67 70 76 81 83 79 73 68 59 61 70 86 95 96 95 95 81 79 80 85 93 96 95 94 86 85 86 92 100 108 113 115 113 106 99 95 89 81 75 73 79 80 79 81 90 104 111 114 110 116 121 118 111 106 107 111 111 105 96 89 85 85 87 88 108 107 100 89 86 92 99 103 103 109 114 115 111 105 100 98 121 122 116 107 101 95 84 74 63 61 58 59 65 75 86 94 96 92 85 0 75 75 77 80 82 77 75 75 78 77 73 69 65 65 64 58 52 44 39 37 40 39 42 48 55 59 58 55 43 39 38 42 48 54 56 55 56 54 50 49 51 55 59 61 67 68 69 70 72 76 81 84 91 93 99 105 112 113 110 106 112 118 127 133 135 136 138 140 142 146 152 157 158 156 152 149 144 127 107 102 108 111 105 96 84 90 93 89 81 74 78 82 76 70 71 77 80 73 63 57 58 60 58 50 44 44 54 63 69 60 52 42 32 27 43 63 79 97 111 113 113 121 133 141 136 130 129 140 159 174 180 179 180 163 145 136 132 129 131 136 145 142 138 137 143 150 148 141 136 135 136 141 146 147 141 136 120 104 84 72 67 67 72 80 77 76 76 78 82 87 91 93 86 89 90 90 95 100 100 95 101 103 106 111 115 117 117 115 120 125 132 138 143 145 147 149 151 153 154 156 156 156 155 154 151 148 145 143 141 137 133 130 128 128 128 127 125 122 119 118 118 119 121 123 123 122 120 119 
1 1 1 2 2 3 4 4 7 9 11 12 12 13 16 18 18 22 27 30 31 35 41 46 58 67 80 90 99 105 112 119 118 126 135 143 148 149 147 146 141 145 153 158 160 161 161 161 158 158 159 164 171 173 171 167 165 156 146 138 137 144 152 157 154 157 160 157 144 121 95 79 70 73 79 85 88 87 84 82 77 80 89 97 98 91 86 85 79 84 93 99 102 99 95 91 82 83 88 99 113 120 117 112 102 99 97 96 90 83 80 82 93 97 103 113 125 132 124 112 95 108 123 129 124 116 111 110 116 107 95 89 89 90 90 88 103 108 108 101 96 100 105 108 105 112 120 123 119 110 100 94 89 96 105 111 116 117 111 103 80 69 59 59 69 83 94 99 27 95 84 78 76 77 78 79 83 78 73 70 70 69 65 62 65 63 61 61 62 64 64 64 56 55 56 59 63 65 60 57 47 45 44 47 54 62 66 67 72 74 79 83 86 87 87 87 81 82 82 81 81 82 85 88 99 102 107 114 122 127 129 128 129 130 133 135 137 138 138 139 144 148 154 159 161 159 155 152 151 139 127 124 126 125 117 109 94 100 105 105 101 97 96 97 100 92 86 87 85 83 81 84 73 73 69 61 51 48 50 54 50 62 74 70 46 24 23 36 65 84 106 115 117 121 128 133 132 123 117 6 30 158 165 165 173 161 147 138 131 125 124 126 132 134 134 135 140 146 144 138 131 128 125 126 131 137 141 143 141 135 122 106 97 95 93 91 80 78 75 76 81 84 86 87 84 87 89 88 91 97 99 97 97 101 107 113 116 117 117 115 118 120 125 133 140 146 148 148 149 152 153 155 155 154 153 153 151 148 145 143 141 137 133 130 130 129 129 127 125 122 120 118 118 120 121 123 123 123 122 121 
2 2 1 2 2 3 3 3 5 8 10 11 11 12 14 16 17 21 24 26 27 32 38 43 60 70 82 91 97 103 111 117 114 123 131 135 135 134 136 139 142 150 160 164 163 162 163 165 164 166 168 172 175 174 169 165 161 155 150 149 155 162 167 170 166 167 168 163 150 128 105 89 93 93 95 97 98 97 95 92 90 86 84 86 84 77 74 75 98 101 105 103 97 89 83 80 84 90 101 116 125 123 114 105 100 103 109 114 110 105 106 110 124 124 125 128 133 134 125 113 117 122 131 137 137 132 127 123 107 101 94 88 87 86 85 83 84 95 104 102 95 89 88 87 81 87 95 102 103 102 96 94 74 78 84 91 98 105 108 109 107 101 94 95 99 102 98 95 99 75 98 100 99 99 97 96 95 90 83 78 75 73 70 68 75 73 71 73 79 84 86 85 76 75 75 76 77 75 70 66 63 60 58 59 65 71 76 76 88 93 98 102 103 101 98 96 80 83 85 88 91 94 99 102 114 113 113 116 121 127 132 135 137 134 133 133 135 137 138 137 142 147 153 159 163 163 161 159 157 150 143 139 138 134 128 123 112 115 119 121 120 118 115 113 117 112 107 104 99 92 92 95 92 92 88 79 69 62 59 59 62 69 78 77 60 39 33 36 53 68 87 102 112 120 125 128 131 122 112 44 118 131 141 146 149 147 144 140 133 126 121 119 114 124 132 134 135 137 139 138 133 126 115 106 101 102 106 109 118 127 130 124 121 121 115 105 91 88 85 83 82 77 70 65 76 80 80 81 84 92 98 98 99 103 108 112 114 115 115 116 118 118 122 130 140 147 149 148 149 151 152 153 154 153 152 151 151 148 145 143 141 137 133 130 129 128 128 126 125 123 122 121 119 120 122 123 124 124 123 123 
2 2 2 2 2 2 3 3 4 6 8 9 9 10 12 15 18 20 22 23 23 27 33 39 61 72 86 95 99 104 111 117 119 125 129 128 124 124 130 136 148 155 163 165 160 158 159 161 169 174 177 177 172 167 163 162 156 156 159 165 172 176 175 173 178 177 175 170 161 146 131 121 121 116 110 106 104 101 96 92 84 76 72 76 81 81 78 77 104 103 98 89 79 72 72 74 101 109 118 124 124 120 113 108 109 115 123 129 126 121 121 127 140 139 130 123 124 132 139 141 156 147 137 131 131 131 129 126 116 116 115 110 102 97 95 94 96 106 113 106 95 85 78 74 72 72 75 80 85 91 95 97 86 83 79 75 71 71 73 76 87 90 92 93 89 81 7 21 65 73 83 89 89 91 94 98 94 93 89 88 88 90 90 91 100 97 91 90 88 87 82 78 84 85 88 92 95 96 95 94 85 82 78 76 77 80 83 85 88 92 97 98 96 92 90 89 84 88 95 101 106 113 120 124 127 124 121 119 121 126 134 139 148 144 139 137 137 138 139 140 141 145 152 158 164 167 168 168 164 159 154 151 148 146 142 139 133 132 133 132 133 131 130 128 122 123 125 126 120 108 102 102 101 98 93 84 73 63 54 50 61 64 73 88 91 77 55 39 49 50 59 74 90 102 108 110 117 114 108 102 101 110 125 17 133 135 135 129 121 115 111 110 99 116 129 130 124 123 127 131 127 123 115 106 97 90 84 81 80 91 99 101 106 112 110 100 93 92 93 93 90 81 65 54 61 63 66 68 77 91 100 102 102 105 108 110 110 111 114 117 119 120 123 131 141 148 151 150 149 150 152 153 153 153 152 151 151 148 145 143 141 137 133 130 127 126 126 125 124 124 124 124 119 120 121 122 123 124 124 124 
3 3 2 2 2 2 2 2 2 4 7 8 8 9 11 13 18 19 21 19 19 23 30 37 58 72 89 101 105 109 115 121 129 131 130 126 123 125 134 141 158 163 168 168 163 160 162 165 173 176 178 174 166 159 157 158 156 160 167 175 180 179 175 171 179 177 172 168 164 158 151 146 142 131 119 113 112 109 102 96 88 80 78 85 92 89 80 75 82 82 80 79 79 84 93 101 126 127 126 122 119 118 120 123 123 124 127 129 124 117 117 122 131 139 141 137 134 137 141 143 150 145 139 137 136 130 116 106 119 123 124 119 108 100 95 95 91 97 96 88 79 77 77 76 72 68 62 61 65 73 81 85 81 78 76 75 72 68 68 72 69 74 49 63 77 70 7 20 65 71 76 77 74 75 82 89 93 93 93 94 94 95 95 94 100 99 99 100 100 99 96 95 99 101 105 109 112 113 113 113 107 105 101 97 96 96 97 98 97 101 105 105 103 102 104 105 112 116 123 129 134 140 146 150 146 144 141 139 140 145 153 159 166 163 157 151 148 147 148 150 148 150 154 159 164 168 171 173 168 165 162 160 160 159 156 154 150 149 148 145 143 142 142 142 128 131 138 144 140 128 118 115 107 103 95 86 74 61 48 40 40 45 61 88 112 112 89 67 61 53 51 58 69 77 82 84 104 107 107 98 88 88 30 158 120 123 49 63 97 93 93 93 82 98 111 110 105 103 104 106 103 105 108 110 107 98 86 78 70 69 66 66 73 83 86 83 82 83 88 95 98 92 80 68 52 52 53 59 72 90 101 102 102 105 108 109 108 110 115 119 121 123 128 135 143 148 150 150 149 150 152 153 154 153 152 151 151 148 145 143 141 137 133 130 126 125 124 123 123 123 123 123 119 119 120 121 122 123 124 124 
3 3 3 3 2 2 2 2 2 3 6 6 7 7 10 13 15 16 17 16 17 22 30 37 52 69 91 106 112 116 123 129 135 134 132 129 129 133 141 149 165 168 170 170 168 168 171 174 176 174 171 166 160 155 153 152 161 165 172 176 176 174 171 170 171 168 163 160 159 158 157 156 151 135 119 114 119 122 115 107 100 96 93 95 93 83 72 67 67 72 79 89 101 113 125 132 137 132 127 123 124 128 132 135 132 127 123 120 115 111 115 123 130 142 152 152 145 138 132 126 136 140 146 147 140 125 109 98 95 96 95 93 87 81 77 74 66 69 68 63 64 68 73 74 69 61 53 49 52 58 63 66 73 74 79 87 89 88 92 99 98 101 11 11 107 106 106 107 110 110 109 106 102 100 103 106 116 118 120 119 116 112 108 105 100 104 109 115 118 122 127 129 124 126 128 130 129 127 125 125 127 126 123 121 118 117 118 119 119 124 129 130 128 129 134 138 144 148 151 154 156 159 162 165 161 163 165 166 166 167 171 175 174 173 170 165 159 157 160 164 162 162 161 162 164 167 171 173 167 165 164 166 169 169 165 161 158 159 159 156 152 150 150 152 145 144 148 153 151 142 135 133 136 130 122 113 102 90 75 66 65 56 50 54 73 98 118 127 100 90 80 74 69 62 62 65 89 95 99 93 78 68 67 69 88 97 11 11 81 76 75 73 68 76 84 88 91 93 90 85 86 85 86 91 97 98 92 87 81 66 54 53 58 63 66 68 69 70 73 83 94 98 94 88 61 58 53 55 70 87 94 93 95 101 107 110 110 112 116 121 121 126 133 139 143 146 148 149 150 151 153 154 154 154 153 152 151 148 145 143 141 137 133 130 128 127 125 122 120 120 119 120 118 118 118 119 121 122 124 124 
3 3 3 3 2 2 2 2 2 3 5 6 6 7 9 11 12 14 15 14 16 22 31 40 47 66 91 108 116 121 128 135 135 134 132 131 134 140 148 154 162 164 164 166 167 169 174 175 177 170 163 158 157 156 152 149 166 169 173 172 169 167 168 170 167 163 159 157 158 159 159 159 145 128 111 109 120 127 122 113 104 100 96 93 85 74 68 67 73 80 92 105 118 127 132 133 134 129 126 129 136 141 140 137 135 126 117 113 111 114 123 134 149 150 149 141 133 131 131 129 133 134 130 119 103 91 87 87 91 88 85 86 88 87 84 80 80 84 85 84 85 90 91 88 89 82 74 72 74 79 83 84 88 87 91 98 99 97 101 109 115 116 119 122 124 125 125 125 121 121 121 122 124 123 120 118 128 132 136 136 133 127 121 117 124 127 130 130 130 132 137 141 137 140 142 144 142 141 140 139 140 140 140 138 136 136 137 138 133 139 144 145 144 145 150 155 157 159 161 162 161 161 162 164 162 167 173 176 175 173 173 174 171 173 172 167 162 162 167 173 175 172 168 165 164 166 168 170 163 162 163 168 173 173 167 162 160 164 166 164 159 155 156 158 165 159 156 156 155 149 145 145 147 141 133 127 119 108 94 85 82 77 66 54 55 76 108 131 138 129 117 102 81 62 56 60 68 77 85 84 71 58 47 43 52 70 86 86 78 18 39 61 63 66 69 78 91 99 93 82 89 79 69 69 78 88 94 95 87 67 52 55 59 58 56 57 64 62 62 70 84 95 98 97 76 68 57 56 68 83 85 80 89 97 107 112 113 114 118 122 120 127 136 142 143 144 146 148 150 152 153 155 155 154 153 153 151 148 145 143 141 137 133 130 131 129 125 122 119 117 116 116 117 117 118 118 120 122 123 124 
3 3 3 3 3 3 2 2 2 2 3 4 6 7 8 8 14 12 12 16 23 27 35 45 49 68 92 109 122 132 139 140 141 133 129 132 136 141 151 162 166 165 165 163 163 165 170 174 168 166 162 155 150 148 151 154 165 173 177 172 168 168 166 161 160 156 154 159 166 163 150 136 122 109 104 112 116 112 111 116 108 102 94 86 75 69 71 77 97 104 113 124 130 132 131 130 134 131 132 138 140 138 136 137 127 127 127 127 130 136 143 149 151 147 143 141 141 139 134 130 128 116 100 89 84 83 83 82 89 91 96 101 104 106 107 107 116 121 124 119 112 110 115 123 120 116 112 113 116 120 120 119 123 123 124 125 126 128 130 131 136 136 135 135 134 134 133 133 136 136 136 136 137 139 140 140 146 147 148 150 151 150 147 144 149 149 150 150 151 151 151 151 152 153 155 156 157 157 158 158 155 155 154 153 151 150 149 150 153 153 156 159 161 162 162 162 169 169 168 167 168 170 171 173 173 175 178 178 176 175 174 175 176 177 176 173 169 167 170 173 174 174 173 172 171 169 167 166 163 165 168 171 173 173 173 172 170 171 171 171 168 164 160 158 166 167 167 165 161 158 157 158 159 155 150 144 137 128 119 114 108 100 85 69 62 69 88 105 122 127 132 129 117 100 85 76 79 78 75 75 78 72 53 34 38 40 48 58 64 33 71 51 47 53 58 62 73 84 84 78 61 63 62 56 50 53 65 75 83 78 71 65 63 61 59 57 55 56 59 61 66 73 80 85 87 83 78 75 75 77 79 80 84 101 112 120 129 127 124 132 129 133 139 144 146 147 149 150 150 150 152 153 153 153 153 153 149 147 145 144 141 137 131 127 125 124 123 121 120 119 119 119 117 118 120 121 122 123 123 123 
3 3 3 3 3 3 2 2 2 2 3 4 6 7 8 8 15 9 9 16 23 27 33 40 51 70 95 114 129 139 143 142 142 133 128 132 139 146 156 165 171 170 168 165 164 164 167 171 164 161 154 148 144 145 150 154 162 169 170 165 160 161 160 157 161 158 158 161 162 154 138 124 112 104 103 111 116 112 114 120 117 111 100 89 78 74 82 93 114 118 124 129 133 135 136 135 137 132 130 133 132 128 125 125 137 138 139 139 139 142 147 151 141 25 21 137 136 135 133 131 123 116 107 101 100 103 108 110 112 114 119 125 129 132 134 134 140 144 148 145 139 136 138 142 143 141 139 141 145 148 149 148 147 147 147 147 148 149 150 150 150 149 149 148 147 146 146 145 146 146 148 150 152 155 158 160 160 161 162 165 166 165 162 159 162 162 161 161 161 163 164 165 163 163 165 166 167 167 167 167 164 164 163 163 162 161 160 160 160 162 164 166 168 168 169 169 175 174 173 173 173 174 176 177 179 181 183 182 179 176 175 175 177 178 178 176 172 170 172 174 174 174 174 174 174 172 171 170 170 170 170 170 171 172 172 173 172 174 176 177 175 170 164 161 169 170 171 169 165 161 160 159 162 160 156 152 147 141 134 128 114 111 103 94 86 84 86 90 90 100 116 131 136 130 116 104 107 100 90 83 84 82 71 58 33 30 27 28 33 39 43 46 43 48 53 56 64 74 77 73 68 68 66 62 57 54 52 53 53 53 54 60 66 69 67 64 59 58 57 57 59 64 70 74 82 80 78 76 76 77 77 77 83 101 113 123 134 133 131 138 137 140 145 148 150 150 152 153 150 151 152 153 153 153 153 152 149 147 145 143 141 136 130 126 125 124 122 121 119 119 118 118 117 118 120 121 123 123 124 124 
3 3 3 3 3 3 3 3 2 2 4 5 6 7 8 8 13 8 8 15 22 26 30 33 49 69 97 119 134 144 145 141 139 130 124 129 141 152 160 167 176 173 169 165 163 163 164 165 159 152 144 137 137 142 150 155 164 166 165 158 154 155 155 154 156 156 157 157 152 140 124 111 105 102 106 114 118 116 121 129 129 119 105 94 86 88 100 115 125 125 126 128 131 134 136 137 144 138 134 134 132 128 125 126 140 142 143 143 142 142 143 144 144 7 4 139 134 130 128 25 21 128 127 27 128 132 140 145 140 143 146 151 154 157 158 158 161 163 166 165 162 158 156 155 158 157 159 162 165 167 168 167 164 164 163 163 163 163 164 164 164 164 164 165 165 165 166 166 165 165 167 169 172 175 177 179 174 174 175 178 180 180 177 174 174 173 172 171 172 173 175 176 173 174 175 176 177 177 177 177 175 175 175 174 173 172 172 172 172 172 173 175 177 178 178 178 183 181 180 179 178 179 180 181 186 187 188 186 183 179 177 177 179 180 181 180 177 175 175 176 175 175 176 177 177 176 176 175 178 176 173 171 170 171 172 174 172 175 179 181 179 173 167 163 172 174 175 174 170 165 163 162 159 157 155 153 151 148 143 140 131 127 122 120 118 111 101 94 79 78 82 96 113 127 132 133 118 107 90 79 80 86 86 81 43 38 30 24 21 23 25 27 24 31 38 43 51 60 68 70 72 71 70 71 71 67 59 54 38 37 40 51 65 74 75 71 65 62 59 56 56 59 62 64 68 70 73 77 79 81 82 82 84 101 112 122 135 136 133 141 145 147 150 151 152 152 152 153 149 150 151 152 152 152 151 151 148 146 143 142 139 135 129 125 124 123 122 120 119 118 118 118 118 119 120 122 123 124 124 124 
3 3 3 3 3 3 3 3 2 2 4 5 6 7 8 8 13 7 6 14 22 25 26 28 48 70 99 122 137 144 143 137 136 127 122 129 143 157 163 166 174 171 166 163 162 160 159 157 151 144 135 132 135 143 151 156 163 161 156 150 146 146 147 147 147 149 148 145 137 124 111 103 102 104 112 121 123 122 129 137 135 121 106 101 101 108 120 130 129 129 129 131 133 135 138 139 143 137 133 135 135 132 132 134 138 142 144 146 144 142 141 141 150 151 151 148 142 139 139 7 4 152 154 154 75 156 162 3 164 166 25 21 170 170 170 170 172 172 171 171 170 169 166 163 162 163 165 169 171 172 171 170 171 171 170 170 170 171 172 173 175 176 177 179 181 183 184 185 185 184 184 183 183 184 185 185 181 181 182 184 187 187 185 182 180 180 180 180 181 181 180 180 179 179 180 181 182 182 182 181 181 181 180 180 179 179 179 178 179 179 181 182 183 184 184 184 186 185 183 182 181 182 183 183 188 189 190 189 185 183 180 181 182 184 184 185 182 181 178 178 176 177 178 178 178 177 177 176 179 178 176 174 173 173 174 174 172 174 176 177 175 172 168 165 174 176 177 176 172 168 165 163 157 154 153 152 152 151 147 144 147 139 131 132 138 139 131 122 107 96 83 79 86 99 110 117 122 112 97 86 87 97 102 101 79 68 52 34 22 15 14 15 10 17 25 30 34 40 47 51 68 68 70 72 74 72 67 64 47 39 33 38 52 62 65 63 61 59 57 56 56 58 59 60 64 67 71 74 76 78 79 80 82 95 102 110 124 129 130 140 149 152 153 153 153 151 151 150 150 150 151 152 152 152 151 150 148 145 142 140 137 133 128 124 123 122 121 119 118 117 117 117 118 119 120 122 123 124 124 124 
4 4 3 3 3 3 3 3 3 3 4 5 7 8 8 8 12 7 7 14 21 23 25 28 52 77 106 126 137 141 139 134 135 131 129 135 149 161 165 164 168 165 160 160 158 157 154 151 141 135 130 132 140 149 155 157 157 153 146 142 137 135 134 135 138 137 133 126 116 108 101 96 104 110 119 124 126 127 134 143 135 120 107 109 120 129 135 139 139 140 142 143 143 143 143 142 137 132 129 132 134 133 134 136 142 146 151 153 152 150 149 149 147 150 155 156 157 158 163 167 167 170 172 172 168 168 172 176 180 181 7 4 182 182 182 182 185 182 178 177 178 178 177 175 172 175 177 180 178 178 175 175 178 179 178 180 180 183 184 185 186 187 187 188 189 190 190 191 193 192 190 188 187 186 186 186 184 184 184 186 188 189 187 185 182 184 186 188 188 186 183 182 183 183 184 185 185 185 184 184 184 184 184 184 183 183 183 183 183 183 185 186 186 186 186 186 187 185 184 182 181 182 183 183 185 187 189 188 186 183 184 183 185 184 185 185 185 183 182 180 178 178 179 178 177 176 175 174 176 177 178 179 178 177 176 175 175 174 173 172 171 170 170 170 173 175 176 175 172 168 166 165 163 161 159 158 157 156 153 151 153 142 133 135 145 152 149 142 138 134 127 118 108 100 97 95 116 111 102 93 89 92 93 90 100 86 63 41 26 19 17 17 12 15 19 21 19 18 20 23 48 54 62 65 64 59 55 52 53 43 35 36 43 49 47 43 45 44 43 45 49 51 52 51 65 67 68 67 64 63 64 65 73 81 83 89 107 119 127 141 151 154 158 159 156 153 151 151 150 151 152 152 152 151 150 150 148 145 142 138 135 131 127 123 123 122 120 118 117 116 116 116 117 118 119 121 122 123 123 123 
4 4 3 3 3 3 3 3 3 3 4 5 7 8 8 8 12 10 10 16 19 21 26 33 63 88 117 132 135 135 134 132 137 139 141 146 157 164 164 159 159 156 152 152 152 150 146 142 130 127 128 137 150 157 157 154 155 147 142 140 135 129 127 126 127 122 115 107 102 98 96 95 108 114 120 124 126 130 138 145 134 121 113 121 135 144 146 145 152 152 153 153 150 147 144 142 141 137 136 139 142 140 140 141 149 153 157 159 159 159 159 160 158 160 164 166 169 171 175 177 174 176 177 178 176 177 178 179 182 182 183 185 186 188 189 190 192 189 185 184 184 185 186 186 184 187 189 189 186 183 181 181 184 184 185 186 188 190 192 193 195 195 194 192 191 190 189 188 191 190 189 189 189 189 189 190 190 189 188 189 191 191 189 187 187 189 191 193 193 191 188 186 187 188 189 189 189 189 188 188 188 188 188 188 187 187 187 187 185 186 187 187 188 187 187 186 186 185 183 182 182 183 184 185 182 184 187 187 186 185 184 185 186 184 184 184 185 185 183 181 179 179 179 178 177 176 175 174 175 176 178 180 180 179 177 176 178 176 173 171 171 172 173 175 172 173 174 173 170 168 167 168 167 165 162 160 159 157 155 152 150 143 138 140 146 150 146 140 144 147 149 146 139 131 125 123 122 122 118 108 99 94 87 79 85 81 76 70 63 51 35 25 19 17 15 15 13 11 13 18 21 31 44 54 55 52 48 45 51 47 44 48 52 52 44 37 33 29 25 27 32 36 37 37 47 51 54 55 53 54 57 61 60 66 64 71 92 110 123 140 152 156 162 164 161 157 153 151 151 151 152 152 152 151 150 149 148 144 141 137 133 130 125 122 122 121 119 118 116 116 116 116 115 116 118 119 121 121 122 122 
4 4 3 3 3 3 3 3 3 3 4 5 7 8 8 8 12 12 14 17 18 20 29 39 72 98 125 133 129 125 128 129 136 143 150 154 159 162 158 150 146 143 139 139 140 137 131 125 118 120 128 144 160 165 157 149 146 139 135 135 131 123 116 115 108 104 98 96 97 99 101 101 112 117 123 125 129 136 144 149 135 127 125 134 145 150 151 153 157 157 157 155 152 149 146 143 150 148 148 153 156 154 153 155 158 160 163 164 164 165 168 170 177 176 175 176 177 178 177 176 178 178 178 180 183 185 185 185 181 182 182 184 185 187 189 190 191 191 191 190 190 190 190 191 191 194 196 194 190 187 187 187 189 189 189 189 190 192 193 194 196 196 195 194 192 191 191 190 191 191 191 191 191 193 194 195 196 194 193 193 194 194 192 190 194 193 193 192 192 191 191 191 190 191 191 192 192 191 190 190 189 189 189 189 189 189 190 190 189 189 190 190 190 189 188 188 187 186 185 184 184 185 187 188 182 185 187 188 186 185 185 185 187 184 182 182 184 185 183 182 177 178 178 179 179 178 177 177 178 178 178 179 179 178 178 177 176 175 174 173 172 173 174 175 172 172 172 170 168 168 170 172 167 165 161 159 158 157 154 152 152 148 144 143 143 142 138 134 138 137 136 136 139 143 146 148 140 146 146 138 130 122 114 106 80 83 90 99 102 90 67 49 40 29 19 15 13 11 15 20 14 18 24 34 43 48 49 48 42 43 46 53 58 59 54 48 36 27 18 13 16 21 24 25 32 39 46 50 51 52 55 59 56 60 57 63 85 103 118 135 148 154 161 165 163 158 153 150 151 152 152 152 152 151 150 149 148 144 140 136 132 128 124 121 121 120 119 117 116 115 115 115 114 115 116 118 119 120 120 120 
3 3 3 3 3 3 3 3 3 3 4 5 7 8 9 8 12 13 16 18 17 19 31 44 75 102 127 132 122 118 121 125 132 143 153 156 158 158 151 141 136 132 128 127 128 124 118 111 112 116 128 148 166 169 157 145 133 126 123 125 121 110 101 99 91 89 86 89 97 105 110 111 116 120 124 127 133 143 151 155 137 134 137 143 148 150 154 160 159 158 157 155 154 153 152 152 153 150 153 160 165 164 164 165 168 170 170 170 170 172 176 178 182 179 178 180 185 187 186 184 185 182 181 184 189 192 191 189 188 188 187 187 187 188 188 189 191 194 197 198 197 195 195 195 196 198 200 198 194 191 192 194 195 194 194 193 193 194 195 195 192 192 192 193 193 195 195 196 194 195 193 194 193 195 195 196 199 197 195 195 195 195 193 191 197 195 191 188 188 190 192 194 191 191 192 192 192 191 190 190 188 189 189 189 189 189 189 189 191 191 192 192 192 191 190 189 188 187 186 186 187 188 190 191 184 186 188 188 187 185 184 185 187 184 180 180 182 184 184 182 176 177 178 179 180 181 181 180 182 180 178 176 176 176 177 178 173 173 173 173 173 173 172 172 172 172 171 169 168 169 172 175 170 167 163 161 160 159 157 155 158 155 149 143 138 136 136 136 139 133 128 128 132 134 131 127 132 139 143 140 135 131 126 121 105 96 92 95 103 104 95 84 72 52 31 19 12 8 9 15 29 20 11 13 22 34 39 40 32 33 36 42 49 53 56 56 48 36 18 8 8 15 19 22 36 43 51 54 50 46 44 45 59 63 59 63 83 99 111 126 144 150 158 163 162 157 151 147 153 153 153 153 153 151 150 149 148 144 139 135 131 128 123 121 121 120 118 117 115 115 115 115 113 114 115 117 118 119 119 119 
2 2 2 2 2 2 2 2 1 2 2 4 5 6 7 7 9 11 15 17 17 21 37 52 87 109 127 126 117 113 115 117 125 136 148 153 153 151 144 136 127 127 129 128 119 112 112 116 118 125 139 151 153 145 137 131 121 118 112 107 103 98 90 81 79 80 84 89 96 102 109 113 121 118 115 121 133 141 142 140 132 137 143 149 153 157 163 165 166 163 161 161 162 163 162 161 165 165 166 167 168 170 172 173 175 176 177 178 178 180 181 181 182 183 184 186 187 188 188 188 190 189 189 189 190 192 194 195 192 192 192 192 192 192 192 191 193 193 194 195 196 196 196 195 196 195 194 193 192 193 194 195 196 196 194 193 193 193 193 193 196 194 195 193 194 194 195 195 197 195 194 192 193 193 196 196 197 196 195 195 196 196 193 191 193 191 189 189 191 193 194 194 191 190 191 190 190 191 191 192 190 189 189 190 192 192 190 188 192 192 192 191 191 190 190 190 188 188 188 188 188 188 188 188 190 189 188 187 186 186 186 186 184 184 183 183 183 182 182 182 182 181 181 180 179 179 178 178 180 179 178 177 176 175 175 175 175 174 173 172 171 170 170 171 172 172 171 171 170 169 168 168 167 165 163 164 164 163 161 158 152 151 149 146 143 141 139 137 134 135 133 128 122 119 121 122 128 129 130 130 130 128 126 123 121 116 111 106 104 104 105 107 97 89 79 70 53 29 14 8 30 30 26 19 20 26 26 21 21 18 20 30 43 51 54 53 45 41 32 21 11 10 16 23 26 33 47 55 51 40 35 39 49 59 67 67 71 85 104 115 129 147 153 154 159 154 146 146 150 150 151 153 155 156 152 150 145 142 138 134 130 125 121 117 119 117 115 115 115 115 113 111 111 113 115 116 116 116 117 118 
2 2 2 2 2 2 2 2 2 3 3 4 5 6 6 6 9 10 14 17 20 28 46 63 91 110 126 125 117 115 118 121 133 144 153 153 148 141 132 124 121 122 123 123 117 112 115 121 126 132 139 141 139 135 130 127 119 111 98 90 88 87 83 80 80 82 86 90 97 104 112 117 117 115 115 121 129 136 138 138 137 141 148 153 156 160 164 166 171 169 167 167 169 172 172 170 173 173 173 173 174 175 175 175 176 176 178 178 179 181 182 182 182 183 185 187 188 189 189 189 189 189 188 188 189 191 193 194 193 193 192 192 192 192 192 192 194 194 195 196 197 197 196 196 197 196 194 193 193 193 194 194 197 197 196 195 194 194 195 195 194 194 194 194 194 194 194 194 196 195 194 194 194 194 195 196 197 195 195 196 197 197 195 194 194 192 191 191 193 194 194 194 191 191 189 189 190 190 191 191 190 190 189 190 192 192 190 188 192 191 191 190 191 191 190 190 188 188 188 188 188 188 188 188 190 189 188 186 186 185 185 186 184 184 184 184 184 184 184 183 183 183 182 181 180 179 178 178 180 179 178 177 176 176 176 176 175 174 173 172 171 171 171 171 172 171 171 170 169 168 168 168 167 165 164 165 166 165 163 161 157 155 152 148 144 141 138 136 131 133 133 129 125 121 121 123 123 122 122 122 121 121 121 120 123 121 118 116 114 115 113 111 112 107 102 96 81 58 40 34 39 39 33 23 19 23 25 24 16 19 20 18 24 37 47 47 40 41 39 30 18 10 11 15 17 23 35 47 47 37 32 33 49 60 67 64 64 74 91 103 124 142 149 151 157 154 147 148 151 151 151 153 155 154 151 148 143 140 136 132 129 125 119 115 117 115 113 113 113 113 111 109 109 112 114 115 115 115 116 118 
2 2 2 2 2 2 2 2 4 4 4 4 5 5 6 6 10 8 11 17 25 38 59 77 99 114 127 126 120 119 124 128 141 152 158 153 142 130 119 111 113 113 114 115 112 110 116 125 131 137 138 131 126 126 123 117 112 102 88 82 82 83 83 82 83 86 90 95 100 107 114 120 118 120 124 127 133 138 141 143 146 150 154 158 161 163 166 169 176 174 173 175 177 179 179 179 177 178 177 178 177 178 177 178 178 179 179 180 181 182 183 183 183 184 186 188 189 191 192 192 190 189 189 189 190 191 192 193 193 193 193 193 193 193 193 193 196 196 197 198 198 198 198 197 196 196 195 194 193 193 194 194 198 197 196 196 195 195 196 196 194 194 194 193 193 194 194 194 196 195 194 194 194 194 195 196 196 195 195 196 198 199 197 195 193 192 192 193 194 195 194 192 191 190 189 188 189 190 190 191 191 190 189 190 192 192 190 188 192 191 191 191 191 191 191 190 189 189 189 188 188 188 188 188 189 189 187 186 185 185 185 185 185 185 185 185 186 186 186 186 185 184 183 182 181 179 178 178 180 180 179 177 177 176 177 177 176 175 174 172 172 171 171 172 171 171 170 169 169 168 167 167 167 165 164 165 167 167 165 163 160 158 155 150 145 141 138 136 131 133 134 132 129 126 124 124 120 117 116 112 111 110 110 110 111 108 108 111 115 117 112 107 104 106 111 116 109 94 78 71 50 52 47 35 24 20 21 21 22 30 29 18 11 19 27 28 26 33 39 35 25 15 12 12 10 14 24 37 42 37 30 27 43 57 64 60 56 64 80 92 117 134 145 148 156 155 149 151 153 153 153 155 155 154 150 147 142 139 134 130 128 123 117 113 115 113 111 110 111 110 108 106 107 110 113 114 113 114 115 116 
3 3 3 3 3 3 3 3 6 6 4 4 4 5 5 6 10 7 11 19 32 47 70 88 108 118 126 126 121 121 127 134 142 152 158 152 138 126 115 109 105 105 107 107 106 106 115 125 130 138 138 130 126 124 113 98 91 86 83 85 87 84 79 78 79 86 94 100 105 110 116 120 124 128 133 137 139 142 146 150 155 157 162 163 165 167 170 173 178 175 175 175 178 180 180 179 178 178 179 179 180 180 180 178 180 181 181 182 183 184 185 185 184 185 187 190 192 193 194 194 192 192 192 192 192 193 193 193 194 194 194 194 195 195 195 195 198 198 199 199 200 199 199 198 196 196 195 195 194 194 194 194 197 196 196 195 195 195 196 196 194 194 193 193 193 193 194 194 196 196 195 195 195 195 196 196 196 195 195 197 199 200 198 197 193 193 193 194 195 195 194 191 190 190 188 188 189 189 190 190 191 190 190 191 192 193 191 189 193 192 191 191 192 191 191 191 190 189 189 189 189 188 188 188 189 188 187 186 185 185 185 185 186 186 186 186 187 187 187 187 186 185 184 183 181 180 179 178 181 180 179 178 178 177 178 178 176 176 174 173 172 172 172 172 171 170 170 169 168 167 167 167 165 164 163 165 166 167 165 163 159 157 155 152 148 145 143 141 137 140 142 141 139 135 132 130 125 123 118 113 109 105 102 101 92 88 87 93 100 102 96 89 89 97 108 118 117 107 95 87 71 76 75 63 44 28 17 13 24 25 24 21 12 6 8 13 14 19 24 27 26 22 19 17 11 11 15 25 35 37 31 26 34 47 58 56 52 59 76 89 109 128 139 145 154 156 153 156 157 156 156 157 157 155 151 149 143 139 135 131 128 123 117 113 115 113 110 110 110 109 107 105 106 108 111 112 112 112 114 116 
3 3 3 3 3 3 3 3 6 5 4 4 4 5 6 7 11 8 14 27 43 61 80 96 112 116 120 121 118 118 125 132 136 146 153 148 138 129 120 113 100 100 104 106 104 105 115 125 132 139 143 138 131 118 93 70 64 69 81 91 91 77 64 60 69 81 95 106 113 117 122 124 131 136 140 142 142 144 149 154 162 164 167 168 169 170 173 175 180 178 176 176 177 178 178 177 176 178 179 181 182 183 182 183 183 185 184 185 186 186 187 187 187 188 190 192 194 195 195 196 196 196 196 196 196 195 195 195 194 194 195 195 196 196 197 197 199 199 200 200 200 200 199 198 196 196 196 196 195 195 194 194 195 194 194 193 194 194 195 195 194 194 194 193 193 194 194 194 196 196 197 197 197 197 196 196 196 195 195 197 199 200 198 197 194 193 194 194 196 195 194 191 191 190 189 188 189 190 190 191 192 191 190 191 193 193 191 189 193 193 193 192 192 192 191 191 191 190 190 189 189 188 188 188 189 188 187 185 185 184 184 185 186 186 186 186 186 186 186 186 186 185 184 183 181 180 179 179 181 180 180 179 178 179 179 179 177 177 175 174 173 173 173 173 171 171 170 169 169 168 167 167 163 162 162 163 165 165 164 162 158 157 157 156 156 155 155 154 151 153 154 155 153 149 144 140 133 132 128 124 119 113 109 106 98 91 86 86 88 85 76 68 81 89 98 104 103 96 87 79 82 89 97 95 80 58 40 30 25 10 6 17 18 6 7 19 18 14 11 13 20 24 23 21 14 10 9 15 27 35 32 26 30 43 54 53 52 59 75 86 102 122 134 141 153 157 156 160 160 160 159 160 160 158 154 151 145 142 137 133 129 124 118 114 116 114 111 110 110 109 107 105 105 107 110 111 111 112 114 115 
4 4 4 4 4 4 4 4 6 5 4 4 4 6 8 10 12 13 22 40 60 77 93 104 113 113 114 115 114 113 119 127 132 140 146 144 138 132 123 114 99 101 108 112 111 111 119 128 138 144 149 145 127 97 66 46 53 64 84 97 92 71 57 55 68 82 100 116 124 128 134 139 147 149 151 150 150 151 156 160 167 169 171 171 171 173 175 178 182 180 178 178 179 180 179 178 179 180 183 185 188 187 187 187 186 186 187 187 188 188 189 189 190 191 193 194 195 196 196 196 198 199 199 199 198 197 196 195 195 195 196 196 197 198 198 199 200 200 200 201 200 200 199 198 196 196 197 197 196 195 194 194 194 193 193 193 193 194 195 194 195 194 194 194 194 194 194 195 196 197 198 198 198 198 197 196 196 195 195 196 198 199 197 195 195 194 194 194 195 195 194 192 192 191 190 189 190 191 191 192 192 191 191 192 193 193 192 190 194 193 193 193 192 192 192 192 191 191 191 190 189 189 188 188 188 188 186 185 184 184 184 184 186 185 185 185 184 184 183 183 183 183 183 182 181 180 180 180 181 181 180 179 179 180 180 181 178 177 176 175 174 174 174 174 172 172 171 171 170 169 168 168 164 162 162 163 164 164 162 160 159 160 160 161 162 163 164 164 162 162 160 159 159 154 148 143 134 132 129 126 122 119 117 115 117 110 101 95 88 78 66 57 60 66 71 73 76 79 78 74 64 70 84 100 106 99 88 81 59 37 24 31 33 25 24 33 35 24 13 9 12 18 19 18 12 9 5 10 23 34 34 28 34 44 54 53 54 60 72 79 95 115 127 136 151 156 157 162 161 160 160 161 161 160 156 152 147 144 139 134 131 125 119 115 117 115 112 111 110 109 107 105 104 107 109 111 111 112 114 116 
4 4 4 4 4 4 3 3 5 4 3 3 4 7 9 12 14 18 31 56 80 97 108 115 118 114 113 116 115 113 117 125 134 138 141 139 137 131 120 109 101 106 116 123 124 123 129 138 143 146 151 142 110 67 45 41 58 68 85 95 87 70 67 75 90 103 119 132 137 143 150 156 161 160 158 156 155 158 162 165 170 170 172 171 171 174 176 179 182 180 178 179 180 182 182 181 182 184 186 189 189 189 188 187 188 189 189 189 189 190 190 190 193 194 195 196 196 196 196 196 199 199 200 200 199 197 195 194 195 196 196 197 198 199 200 200 200 200 200 6 30 199 198 197 195 195 196 196 196 195 193 192 193 193 193 193 193 194 195 196 196 196 195 195 195 195 196 196 196 197 198 199 199 198 197 196 197 195 195 196 197 197 195 194 197 195 194 194 194 194 194 193 193 193 191 191 192 192 193 193 192 191 191 192 193 194 192 190 194 194 193 193 192 192 192 192 192 192 191 190 189 189 188 188 188 187 186 185 184 184 184 184 185 185 184 183 182 181 180 179 181 181 181 181 180 180 180 180 181 181 180 180 180 181 181 182 179 178 177 175 175 174 174 174 173 173 173 172 171 170 170 169 166 165 164 164 165 165 162 160 161 161 161 161 161 162 162 162 160 158 155 152 150 145 138 133 123 119 114 107 105 104 105 107 110 108 104 99 91 79 66 57 43 46 48 48 55 69 49 63 53 48 54 76 98 108 109 108 99 90 78 70 67 62 53 44 49 41 29 17 11 10 12 15 8 8 8 13 27 39 40 33 37 45 52 53 55 63 71 75 89 109 121 130 146 154 156 161 159 158 159 160 161 159 155 151 148 144 140 136 131 125 119 115 117 114 112 110 110 108 107 104 104 106 109 111 113 114 116 117 
4 4 4 4 4 4 3 3 5 4 3 3 4 7 10 12 16 21 38 67 94 110 119 124 123 118 117 119 119 116 119 127 137 139 138 136 135 129 115 102 103 109 122 132 134 133 138 146 142 145 149 136 94 47 35 47 61 68 80 85 77 69 78 98 117 128 140 147 150 154 161 168 164 161 157 154 154 157 160 163 170 171 172 172 173 174 177 180 179 177 176 178 180 182 183 182 183 185 187 188 189 187 185 184 190 190 190 190 190 191 191 191 195 196 196 197 197 197 196 195 198 199 199 199 198 196 194 193 196 196 197 198 199 200 200 201 200 200 200 44 199 198 197 197 194 195 196 197 196 195 194 192 194 194 194 194 194 196 197 197 197 197 196 195 195 196 197 197 196 197 199 200 200 199 197 196 197 196 195 195 196 196 194 192 198 196 194 193 194 194 194 194 194 194 192 191 192 193 194 194 192 191 191 192 194 194 192 190 193 194 194 193 192 192 192 192 193 192 191 191 190 189 188 188 188 187 186 185 184 183 184 184 185 184 183 181 180 178 177 177 179 179 179 180 180 180 181 181 181 181 181 180 180 181 182 182 179 178 177 176 175 175 175 175 174 174 173 173 172 171 170 170 168 167 165 166 166 165 163 160 160 160 159 158 156 155 154 155 152 149 144 140 137 132 125 119 111 104 94 85 81 82 85 90 86 89 93 94 89 79 68 60 50 51 47 42 48 66 11 11 67 48 38 50 72 86 91 92 109 121 120 104 97 98 79 52 55 51 43 28 13 5 9 14 5 9 13 20 34 45 45 38 36 42 49 52 57 66 73 75 84 105 118 127 143 151 154 160 157 156 157 159 160 158 154 150 148 144 140 135 131 125 119 114 116 114 111 109 109 107 106 103 103 106 110 112 113 114 116 118 
12 9 6 5 5 6 5 5 6 2 3 6 7 6 8 12 32 42 73 89 108 126 119 120 111 110 110 115 123 130 133 133 137 138 138 133 123 112 103 99 103 110 121 130 133 133 134 137 143 142 130 102 68 48 47 54 59 65 72 76 80 92 111 127 145 148 152 157 161 164 165 166 165 165 164 165 166 167 168 169 171 170 173 174 175 177 178 179 178 178 179 179 179 179 180 180 184 186 188 189 190 188 187 185 188 190 193 193 193 192 193 195 191 190 190 191 194 196 196 195 198 199 198 196 194 193 194 195 197 197 197 197 197 197 197 197 18 39 197 197 197 197 197 197 193 194 193 194 195 196 197 198 197 196 196 195 195 196 196 197 197 197 197 197 196 195 194 194 197 198 199 197 194 194 197 201 197 197 195 194 194 194 194 194 196 195 195 194 194 193 192 191 192 191 190 190 191 192 193 194 192 192 192 192 192 191 191 191 193 192 191 192 193 193 191 188 191 191 191 191 191 191 191 192 189 188 185 181 179 179 183 187 180 177 174 174 176 179 181 182 185 181 178 178 181 183 182 181 180 180 180 180 180 180 180 180 179 179 178 178 177 176 175 175 175 174 172 170 168 167 167 166 166 165 164 163 163 163 163 164 163 160 157 155 154 153 150 149 142 142 140 138 136 131 127 121 112 105 95 86 78 70 60 55 53 57 61 63 61 60 60 62 53 57 58 52 42 41 51 62 75 62 44 33 33 42 51 57 75 89 107 117 117 111 107 105 88 84 69 45 23 15 12 11 16 17 16 17 35 58 62 56 38 39 43 51 57 62 73 83 93 96 106 119 128 135 146 155 159 158 158 160 161 159 152 147 147 143 138 133 129 124 119 115 113 113 113 112 110 108 107 105 108 108 110 112 114 117 120 121 
19 16 13 10 10 9 6 5 7 3 3 5 6 5 7 11 32 46 81 97 116 131 120 120 113 113 113 114 117 121 124 126 129 130 129 124 116 108 104 101 102 109 119 127 131 132 133 135 136 132 118 93 66 50 49 55 58 62 67 73 82 99 121 136 148 151 153 157 161 164 166 167 165 165 165 165 166 167 168 169 170 170 172 173 174 176 177 178 178 178 179 179 179 179 180 180 183 185 187 188 189 188 186 185 188 190 192 192 192 191 193 194 191 190 190 192 195 196 196 195 198 199 198 197 194 193 194 196 197 197 197 197 25 21 197 197 33 71 197 197 197 197 197 197 195 195 194 194 194 195 196 197 197 196 196 195 195 196 196 197 198 198 198 198 198 197 196 195 197 199 199 198 195 195 198 201 197 196 195 195 194 194 194 195 196 196 194 194 194 193 194 194 192 192 190 190 191 192 192 193 192 192 193 193 193 192 192 192 192 190 189 191 192 193 190 188 189 189 189 189 190 190 190 190 188 187 185 181 179 179 183 186 183 179 176 175 177 180 181 182 183 180 177 177 179 181 180 179 180 180 180 180 180 180 180 180 179 178 178 177 176 175 175 175 175 174 172 170 168 167 167 166 166 165 164 163 163 163 163 164 163 160 157 155 154 153 151 149 144 142 141 140 137 133 129 124 114 108 99 91 84 75 65 57 46 45 46 47 51 55 59 62 53 54 50 41 34 33 39 45 64 61 52 41 31 27 29 32 46 61 79 94 100 102 104 106 107 105 93 71 49 34 23 16 16 19 21 27 45 65 65 54 40 39 42 47 52 58 69 79 90 93 103 116 125 133 143 150 158 157 158 160 161 159 152 148 147 143 138 133 129 124 119 115 114 113 112 111 110 108 106 105 108 108 110 112 114 117 120 121 
32 28 24 20 17 14 9 5 10 6 4 6 6 6 9 15 33 51 90 108 123 133 120 118 115 116 116 113 110 110 113 117 119 120 119 115 110 106 104 104 102 108 118 125 129 131 132 133 128 118 101 79 60 51 51 54 54 56 61 72 87 111 133 149 153 154 155 157 160 163 166 167 165 165 165 165 166 167 169 169 169 169 170 171 174 175 175 176 178 178 178 179 179 180 180 180 183 184 186 187 187 187 186 185 187 189 191 191 190 190 192 194 192 191 190 192 195 196 196 195 198 199 199 197 194 194 195 197 197 197 197 197 7 4 197 197 197 197 197 197 197 197 197 197 197 196 196 195 194 195 195 195 197 196 196 195 195 196 196 197 198 199 199 200 199 199 198 197 198 199 199 198 196 196 198 200 197 196 196 195 194 195 195 195 197 195 194 193 193 194 195 196 193 192 190 190 190 191 191 192 193 193 194 194 194 195 195 195 190 189 189 190 191 192 190 188 188 188 188 188 188 188 188 188 187 186 185 182 179 180 182 185 185 182 178 177 178 180 181 181 180 178 176 176 178 179 179 178 179 179 179 179 179 179 179 179 178 178 177 176 175 175 174 174 174 173 171 169 168 167 166 166 165 165 164 163 163 163 163 163 163 160 157 155 155 154 152 151 147 145 143 142 140 136 131 128 118 112 104 97 90 81 71 62 52 47 43 42 46 55 63 69 60 55 46 38 31 25 22 20 40 48 53 46 30 18 15 16 17 30 46 60 70 79 90 97 117 120 116 104 87 69 49 35 26 28 32 43 62 76 70 53 44 42 42 45 50 55 65 75 86 89 99 113 123 129 138 146 154 156 158 161 162 159 154 150 147 143 138 133 129 124 119 115 114 113 112 110 109 107 106 105 109 109 110 112 114 117 120 121 
48 44 39 34 28 22 15 9 14 8 5 6 7 8 14 20 40 58 96 112 121 129 114 113 113 116 116 110 104 102 107 112 116 117 117 115 111 106 105 104 102 110 119 124 129 133 133 131 124 108 86 65 54 49 49 49 47 51 60 77 99 124 144 156 156 156 156 157 159 162 165 167 166 165 165 166 166 168 169 170 169 168 169 170 173 174 175 174 177 177 178 179 179 180 181 181 182 183 184 186 186 186 186 186 187 189 190 190 189 189 192 194 193 192 191 193 195 197 196 195 198 199 199 197 195 194 196 197 198 7 21 198 198 198 198 198 198 198 198 198 198 198 198 198 199 198 197 195 195 194 194 194 197 196 196 195 195 196 196 197 197 198 199 199 199 199 199 198 197 198 198 197 197 197 197 198 197 196 196 195 195 195 196 196 196 194 193 191 191 193 195 197 193 192 191 190 190 191 191 191 194 194 195 196 196 196 196 197 189 189 190 191 192 192 191 190 188 188 188 188 188 187 187 187 186 186 186 184 182 182 184 186 185 182 179 177 178 179 179 178 178 178 177 177 178 178 178 178 178 178 178 178 178 178 178 178 177 176 176 175 174 173 173 173 173 172 170 168 167 166 166 166 165 164 163 163 162 162 163 163 162 160 157 156 156 156 154 153 150 147 146 144 142 139 134 131 123 117 108 100 94 86 77 71 67 62 53 47 47 55 66 75 74 66 55 48 42 33 19 8 14 26 38 39 29 21 18 21 12 19 27 33 39 50 65 77 102 110 117 117 113 101 84 68 46 46 48 57 73 82 71 54 51 46 43 45 50 54 62 72 82 86 96 109 119 125 133 140 150 153 157 161 162 159 154 151 147 143 138 133 129 124 119 115 114 113 111 110 108 107 106 106 109 109 110 112 114 117 120 121 
66 62 57 51 42 33 24 18 16 9 5 5 7 9 16 24 48 65 101 110 113 119 106 108 110 113 114 108 101 99 105 113 121 123 125 123 118 111 104 101 105 113 122 126 132 137 136 130 123 103 75 56 48 47 45 43 42 49 66 89 115 136 151 157 158 157 157 157 159 162 164 166 166 166 166 166 167 168 169 170 169 169 170 171 172 172 174 174 178 177 178 179 179 180 181 181 182 183 184 185 186 186 187 187 188 189 190 189 188 189 192 194 194 192 192 193 195 197 196 195 198 198 199 197 195 195 17 198 198 7 20 198 198 198 198 198 198 198 198 198 198 198 198 198 200 199 198 196 195 194 194 194 197 196 196 195 195 196 196 197 195 196 197 198 199 199 199 198 196 196 196 196 197 197 196 196 197 196 196 195 195 196 197 197 195 194 192 190 190 192 194 196 193 193 191 191 191 192 192 193 195 195 196 197 197 197 197 197 190 191 192 193 192 192 191 192 190 189 189 189 188 188 187 187 186 187 188 187 185 184 185 186 184 181 178 177 177 178 177 176 178 178 179 179 178 178 178 178 176 176 176 176 176 176 176 176 175 175 175 174 173 172 172 171 171 170 169 167 166 166 166 166 165 164 163 162 162 162 162 163 162 161 158 157 158 158 157 156 153 151 148 146 144 141 138 135 129 121 109 101 95 89 83 79 72 69 63 54 49 53 64 75 82 77 72 70 67 57 39 25 9 15 23 26 24 23 25 27 23 23 21 18 19 29 44 57 73 84 98 108 114 114 106 95 69 64 61 66 77 81 71 57 55 49 45 48 50 52 59 66 78 81 92 106 115 121 128 134 144 149 156 161 162 159 154 151 147 143 138 133 129 124 119 115 114 113 111 108 107 106 107 107 109 109 110 112 114 117 120 121 
84 81 76 70 61 50 39 32 22 14 8 6 7 9 16 25 54 70 102 105 107 111 101 106 107 110 111 106 101 102 108 116 131 134 135 131 123 114 105 100 105 115 125 129 136 142 137 127 116 94 65 48 44 45 43 40 43 56 79 107 130 146 154 156 158 159 159 160 162 164 165 166 166 166 166 166 167 168 170 170 170 170 171 171 172 173 173 174 177 178 177 178 180 181 181 182 183 183 184 185 186 187 188 189 189 190 190 189 188 190 193 195 195 193 192 194 196 197 196 195 197 198 199 198 196 30 158 199 199 199 199 199 199 199 199 199 199 199 199 199 199 199 199 199 200 199 198 196 195 195 195 195 197 196 196 195 195 196 196 197 194 195 196 198 199 199 199 199 197 196 196 197 199 199 197 195 197 196 196 196 196 197 198 198 196 194 193 192 191 193 194 195 193 193 192 192 193 194 195 196 197 197 197 197 196 196 196 195 191 193 195 194 192 191 191 191 190 190 189 188 188 187 186 186 184 186 188 187 186 185 185 186 182 180 178 177 177 177 176 175 176 178 180 180 178 177 177 178 175 175 175 175 175 175 175 175 174 174 173 173 172 45 95 170 170 169 168 166 166 165 165 165 164 164 163 162 161 161 162 162 162 161 158 158 159 159 159 157 155 152 149 147 145 143 140 137 132 124 112 105 99 94 88 82 72 71 69 64 59 59 65 71 75 75 77 81 82 75 62 51 32 29 26 22 21 22 22 23 30 28 23 17 15 21 35 47 49 62 75 86 96 103 104 100 83 75 69 69 75 77 71 64 57 51 48 51 53 53 57 59 72 76 87 101 110 115 121 129 137 144 154 160 161 157 153 150 147 143 138 133 129 124 119 115 114 113 110 108 106 105 107 107 109 109 110 112 114 117 120 121 
100 98 93 87 79 67 56 48 37 27 18 14 13 14 19 27 56 72 103 107 105 109 101 108 108 109 109 106 104 106 112 119 142 142 140 134 124 115 106 102 104 116 126 131 138 144 137 124 104 82 56 41 40 44 44 41 50 67 94 122 142 153 156 156 160 161 163 165 166 168 168 169 167 166 166 167 167 169 170 171 171 171 172 172 173 174 174 174 176 177 177 178 180 181 182 182 184 184 184 185 187 188 189 190 190 191 191 190 189 190 194 197 195 194 193 194 196 197 196 195 197 198 199 198 196 196 198 200 199 199 199 199 199 199 199 199 199 199 199 199 199 199 199 199 199 199 197 196 196 196 196 196 197 196 196 195 45 95 196 197 194 195 197 199 200 201 201 201 199 198 198 199 202 202 199 196 196 196 196 196 196 197 198 199 198 197 196 195 194 194 194 194 193 193 192 193 195 197 198 199 198 198 198 197 196 195 194 193 192 194 195 194 190 188 188 189 189 188 188 187 186 185 185 184 181 183 186 186 185 183 183 183 182 180 178 178 179 179 178 176 173 176 179 179 177 175 176 177 174 174 174 174 174 174 174 174 173 173 173 172 171 41 55 169 169 168 167 166 165 165 165 165 164 163 162 162 161 161 162 162 161 160 158 158 160 160 160 159 156 153 149 147 146 144 141 139 131 125 117 111 105 99 91 84 73 70 70 71 73 70 64 59 56 61 67 71 72 70 66 62 60 55 45 35 26 22 21 22 30 30 29 24 20 22 31 40 36 48 59 67 74 82 87 88 82 75 69 68 72 73 72 70 59 54 54 59 61 59 58 59 67 71 81 95 103 108 115 122 132 141 152 159 159 156 152 149 147 143 138 133 129 124 119 115 114 113 110 107 105 105 106 107 109 109 110 112 114 117 120 121 
111 108 104 98 90 79 66 58 50 40 28 22 18 19 25 33 55 73 106 108 107 111 104 111 109 110 109 106 106 109 115 121 147 146 142 133 123 113 107 105 102 115 127 132 139 145 137 121 94 73 49 37 39 45 46 44 58 76 105 131 148 156 158 157 161 162 165 168 170 171 171 171 167 167 167 167 168 169 170 171 171 172 172 173 173 174 175 175 175 177 178 178 180 181 182 183 184 184 185 186 187 189 190 191 191 192 191 190 189 191 195 198 196 194 193 194 196 197 196 195 197 198 199 198 197 197 198 200 199 199 199 199 199 199 199 199 199 199 199 199 199 199 199 199 199 198 197 196 196 196 197 197 197 196 196 195 41 55 196 196 195 196 198 200 202 203 203 203 202 200 199 201 204 204 201 198 196 196 196 196 197 198 199 199 200 199 199 198 197 196 195 195 193 192 193 194 195 198 200 201 199 198 198 197 195 194 192 192 191 194 195 193 189 186 186 187 187 187 186 185 184 183 183 182 178 181 184 185 183 182 181 181 182 181 179 179 181 181 180 178 171 175 178 178 175 173 174 175 174 174 174 174 174 174 174 174 173 173 172 171 170 170 169 169 168 168 167 165 165 165 165 165 164 163 162 161 161 161 161 162 161 160 158 159 160 161 160 159 156 153 149 147 146 144 142 140 130 126 121 117 113 103 92 83 72 68 66 71 77 74 57 43 42 48 53 55 54 53 55 59 77 73 63 49 35 27 26 28 27 31 33 31 26 25 29 35 32 42 53 56 60 67 74 77 76 70 66 67 69 71 73 75 63 60 61 67 70 66 62 61 63 67 77 91 100 104 111 116 129 138 151 158 159 155 151 149 147 143 138 133 129 124 119 115 115 112 109 106 105 105 106 107 109 109 110 112 114 117 120 121 
125 123 117 109 103 98 87 77 64 54 43 34 28 26 30 38 65 80 98 112 114 112 110 110 107 106 107 110 109 107 113 124 139 141 138 127 118 116 115 113 116 119 122 128 143 149 128 102 73 49 30 28 33 34 40 48 69 90 118 137 144 147 152 159 161 162 164 166 168 169 170 170 164 165 166 167 169 170 171 171 171 172 173 175 177 177 176 175 177 177 177 177 179 181 182 183 183 184 185 187 189 191 192 193 192 191 191 191 191 192 193 194 194 195 195 196 196 195 195 194 196 197 197 198 199 200 201 200 199 200 200 201 201 200 199 199 201 201 201 200 200 199 199 199 197 197 197 198 198 199 199 199 200 199 198 197 196 195 195 49 63 196 197 197 197 197 197 197 196 197 197 198 198 197 196 196 198 199 200 201 199 198 196 195 199 199 199 200 199 199 197 197 192 193 194 195 197 198 199 200 196 196 195 194 192 191 190 189 196 195 194 191 189 186 185 184 190 189 187 186 185 184 184 184 181 180 180 180 181 182 183 183 181 182 182 182 182 181 180 179 177 177 176 176 175 174 173 173 171 171 171 172 172 172 173 173 172 172 171 170 169 169 168 168 165 7 21 167 166 164 163 161 162 162 161 160 160 161 161 162 162 161 161 160 159 158 157 158 155 155 155 154 151 145 138 133 123 119 116 115 108 95 83 78 68 77 80 72 61 52 42 35 40 48 48 46 49 41 32 35 56 49 45 50 58 57 45 32 27 19 20 29 27 18 21 32 44 45 50 59 66 68 63 58 60 68 69 67 69 75 77 72 66 65 66 72 76 73 66 60 58 60 69 85 98 105 110 114 133 143 151 151 150 150 150 147 147 143 137 131 127 123 118 115 112 111 109 107 106 106 106 107 109 110 110 112 115 119 122 124 
131 129 122 114 109 103 92 82 71 61 50 42 35 32 36 41 64 78 96 110 112 112 111 111 112 112 113 112 106 100 105 115 132 136 135 126 120 119 120 119 127 129 130 134 144 144 120 92 61 42 27 27 31 33 39 49 74 95 121 138 144 147 154 160 160 161 163 165 166 168 168 168 165 166 167 168 169 170 171 172 170 171 173 174 176 177 176 176 179 178 178 178 179 180 182 182 184 184 186 187 189 191 192 192 192 192 191 191 192 192 193 194 194 195 195 196 196 195 195 194 197 197 198 199 200 201 200 201 199 199 200 200 200 200 199 198 201 201 201 200 200 199 199 199 197 197 197 198 198 199 199 199 201 200 198 197 196 196 196 11 11 198 198 25 21 197 197 197 197 197 198 198 198 198 197 197 198 199 200 201 199 198 196 195 197 197 199 198 198 197 196 196 193 193 194 195 197 198 199 199 197 196 195 194 192 192 191 190 195 194 193 192 190 189 188 187 187 186 185 184 183 183 183 183 181 181 180 180 180 180 181 181 180 180 181 181 180 179 178 178 177 176 176 175 174 173 173 172 171 172 172 172 173 173 173 174 173 172 172 171 170 169 169 169 166 7 20 167 166 164 163 163 161 160 159 158 158 158 158 158 160 160 160 160 159 157 156 155 154 153 152 151 148 143 136 130 129 122 117 112 102 90 84 82 73 81 85 82 79 75 64 55 63 67 58 51 49 40 31 34 24 29 34 38 40 41 45 48 30 22 20 25 25 20 20 25 28 30 38 55 69 72 62 49 58 65 66 63 66 76 82 79 75 73 72 77 81 80 75 69 63 62 67 78 91 99 107 112 129 140 149 151 150 150 151 148 147 142 136 131 127 122 118 115 112 111 109 107 106 105 106 106 109 109 110 112 114 118 121 124 
139 138 130 122 117 112 102 91 79 69 58 50 42 38 40 43 61 75 94 106 109 110 110 111 115 117 118 113 103 95 99 107 123 129 130 126 123 126 129 130 137 138 137 139 143 136 107 77 48 35 26 26 29 34 44 55 84 101 123 138 144 148 155 162 159 160 162 164 165 166 167 167 166 167 167 168 170 171 172 172 171 171 171 172 175 176 177 178 180 180 179 179 179 180 181 181 184 185 186 188 189 191 192 192 192 192 191 191 192 193 194 194 195 195 196 196 196 196 195 195 198 198 199 200 200 201 201 201 199 199 200 200 201 200 200 199 201 201 201 200 200 199 199 199 197 197 198 198 198 198 199 199 201 200 199 198 197 197 197 197 201 200 200 7 4 198 197 197 198 198 199 200 200 199 199 198 198 199 200 201 199 198 196 195 196 196 197 197 196 196 196 195 193 194 194 195 197 198 198 199 197 197 196 195 193 192 192 192 194 193 193 192 191 191 190 190 185 185 184 184 183 184 184 185 183 182 181 180 179 178 178 179 179 179 179 179 179 178 177 177 176 175 175 174 173 172 172 171 172 173 173 173 174 174 174 175 174 174 173 172 171 171 170 170 167 167 167 167 166 165 163 163 162 161 160 158 157 156 156 156 156 157 159 159 159 157 154 154 151 150 149 148 146 140 134 129 131 124 117 108 97 88 88 93 88 91 93 94 95 91 6 30 72 74 62 53 50 40 32 35 24 28 29 27 24 27 35 43 37 31 25 24 27 29 28 27 23 21 24 42 65 74 66 53 60 65 64 58 61 74 83 84 79 78 78 80 83 84 81 78 68 64 64 71 82 92 102 110 124 136 145 149 149 151 152 149 146 141 136 130 126 122 118 114 111 111 109 107 105 105 106 106 108 108 109 111 114 117 121 123 
148 147 140 131 126 121 111 100 86 75 64 56 49 43 41 42 57 70 87 98 104 106 109 112 114 118 120 113 101 94 98 105 116 123 128 128 129 134 140 142 146 144 142 140 139 124 93 63 39 30 24 25 29 37 54 69 93 106 125 137 143 147 155 162 160 161 163 164 166 167 167 167 167 167 168 169 170 171 171 172 171 171 170 171 173 176 177 179 180 180 179 179 180 181 183 183 185 186 187 188 189 191 192 192 193 192 192 192 192 193 194 195 195 195 196 197 197 196 195 195 199 199 200 200 201 201 200 201 200 200 201 202 202 202 202 201 201 201 201 200 200 199 199 199 198 198 198 198 198 198 198 198 201 201 200 199 198 198 198 199 203 202 201 200 199 198 27 197 198 199 200 201 201 201 200 200 198 199 200 201 199 198 196 195 196 196 196 196 196 196 196 197 194 194 195 196 196 197 198 198 198 197 196 196 194 193 192 192 193 193 192 191 190 190 189 189 186 186 186 186 186 187 188 189 185 183 182 180 178 177 176 176 179 179 179 180 179 178 177 177 175 175 174 173 172 172 171 171 173 173 174 174 174 175 175 175 175 18 39 173 173 172 171 171 168 167 167 167 166 165 164 164 166 164 162 160 159 157 157 157 153 155 157 159 158 156 153 152 151 149 148 146 144 140 134 129 128 122 117 109 99 92 96 105 105 101 97 95 93 84 44 51 62 70 66 60 59 50 40 42 48 42 34 31 33 34 31 28 41 39 32 24 24 31 34 33 34 25 19 28 48 66 71 69 67 71 68 58 57 68 77 79 75 76 75 76 79 83 82 79 73 67 64 69 78 87 98 106 121 133 143 148 149 152 152 150 144 140 135 130 126 122 117 114 111 111 108 106 105 105 105 106 107 107 108 110 112 116 119 122 
156 155 147 140 134 129 118 108 95 84 72 65 57 48 43 42 54 64 79 89 95 100 107 112 117 121 121 112 101 95 98 103 114 123 130 132 136 144 150 153 159 154 147 141 133 112 78 50 34 27 22 22 28 42 63 80 99 111 126 137 142 147 154 161 162 163 164 166 167 168 168 168 167 167 168 169 169 170 170 171 170 170 170 170 173 176 177 179 178 178 178 180 182 184 187 187 186 187 188 189 190 191 192 192 193 193 192 192 193 193 194 195 195 196 197 197 197 197 196 195 199 199 200 200 200 200 200 200 201 202 203 204 204 204 204 204 201 201 201 200 200 199 199 199 198 198 198 198 198 198 198 198 201 200 199 198 198 198 199 199 203 203 202 201 200 199 198 75 198 199 200 201 201 201 201 201 198 199 200 201 199 198 196 195 197 197 197 196 196 197 198 199 194 194 195 196 196 197 198 198 197 197 196 196 194 193 193 192 193 193 191 190 188 187 186 185 186 186 186 186 187 188 189 190 186 185 183 180 178 177 176 176 180 180 180 181 180 179 178 178 175 175 174 173 172 172 171 171 173 173 174 174 174 175 175 175 175 33 71 174 173 172 172 171 170 169 168 167 166 166 166 165 166 164 162 160 158 157 156 156 152 154 156 158 158 155 152 151 151 150 148 146 144 140 135 131 127 123 119 114 104 97 100 107 104 97 89 84 27 67 50 39 61 75 79 77 73 58 45 48 49 49 52 56 59 55 46 38 49 50 41 27 18 21 26 30 41 31 21 21 32 51 65 74 74 79 75 61 55 60 65 65 67 72 73 73 75 81 82 77 75 69 67 72 80 88 97 104 119 132 143 148 151 153 152 150 143 139 133 129 125 121 117 114 111 110 108 106 105 104 105 105 106 106 107 108 111 115 118 120 
164 162 155 147 142 137 125 115 105 95 83 75 67 57 50 46 50 57 69 78 84 93 104 112 123 126 122 111 101 99 101 102 119 128 136 139 144 152 159 161 169 160 149 139 125 101 67 42 31 26 23 23 32 50 72 86 103 115 128 138 143 148 155 161 163 164 165 167 167 168 168 168 167 167 167 168 168 169 169 169 168 168 169 171 174 176 177 178 178 178 178 180 183 185 17 190 187 188 188 189 190 191 192 192 193 193 193 193 193 194 195 195 196 196 197 197 197 197 196 196 199 199 199 199 199 199 198 198 201 201 203 204 204 205 205 204 201 201 201 200 200 199 199 199 199 199 198 198 198 198 197 197 200 199 198 198 198 198 199 199 202 202 201 200 200 199 199 198 197 198 199 201 201 6 30 201 198 199 200 201 199 198 196 195 198 197 196 196 196 197 199 200 195 195 195 196 196 197 197 197 196 196 195 195 193 193 192 192 193 192 191 189 187 186 184 184 185 185 184 184 185 186 187 188 187 186 184 181 179 178 177 177 180 180 181 181 180 179 178 178 176 175 175 174 173 172 172 171 172 173 173 173 174 174 174 175 175 175 174 173 173 172 171 171 170 170 168 167 166 166 166 166 163 162 160 157 156 154 154 154 152 154 155 157 157 155 153 153 152 150 148 146 144 141 136 132 130 126 122 118 108 99 98 102 90 84 78 73 67 75 51 49 75 90 93 84 70 52 41 46 51 61 74 78 74 66 61 60 72 70 61 44 26 17 18 23 32 29 25 23 27 37 51 59 71 80 81 68 59 58 57 53 61 71 75 76 78 85 84 78 77 71 68 74 82 89 98 106 120 133 144 149 151 153 151 148 142 138 132 128 124 121 117 114 110 110 108 105 104 104 104 105 105 105 105 107 110 114 117 119 
171 169 162 153 148 142 133 122 113 101 90 83 75 63 54 48 45 52 61 67 74 86 101 112 126 126 119 108 103 106 108 107 126 135 143 147 151 158 165 167 166 155 141 129 115 92 61 41 32 30 28 32 44 63 81 91 107 118 130 140 146 151 158 163 163 163 165 166 166 167 167 166 166 166 166 166 167 167 167 168 166 167 169 172 175 176 176 177 179 179 180 181 183 30 158 189 124 156 189 190 18 39 191 192 194 193 193 193 193 194 195 196 196 197 197 198 198 197 197 196 198 198 198 198 198 198 196 196 199 199 201 202 203 203 203 203 201 201 201 200 200 199 199 199 199 199 199 198 198 197 197 197 198 198 197 197 197 197 198 199 200 200 200 199 199 199 199 199 196 197 198 200 201 44 201 201 198 30 200 201 199 198 196 195 196 195 195 194 194 196 198 200 195 195 196 196 196 196 197 197 194 194 194 194 192 192 192 192 191 191 190 189 188 188 187 187 186 186 185 185 185 186 187 187 188 187 185 183 181 179 179 178 179 179 179 179 179 178 177 177 177 176 176 175 174 173 173 172 171 172 172 172 173 173 173 174 174 174 174 173 172 171 171 170 170 170 169 167 166 166 167 167 161 160 159 157 155 155 154 154 154 154 155 156 156 155 154 155 151 149 147 145 143 140 136 133 131 124 119 116 109 101 97 99 85 18 39 73 65 59 63 73 96 107 100 78 57 40 41 57 85 82 76 69 65 70 78 86 96 88 80 68 46 23 14 18 21 22 24 25 27 31 39 44 59 74 82 75 66 62 56 50 58 71 80 80 84 90 88 79 77 70 67 72 80 89 100 109 123 135 147 152 152 152 150 146 141 137 131 127 124 120 116 114 110 109 107 105 104 104 104 105 104 104 105 106 109 113 116 118 
175 173 166 158 152 148 137 127 116 105 93 86 78 66 54 48 43 50 55 61 69 82 99 112 123 122 115 106 105 113 117 114 131 140 148 151 155 162 167 169 156 143 129 119 107 86 61 43 36 34 35 41 56 75 88 96 111 119 132 142 149 154 160 164 161 162 163 164 165 165 165 165 165 165 165 166 166 166 166 166 165 167 169 173 176 177 176 176 181 181 181 182 183 184 187 188 156 190 189 190 33 71 191 192 194 193 193 193 193 194 195 196 196 197 197 198 198 197 197 196 197 197 197 197 197 197 195 195 197 197 199 200 201 202 202 202 201 201 201 200 200 199 199 199 199 199 199 198 198 197 197 197 197 197 196 196 196 197 198 198 198 198 199 199 199 199 199 199 196 196 198 199 200 201 201 201 198 0 200 201 199 198 196 195 195 194 193 192 193 195 197 199 195 195 196 196 196 196 197 197 193 193 193 193 192 192 192 192 190 190 190 190 190 190 190 190 189 189 188 187 187 188 188 189 188 187 185 183 181 180 180 180 177 177 178 178 178 177 176 175 177 177 176 176 175 174 173 173 171 171 171 172 172 172 173 173 174 174 173 172 171 171 170 170 171 170 169 167 166 166 167 168 163 162 160 159 158 157 157 157 155 155 155 155 155 155 155 157 150 148 145 144 142 139 135 132 129 121 114 112 109 103 99 100 89 33 71 78 68 63 73 89 113 120 105 74 50 39 53 78 123 94 59 42 52 77 99 110 104 92 84 79 59 28 11 10 17 18 20 23 27 31 35 38 48 66 80 79 72 66 59 51 55 71 82 84 87 93 89 79 79 71 67 69 78 89 102 113 125 137 149 153 152 152 149 145 140 136 131 127 123 120 116 114 110 109 107 105 104 104 104 104 103 103 104 106 109 112 116 118 
181 176 170 164 159 150 140 131 116 109 98 88 80 71 60 53 49 45 46 54 63 77 97 113 127 117 108 107 114 124 134 140 143 139 141 141 141 154 159 149 136 118 100 89 78 62 46 35 35 32 36 50 66 80 91 99 114 126 140 148 151 154 160 166 160 161 162 163 164 164 164 164 163 163 7 21 165 166 167 167 165 166 168 171 174 177 178 179 180 181 182 183 184 185 186 185 188 191 194 193 191 189 190 192 193 193 195 196 196 196 196 196 195 197 199 199 197 196 196 197 197 198 200 201 201 200 197 195 196 196 198 199 200 201 201 201 201 200 200 199 199 200 200 201 198 199 199 199 198 197 196 196 197 196 196 196 196 197 198 199 197 197 198 199 200 200 200 200 198 198 198 198 198 198 198 198 199 199 200 200 45 95 197 196 196 194 192 190 191 194 198 201 197 196 194 193 193 194 196 197 194 194 194 194 193 193 193 193 194 193 191 190 190 191 193 194 191 191 190 189 189 188 187 187 190 189 188 186 184 182 181 180 177 177 178 178 179 180 180 181 179 177 175 175 175 175 173 171 173 172 172 171 171 172 172 173 169 169 170 170 171 171 170 170 176 174 170 168 166 166 167 168 162 161 158 156 156 157 159 160 158 157 156 156 158 158 157 157 153 150 147 145 143 141 138 135 129 123 49 63 109 6 30 96 82 78 76 73 66 63 76 95 108 119 106 79 70 76 94 115 115 91 61 61 88 97 88 85 70 80 75 55 43 46 43 34 20 20 21 23 27 31 35 35 40 52 60 62 67 71 63 47 50 55 65 77 86 86 81 75 68 64 64 67 71 80 97 112 125 137 149 153 154 153 150 146 141 135 130 127 127 124 116 111 111 109 106 104 104 104 102 100 102 102 104 106 109 112 115 116 
182 177 171 165 160 151 140 132 120 112 102 92 83 74 63 55 48 42 42 49 60 76 95 110 121 114 110 113 123 134 142 145 143 137 138 139 139 149 151 138 117 100 84 74 66 54 41 34 27 26 30 45 64 81 96 106 117 128 141 149 151 153 159 164 161 161 163 164 164 165 165 164 163 163 7 20 166 166 167 167 166 167 169 171 175 177 178 179 180 180 182 183 183 184 185 185 187 189 192 192 190 189 191 193 193 194 195 196 196 196 196 195 195 197 198 198 197 196 196 197 197 198 200 201 201 200 198 196 197 197 198 200 201 201 201 201 201 200 200 199 199 200 200 201 199 199 200 200 199 198 197 197 197 197 196 196 197 197 198 199 198 198 199 200 200 200 199 199 199 199 199 199 199 199 199 199 201 201 201 201 41 55 198 198 49 63 194 192 192 194 197 199 196 196 195 195 195 195 196 196 194 194 194 194 193 193 193 193 191 190 189 188 188 190 191 192 191 191 190 189 189 188 187 187 189 188 187 186 184 183 182 181 179 179 179 180 180 181 181 181 180 178 176 176 176 176 174 173 173 173 173 172 173 173 174 175 170 171 171 172 172 171 170 170 174 172 169 167 166 165 166 167 163 162 161 160 159 160 161 161 159 157 156 156 158 158 157 156 152 150 45 95 144 142 25 21 131 126 11 11 112 44 104 100 88 78 73 73 70 68 77 89 103 118 113 96 92 94 99 108 99 96 87 88 92 76 50 42 53 67 66 44 28 32 40 42 33 30 27 25 26 28 30 31 28 35 40 43 54 64 60 47 47 51 61 73 81 83 79 74 64 60 59 62 67 77 95 111 126 138 150 153 153 152 149 145 141 135 128 125 124 121 115 111 111 108 105 104 103 103 101 100 102 102 104 106 109 112 115 116 
184 179 173 167 161 152 141 133 124 116 105 95 86 75 64 56 43 36 32 39 52 68 87 102 112 110 112 121 135 146 151 150 144 134 133 135 135 140 136 120 96 81 64 57 51 43 35 31 26 26 32 48 67 85 101 114 122 131 142 149 151 152 157 161 161 161 163 164 165 165 165 49 63 164 165 165 166 167 168 168 167 168 169 172 175 177 178 179 179 180 180 181 182 183 184 185 186 188 190 191 190 190 191 193 193 194 195 196 196 196 195 195 194 196 198 198 196 195 195 196 196 197 199 201 201 201 199 198 199 199 199 200 201 202 202 202 201 200 200 199 199 200 200 201 200 200 201 201 201 200 199 198 198 197 197 197 197 198 199 200 200 200 200 200 199 199 199 199 200 200 200 200 200 200 200 200 202 202 203 203 201 200 199 199 11 11 196 27 195 195 196 196 196 196 197 197 197 197 196 196 194 194 194 194 193 193 193 193 190 190 189 188 189 190 192 193 191 191 190 189 189 188 187 187 187 187 186 185 185 184 183 183 181 181 182 182 182 182 182 183 180 178 176 176 177 177 176 174 174 173 173 173 174 175 176 177 173 173 174 173 173 171 170 169 172 170 168 166 165 165 166 166 164 164 164 163 163 162 162 162 160 158 157 157 158 158 156 156 151 149 41 55 144 143 7 4 134 128 120 116 115 112 106 102 89 76 67 71 74 74 76 83 96 115 120 113 114 110 101 98 105 106 96 83 68 44 27 29 43 50 45 25 16 27 40 45 48 43 36 33 31 30 29 28 20 23 24 28 40 54 54 45 42 46 55 65 74 77 76 74 61 57 55 57 63 74 94 112 129 140 151 153 152 151 147 144 140 134 126 122 120 118 115 111 109 107 104 102 102 102 100 99 102 102 104 106 109 112 115 116 
186 180 174 168 161 152 141 133 125 117 107 96 86 75 64 56 44 34 28 34 46 64 83 98 105 108 114 126 142 154 154 149 142 129 127 131 131 132 124 107 87 71 54 44 40 34 30 30 33 35 44 61 79 94 109 119 126 134 143 148 150 151 154 158 160 161 162 164 17 166 166 11 11 165 165 166 167 168 168 169 168 169 170 172 176 178 178 179 179 179 179 180 181 182 184 184 184 186 187 189 190 191 192 193 194 194 195 196 196 196 195 194 194 196 197 197 196 195 195 196 196 197 199 200 201 202 201 200 200 200 200 200 201 202 202 203 201 200 200 199 199 200 200 201 200 201 201 202 202 201 200 200 198 198 198 198 198 199 200 200 202 201 200 200 199 199 199 199 202 202 202 202 202 202 202 202 202 202 202 203 201 200 199 199 197 197 198 197 75 196 195 25 21 196 198 199 199 198 196 195 195 195 195 195 194 194 194 194 193 192 191 191 192 193 195 196 191 191 190 189 189 188 187 187 186 186 185 185 185 185 184 184 184 184 184 183 183 183 183 183 178 177 175 175 176 177 175 173 173 172 172 172 173 174 176 176 175 175 175 174 173 171 169 169 169 168 167 165 165 165 165 166 164 164 165 165 164 163 162 162 162 160 158 158 158 158 156 155 151 148 146 145 145 144 141 139 134 129 122 118 117 113 107 103 86 74 66 70 73 70 71 76 96 117 124 120 119 113 101 98 117 107 79 55 41 28 27 40 44 37 20 9 17 35 41 36 48 45 42 40 39 35 30 26 22 24 25 25 32 42 45 43 35 39 47 56 64 70 72 72 62 57 54 55 62 74 96 115 132 143 152 153 151 149 146 142 139 133 125 118 116 114 112 111 107 105 102 101 101 101 100 98 102 102 104 106 109 112 115 116 
187 183 175 170 163 154 143 136 126 119 108 97 87 76 66 58 51 41 32 35 46 63 83 99 105 108 114 123 140 153 152 143 131 118 119 127 130 130 123 108 88 70 50 38 31 28 28 30 38 43 57 77 93 104 114 122 128 134 142 147 149 150 153 156 159 160 161 30 158 165 165 165 165 166 166 167 168 169 169 169 169 170 172 173 176 178 179 179 180 180 179 179 180 182 184 185 184 185 187 189 191 193 193 193 194 195 196 196 196 195 194 194 194 196 198 198 196 195 195 196 197 198 199 200 201 202 201 201 202 201 200 200 200 201 202 203 201 200 200 199 199 200 200 201 200 201 202 202 202 202 201 201 199 199 198 198 199 200 201 201 203 202 201 199 199 199 199 200 203 203 203 203 203 203 203 203 201 201 201 202 200 199 198 198 197 197 199 199 198 197 196 7 4 196 27 199 199 198 124 156 195 195 27 195 194 194 194 194 194 193 192 191 192 193 195 196 191 191 190 189 189 188 187 187 185 185 185 185 185 185 185 185 185 185 184 184 183 182 182 182 176 174 173 173 175 175 174 172 172 172 171 171 172 173 174 174 175 175 174 173 172 170 168 167 167 166 166 165 165 165 165 166 163 163 164 164 163 162 161 161 163 161 159 158 158 158 155 154 151 149 146 145 145 144 142 139 134 129 123 119 117 113 107 102 85 76 70 71 66 59 60 67 107 127 131 120 117 113 110 114 117 96 61 40 37 30 26 34 39 29 12 4 15 32 35 30 40 42 47 53 56 51 41 32 23 27 29 27 27 31 35 37 31 34 40 47 54 61 67 71 62 57 53 54 61 76 97 116 136 145 153 153 150 147 144 139 138 132 124 117 113 111 110 110 106 104 102 101 101 101 100 98 102 102 104 106 109 112 115 116 
190 185 178 173 167 158 148 141 132 124 113 103 94 82 71 63 55 45 36 35 41 55 77 96 109 110 111 116 132 147 147 137 118 107 112 126 130 133 129 118 91 72 50 35 28 25 28 33 40 48 65 86 100 109 116 124 127 132 140 145 147 150 153 155 25 21 159 161 163 164 164 164 166 166 167 168 169 169 170 170 171 171 173 174 177 179 179 180 181 180 180 179 180 182 185 186 186 186 187 190 192 194 193 192 195 195 196 196 196 195 194 193 195 197 199 199 197 196 197 197 199 199 200 200 201 202 201 201 202 201 200 199 199 200 201 202 201 200 200 199 199 200 200 201 199 200 201 202 202 202 201 201 200 200 199 199 200 200 201 202 203 202 200 199 199 200 201 202 203 203 203 203 203 203 203 203 201 201 201 201 200 199 198 198 197 197 199 199 199 198 197 197 196 196 197 75 197 197 156 190 196 196 196 75 195 195 7 21 193 7 21 190 190 191 192 193 191 191 190 189 189 188 187 187 186 186 185 185 185 185 184 184 185 184 183 182 181 180 180 179 175 173 172 172 174 174 173 172 173 172 172 171 171 171 172 172 173 172 172 171 170 168 166 165 165 165 166 166 166 166 166 166 163 163 162 162 162 161 161 161 165 162 160 159 158 157 155 154 152 150 147 146 145 144 141 139 133 129 123 119 117 114 107 101 90 82 77 73 61 51 54 63 114 132 132 120 118 121 126 136 124 96 55 34 38 35 27 29 27 26 18 8 8 17 26 31 40 48 60 75 83 79 65 52 28 30 30 27 25 26 29 31 28 31 35 40 46 54 63 69 64 59 55 56 64 77 99 117 139 148 155 153 149 146 142 137 137 132 125 117 112 109 109 109 106 104 102 101 101 102 101 99 102 102 104 106 109 112 115 116 
193 188 182 178 173 165 155 148 141 133 122 112 103 94 83 76 60 52 43 37 38 50 73 95 114 113 107 107 122 142 144 135 115 106 113 127 130 131 131 124 94 75 52 37 30 30 36 43 49 57 72 90 102 108 115 121 126 130 135 141 146 150 153 155 7 4 158 160 161 163 163 163 167 167 168 168 169 170 171 171 172 172 174 175 178 179 179 180 183 182 180 180 181 183 186 188 189 188 188 190 194 196 194 192 195 196 196 196 196 195 194 193 196 198 200 200 198 197 198 199 201 201 200 200 200 201 200 201 202 201 199 197 197 199 200 202 201 200 200 199 199 200 200 201 198 199 200 201 201 201 201 201 201 200 200 200 200 201 202 203 202 201 200 199 199 200 202 204 202 202 202 202 202 202 202 202 202 202 203 203 201 200 199 199 197 197 198 198 199 199 199 200 196 196 195 195 195 195 196 196 196 196 196 196 195 195 7 20 195 7 20 190 190 18 39 192 191 191 190 189 189 188 187 187 187 186 186 185 185 184 184 183 184 183 182 181 179 178 177 177 175 173 172 173 175 175 174 173 175 175 173 172 172 171 172 172 169 169 169 169 168 166 165 164 165 165 166 167 167 168 168 167 165 164 162 161 160 161 162 163 166 163 161 159 159 157 154 153 154 151 148 146 145 143 140 138 132 128 124 120 118 115 107 102 91 83 78 74 64 56 58 69 105 121 121 115 122 131 137 145 125 100 64 45 48 44 36 38 27 25 18 9 6 14 25 31 45 53 70 90 102 98 83 69 48 41 33 31 32 32 31 30 28 29 32 35 40 48 59 67 71 67 63 64 72 84 104 122 141 150 156 153 148 144 140 136 135 132 126 118 113 109 108 108 106 104 102 101 102 103 102 100 102 102 104 106 109 112 115 116 
195 191 185 181 177 170 160 153 148 141 130 120 113 103 93 85 72 64 55 47 44 54 79 103 117 114 105 102 117 138 144 135 121 110 117 129 129 128 128 123 97 78 55 40 34 36 44 54 60 66 79 92 100 105 111 118 124 128 134 140 145 150 17 155 153 155 157 159 161 162 162 163 167 167 168 169 169 170 171 171 173 174 175 175 177 179 180 180 183 182 181 180 181 183 187 189 190 189 188 191 195 196 194 191 196 196 196 196 196 195 193 193 197 199 201 201 199 198 199 200 202 202 201 200 200 200 200 200 202 200 198 197 196 198 200 201 201 200 200 199 199 200 200 201 198 198 199 200 201 201 201 201 201 201 200 200 200 201 202 203 202 201 199 198 199 201 203 205 202 202 202 202 202 202 202 202 202 204 204 204 203 202 201 200 197 197 198 198 198 200 201 202 197 196 194 193 193 194 196 197 196 196 196 196 195 195 195 195 199 197 195 193 192 33 71 193 191 49 63 189 189 188 187 187 187 187 186 185 185 184 183 183 183 182 181 179 178 176 175 175 176 174 173 174 176 177 176 174 178 177 175 174 173 172 172 172 167 167 167 167 166 165 164 163 164 165 166 168 168 168 168 168 166 165 162 161 160 161 163 164 166 164 161 159 159 157 154 153 155 152 149 147 145 143 140 137 134 130 126 122 119 116 108 103 89 80 74 73 70 65 69 78 90 105 108 108 124 137 139 143 107 98 79 71 73 59 44 42 38 25 10 4 13 24 28 26 42 50 68 88 101 99 84 70 72 55 40 36 40 41 36 30 28 29 31 32 36 45 58 66 78 74 71 73 79 91 111 128 143 151 156 153 147 144 139 135 134 132 127 119 113 109 107 107 107 105 102 102 103 103 102 101 102 102 104 106 109 112 115 116 
197 195 192 189 184 178 171 166 158 153 147 139 129 120 111 107 98 84 70 63 63 70 87 104 120 109 93 85 99 121 135 137 121 122 120 117 121 126 125 120 91 77 58 42 33 31 41 53 71 80 92 99 104 107 110 113 120 45 95 140 144 30 158 153 158 158 159 159 161 163 165 166 172 172 171 171 171 172 173 173 173 174 175 174 173 173 177 179 182 182 183 184 185 185 187 187 189 190 191 192 192 193 192 192 195 195 195 194 194 193 193 193 196 198 200 200 198 197 197 198 200 200 201 201 201 202 201 201 200 200 200 202 202 203 203 204 200 201 200 201 200 201 200 201 200 200 201 202 202 202 201 201 199 198 198 198 198 199 200 201 203 203 202 201 200 200 200 200 202 202 202 202 202 202 202 202 202 203 204 205 205 203 201 199 194 194 195 195 196 197 198 198 197 197 197 196 196 196 196 196 197 197 197 197 196 196 196 197 194 192 190 188 187 188 189 191 191 11 11 190 190 189 189 189 188 188 188 188 188 186 185 185 182 182 181 180 180 179 178 178 177 176 175 173 173 172 172 173 170 170 170 170 170 169 169 170 167 168 168 167 167 166 166 166 164 164 165 166 167 167 167 167 167 167 167 167 166 165 164 163 165 164 163 161 158 155 153 151 155 153 151 148 145 143 142 141 130 127 123 121 120 117 114 110 99 90 77 70 72 78 77 68 64 75 87 96 111 130 137 134 119 103 90 84 72 57 52 56 51 39 28 23 18 17 28 43 45 53 58 72 95 104 97 94 91 77 58 42 35 35 37 38 39 36 34 32 29 30 40 53 68 79 86 85 86 98 117 130 142 145 149 149 146 141 137 136 130 125 119 115 113 112 110 108 104 103 102 100 100 99 100 100 100 101 102 105 108 111 113 115 
198 196 193 191 188 183 176 172 166 161 154 146 139 130 120 116 107 94 82 76 75 81 94 108 116 103 83 73 86 110 129 134 122 122 120 118 122 129 129 125 101 81 58 42 37 41 52 65 74 78 83 88 92 100 110 117 130 41 55 146 148 150 154 156 158 158 158 159 161 163 165 166 172 171 171 171 171 172 173 174 173 174 175 174 174 174 177 181 182 182 182 182 183 184 187 187 189 190 191 192 192 192 192 192 194 194 193 193 193 192 192 192 196 198 199 199 198 197 197 198 199 199 200 200 200 201 200 200 198 199 199 200 201 202 202 202 200 200 200 200 200 200 200 201 200 200 201 202 202 201 201 200 199 198 198 198 198 199 200 201 203 202 201 200 200 200 200 200 203 203 203 203 203 203 203 203 201 202 203 204 204 202 199 198 193 193 194 194 195 196 197 197 197 197 196 196 197 196 196 196 198 198 198 198 197 197 197 198 195 193 191 190 190 191 192 193 192 192 191 191 190 190 190 190 188 188 188 188 187 186 185 184 182 182 181 180 179 179 178 178 177 177 176 175 174 173 173 173 172 172 172 171 170 170 170 170 167 168 168 167 167 167 166 166 164 165 166 167 167 167 167 167 168 168 168 168 167 166 165 164 164 164 163 161 159 156 154 153 155 153 150 147 145 142 141 140 130 128 125 123 121 119 115 111 99 90 77 68 68 70 64 54 46 58 74 88 106 124 132 130 112 102 95 92 79 60 49 49 52 45 41 39 34 29 38 51 62 68 68 76 99 111 109 109 109 92 67 46 37 38 44 48 49 46 41 36 30 28 36 45 69 82 92 93 93 103 118 128 141 144 148 148 145 141 138 136 129 124 118 114 112 110 108 107 106 105 104 102 101 101 101 101 101 101 103 105 108 111 114 115 
202 200 198 194 192 188 182 178 175 171 164 157 150 142 134 129 119 109 99 94 92 95 104 113 111 94 71 60 72 97 120 130 125 124 120 116 119 125 125 121 105 85 63 51 49 53 61 71 77 77 77 77 84 96 27 125 139 141 146 150 152 153 155 157 157 158 158 159 161 163 165 166 171 171 171 171 171 172 173 174 173 174 175 174 174 174 177 181 182 181 180 179 180 182 186 188 189 189 191 192 192 192 192 192 193 193 192 192 192 191 191 191 195 197 199 199 197 196 197 198 198 198 198 198 199 199 199 199 197 197 198 199 200 200 201 201 200 200 200 200 200 200 200 201 200 200 201 201 201 201 200 200 198 198 198 198 198 199 200 200 202 202 201 200 200 200 200 201 204 204 204 204 204 204 204 204 200 200 201 201 202 200 198 196 192 193 193 194 195 195 196 196 197 196 196 196 196 196 196 196 197 197 197 197 196 196 196 197 195 194 193 192 192 193 195 196 193 193 192 192 192 191 191 191 188 188 188 188 187 186 184 183 182 181 181 180 179 178 178 178 178 178 177 176 175 175 174 174 175 175 174 173 172 171 170 170 168 169 168 168 168 167 167 167 166 166 167 168 168 168 168 167 169 169 169 169 168 167 166 165 164 163 163 162 160 158 156 154 155 153 150 147 144 142 140 139 131 129 127 126 124 121 117 112 99 91 79 69 65 63 54 43 32 44 61 80 98 114 121 123 106 103 105 105 91 67 50 45 48 45 48 54 51 46 53 65 77 85 84 91 112 124 122 121 122 104 77 54 43 45 53 59 60 56 51 46 35 30 35 44 71 85 98 101 102 110 120 127 140 143 147 148 145 141 138 137 131 126 120 115 114 112 110 108 109 108 106 104 103 102 102 102 101 102 103 105 108 111 114 116 
203 202 199 198 196 193 187 184 182 179 173 167 161 153 146 141 132 123 112 105 103 106 112 117 108 91 68 58 69 92 114 126 127 124 118 110 111 116 115 111 100 87 73 63 57 56 60 66 75 76 49 63 87 102 119 75 139 141 144 147 150 152 153 154 157 157 158 159 161 163 166 167 170 170 170 170 171 172 173 174 172 173 174 173 173 173 176 179 182 181 179 177 178 181 185 187 188 189 190 192 191 192 192 191 193 193 193 193 192 192 191 191 194 196 198 198 196 195 196 197 196 196 197 197 197 198 197 197 197 196 197 198 198 199 200 200 200 200 200 200 200 200 200 201 200 201 201 201 201 200 199 199 198 198 197 197 198 198 199 200 201 201 200 199 199 200 200 201 203 203 203 203 203 203 203 203 198 199 199 199 199 198 196 195 194 194 194 195 195 196 196 196 196 196 196 195 196 196 195 195 196 196 196 196 195 195 195 196 194 194 193 193 193 194 196 197 194 194 194 193 193 192 192 192 188 188 188 188 186 185 183 183 181 181 180 180 179 178 177 177 179 178 178 178 177 176 175 174 177 177 176 174 173 172 171 170 169 169 169 169 168 168 168 168 167 168 169 169 169 169 168 168 170 170 170 170 169 168 167 166 163 163 163 162 161 159 157 156 154 153 150 146 143 141 139 138 132 130 129 128 126 123 119 114 99 93 83 74 69 64 52 41 29 37 54 72 88 99 108 114 107 109 115 118 105 81 60 52 45 42 46 57 65 67 73 82 87 100 105 111 129 136 126 120 121 107 86 67 56 56 60 65 66 63 61 56 47 40 43 51 70 84 98 103 106 114 124 130 138 142 146 147 144 140 138 136 134 130 124 119 117 115 112 111 109 108 106 104 102 101 101 101 101 102 103 106 108 112 114 116 
206 204 201 200 198 196 192 190 186 183 178 173 168 162 155 151 143 135 122 112 109 114 119 121 109 93 75 68 76 93 110 122 124 122 114 107 109 112 111 107 99 88 74 62 54 50 55 6 30 73 11 11 98 111 125 135 136 137 139 143 148 151 153 154 156 157 158 159 161 164 166 167 169 169 169 170 170 172 173 174 171 171 173 172 171 171 174 178 182 180 178 177 178 180 185 187 188 189 190 191 191 191 191 191 195 195 194 194 193 193 193 193 194 196 197 197 196 195 195 196 195 196 196 196 197 197 196 196 197 197 197 198 199 200 200 201 201 201 201 201 201 201 201 201 200 201 201 201 200 199 198 198 198 197 197 197 197 198 199 200 200 200 199 199 199 200 200 201 201 201 201 201 201 201 201 201 198 198 198 197 197 196 195 195 196 196 196 197 197 197 198 198 196 196 195 195 196 195 195 195 194 194 194 194 193 193 193 194 193 193 192 192 192 193 195 196 194 194 194 194 193 193 192 192 188 188 188 187 186 184 183 182 181 181 180 179 178 178 177 177 178 179 179 179 178 177 175 174 178 178 177 175 174 172 171 171 169 169 169 169 168 168 168 167 168 169 169 169 169 169 168 168 171 171 171 171 170 169 167 166 164 164 164 163 162 160 158 157 154 152 149 145 142 139 138 137 132 131 129 127 126 123 120 116 103 99 90 80 72 65 51 39 28 31 44 62 75 83 93 105 110 113 119 123 115 97 77 66 55 46 48 64 80 88 94 100 105 119 122 122 135 138 124 115 116 110 100 88 77 70 67 66 70 70 70 68 59 50 50 56 68 82 95 101 107 118 129 135 138 142 145 146 143 139 136 135 135 130 123 118 116 114 112 110 106 105 104 102 101 100 100 100 102 102 104 106 109 112 115 116 
210 207 204 202 202 200 197 194 189 186 182 178 174 169 163 159 152 144 131 120 118 123 126 124 112 98 83 81 86 94 106 116 120 118 112 109 110 116 116 112 102 85 63 49 43 45 56 44 65 72 85 97 106 117 127 133 136 137 139 142 148 153 155 155 156 156 157 159 161 164 166 168 168 168 168 169 170 172 173 174 171 172 173 172 171 171 174 178 181 180 179 178 179 181 185 186 188 188 190 191 191 191 191 191 195 195 195 194 194 194 193 193 193 195 197 196 195 194 194 195 195 195 196 196 197 197 196 196 197 197 198 199 199 200 201 201 201 201 201 201 201 201 201 201 200 201 201 201 200 199 197 197 197 197 196 196 197 198 199 199 199 199 199 198 199 200 200 201 200 200 200 200 200 200 200 200 198 198 197 196 196 196 195 195 198 198 198 198 198 198 198 198 195 195 195 195 195 195 195 194 194 194 194 194 193 193 193 193 192 192 192 192 192 192 193 193 194 194 194 193 193 192 192 192 189 188 188 187 185 184 182 181 180 180 180 179 178 177 177 176 177 178 179 179 178 177 175 173 177 177 176 175 174 173 172 172 170 170 170 169 169 169 168 168 170 170 171 171 170 170 169 168 170 170 171 170 169 168 167 166 166 166 165 164 162 160 158 157 154 152 149 145 141 138 136 135 132 130 127 125 124 122 120 117 107 105 96 84 73 64 51 38 25 25 35 53 63 66 77 93 107 107 110 116 117 107 91 78 69 61 62 79 95 98 99 103 115 129 125 117 126 131 120 112 112 114 113 108 98 86 77 72 78 80 84 83 73 60 56 58 70 82 94 101 109 122 134 140 139 142 145 146 142 138 134 133 131 126 120 114 112 110 107 105 103 103 101 100 99 99 99 100 102 103 104 106 109 112 115 117 
216 213 209 207 204 203 201 198 193 190 186 184 181 177 172 167 158 153 143 133 131 135 134 128 115 102 89 88 89 94 101 109 116 115 111 110 112 118 118 113 100 75 48 39 43 51 60 67 69 78 90 101 109 119 128 133 138 138 139 142 148 153 155 155 155 156 157 159 161 164 167 168 168 168 168 169 170 172 173 174 173 173 175 174 173 173 176 180 180 180 180 180 181 182 185 186 187 188 189 191 190 191 191 190 194 194 194 194 193 193 192 192 192 194 196 196 194 193 194 195 196 196 196 197 197 197 197 197 198 198 198 199 200 201 201 202 201 201 201 201 201 201 201 201 201 201 201 200 199 198 197 196 197 197 196 196 197 197 198 199 199 198 198 198 199 199 200 201 201 201 201 201 201 201 201 201 198 198 197 196 196 195 195 195 197 197 197 197 197 197 197 197 195 195 195 194 195 195 194 194 195 195 195 195 194 194 194 194 193 194 193 193 194 193 192 192 193 193 193 193 192 192 192 191 189 188 188 187 185 183 181 180 180 180 179 179 178 177 176 176 176 177 178 179 178 176 25 21 176 175 175 175 174 173 173 173 171 171 170 170 170 169 169 169 171 171 172 172 171 170 169 169 170 170 170 170 169 168 166 166 168 167 166 165 162 160 157 156 154 152 148 144 141 137 135 135 132 129 124 121 121 121 120 118 109 107 100 88 77 68 55 44 27 25 33 51 56 52 60 77 94 92 94 102 111 109 95 80 77 76 83 97 100 91 84 83 98 114 113 106 116 124 116 108 105 110 116 116 110 101 93 89 89 93 100 101 90 75 67 67 73 86 99 106 115 127 137 142 140 143 146 145 141 136 132 130 129 125 118 112 110 107 105 103 101 101 100 100 100 100 101 101 102 103 104 107 110 113 115 117 
219 216 212 209 208 206 203 201 196 194 190 188 185 181 177 172 162 159 151 143 142 144 140 131 116 103 91 90 90 92 97 105 116 115 112 110 112 116 114 109 92 64 39 36 49 61 64 64 79 86 95 104 112 120 129 137 139 138 138 141 147 152 153 152 155 156 157 159 162 164 167 168 167 167 168 168 170 172 173 174 175 175 177 176 175 175 178 182 180 180 181 182 183 183 185 185 187 188 189 190 191 190 190 190 194 194 194 193 192 191 191 191 192 194 196 196 194 193 193 194 196 196 196 197 197 198 197 197 198 198 199 200 201 201 202 202 201 201 201 201 201 201 201 201 201 201 201 200 199 198 197 196 197 196 196 196 196 197 198 199 198 198 198 198 198 199 201 201 202 202 202 202 202 202 202 202 199 198 197 196 196 196 196 196 196 196 196 196 196 196 196 196 195 195 195 194 195 194 194 194 197 197 197 197 196 196 196 196 195 195 194 194 194 193 192 192 193 193 192 192 192 191 191 191 189 188 188 187 185 183 181 180 180 180 179 178 178 177 176 176 176 177 178 179 178 176 7 4 174 174 174 174 174 174 174 173 171 171 171 170 170 169 169 169 172 172 172 172 172 171 170 169 169 169 169 169 168 167 166 165 169 168 167 165 163 160 157 155 154 152 148 144 140 137 135 134 132 128 122 120 119 119 119 119 109 107 101 91 83 74 64 53 32 29 38 54 55 45 49 64 82 79 80 91 105 108 94 77 76 82 95 105 98 77 62 60 68 91 98 98 113 122 112 102 95 102 112 116 114 110 107 105 94 101 110 114 105 89 80 79 77 90 104 112 121 131 139 142 141 144 146 145 141 135 131 129 130 125 119 113 111 108 105 103 101 100 100 100 100 101 102 103 103 103 105 107 110 113 116 117 
221 220 217 213 210 207 205 204 202 199 194 191 189 187 183 181 171 161 149 146 151 153 141 126 111 97 95 94 84 87 96 99 114 109 107 110 116 116 109 102 81 53 32 34 48 59 64 69 80 92 94 99 116 127 130 137 141 140 140 144 149 153 153 151 155 158 161 163 164 166 168 170 168 169 170 171 173 174 175 176 178 178 178 176 174 173 176 180 175 178 179 181 183 184 186 186 186 186 187 189 189 190 190 190 193 193 194 194 193 193 193 193 193 194 196 196 194 194 196 197 200 197 195 194 196 198 197 196 196 197 198 199 199 199 198 198 200 201 201 202 202 201 201 200 202 202 200 199 198 197 197 197 197 197 197 198 199 200 201 202 202 201 200 199 200 201 202 204 202 202 202 202 202 202 202 202 198 198 198 198 198 197 196 195 197 198 200 201 200 198 196 194 196 195 194 193 195 196 197 199 199 198 197 196 196 197 198 199 195 195 194 194 194 194 194 193 192 191 190 191 193 193 191 189 186 187 187 187 186 183 180 177 177 177 177 177 177 177 177 177 173 175 178 181 182 180 178 177 177 176 174 173 173 174 176 178 173 173 173 172 172 171 171 170 173 173 172 171 170 170 169 169 173 171 169 167 166 165 166 166 171 168 166 164 164 163 160 158 147 147 145 142 139 136 133 131 127 124 121 119 119 119 118 117 116 109 101 95 90 79 65 53 37 33 35 42 48 51 54 59 64 67 71 84 102 109 93 72 58 71 93 108 95 62 40 35 37 61 79 95 110 111 107 112 110 110 110 112 114 112 108 104 103 107 115 124 122 107 95 91 92 98 108 118 125 130 135 138 141 143 147 149 147 142 136 132 129 125 119 114 111 107 102 99 100 100 99 98 98 98 99 99 101 102 104 107 111 114 116 117 
222 221 219 216 212 209 207 206 201 198 194 190 188 186 183 180 171 162 152 149 153 153 138 121 104 93 95 95 86 87 99 102 110 107 104 110 118 118 107 96 73 51 33 35 47 55 60 65 76 89 93 99 115 128 132 137 142 141 141 144 148 152 152 151 155 158 161 163 164 165 168 169 169 169 170 171 173 174 175 175 175 176 176 174 173 173 176 179 177 178 179 180 182 183 185 186 186 186 187 187 189 190 191 190 193 193 194 194 193 193 193 193 193 194 196 196 194 194 196 197 200 198 196 195 197 198 197 197 197 197 198 199 199 199 199 199 200 201 201 201 201 201 201 200 202 201 199 198 197 197 197 197 198 197 197 198 199 200 201 202 201 201 200 200 200 201 203 204 199 200 200 200 200 201 201 201 197 198 198 198 199 198 198 197 198 198 199 200 199 198 196 195 195 195 194 194 195 196 198 199 199 198 197 197 196 196 198 198 195 194 194 194 194 193 193 193 192 191 190 190 192 192 190 188 186 187 187 187 185 182 180 178 179 179 179 179 178 178 178 178 172 174 177 179 180 179 7 21 177 176 174 173 173 174 176 177 174 174 173 173 172 172 171 171 174 173 173 172 171 170 170 169 171 171 169 168 167 166 167 167 169 167 164 163 162 161 158 156 147 146 144 142 139 135 133 131 127 124 121 119 119 119 118 117 116 109 103 98 92 82 67 56 40 34 30 33 38 44 51 58 61 63 68 80 97 104 90 72 59 76 97 100 76 46 38 47 52 64 68 73 95 109 111 114 118 117 116 115 114 112 106 101 102 106 118 132 134 122 106 97 98 104 112 119 125 129 133 135 141 143 146 148 146 142 136 132 131 127 121 116 113 110 106 103 101 101 101 100 99 99 99 100 101 102 104 107 111 114 116 117 
222 221 219 218 214 211 210 209 204 200 196 193 191 188 185 183 172 165 156 154 157 152 134 114 95 88 95 98 90 90 103 108 106 101 100 108 118 117 102 87 63 46 35 37 46 50 56 63 74 87 93 100 117 129 133 139 143 142 142 144 147 150 151 151 154 157 161 163 164 165 167 169 169 170 170 171 173 174 174 175 173 173 175 174 173 173 176 179 180 180 179 179 180 182 185 186 186 186 186 187 188 190 190 191 193 193 193 193 193 193 193 193 193 194 196 196 194 194 196 197 201 199 197 197 198 199 198 197 197 198 199 200 200 200 200 199 200 200 200 200 200 200 200 200 200 199 198 197 196 196 196 196 198 198 198 198 199 200 201 202 201 201 200 200 201 202 203 203 197 197 198 198 199 199 199 200 197 197 198 199 200 200 199 199 199 199 199 198 198 198 197 197 195 195 194 194 196 197 198 198 199 198 197 197 196 196 197 197 193 193 194 193 193 192 192 192 192 190 189 189 190 190 189 187 186 186 186 186 184 182 179 178 181 181 180 180 179 179 178 178 173 174 176 178 178 177 7 20 177 175 6 30 173 174 175 176 174 174 174 174 173 173 173 173 175 174 174 173 172 171 171 170 171 171 170 168 168 168 168 168 167 165 162 161 160 159 156 154 147 146 144 141 137 134 131 130 127 124 121 119 119 119 119 118 115 110 105 101 96 86 71 60 49 37 27 24 26 31 40 49 51 54 60 73 91 100 92 79 68 77 88 86 66 46 44 55 70 71 56 52 76 103 110 110 120 119 116 115 112 108 103 99 98 103 118 138 146 136 117 103 101 106 113 120 125 129 133 136 141 143 146 147 146 141 136 132 132 128 122 118 116 113 110 108 104 103 101 101 100 99 99 99 101 102 105 108 111 114 116 118 
223 222 220 218 215 214 212 211 209 205 201 197 195 193 190 188 174 168 161 159 161 152 129 106 86 84 94 100 93 95 108 112 104 97 93 101 113 112 96 80 55 42 34 36 42 47 56 67 74 88 96 104 123 134 136 142 145 144 144 145 146 148 151 151 154 157 160 163 163 165 167 169 170 170 171 172 172 173 174 174 172 173 175 174 174 174 177 180 182 181 179 178 179 181 184 186 185 185 186 187 188 188 190 190 192 192 192 192 192 192 192 192 193 194 196 196 194 194 196 197 201 199 198 198 200 200 199 197 197 198 199 200 200 200 200 200 200 200 199 199 199 199 200 200 199 198 197 196 196 196 196 196 198 198 198 198 198 199 200 201 201 201 201 201 202 202 203 203 197 197 198 198 198 199 199 199 196 197 198 199 200 201 200 200 199 199 198 197 197 197 198 199 195 195 195 195 197 197 198 198 198 198 198 197 196 196 196 196 193 193 193 193 192 191 191 191 191 189 187 187 188 188 187 185 185 185 185 184 182 180 178 177 180 180 180 179 178 177 177 177 175 176 177 178 178 177 175 174 176 175 44 173 173 173 174 175 174 174 174 174 174 174 174 174 175 175 174 174 173 172 171 171 170 171 170 169 169 169 168 168 166 164 161 160 160 158 156 154 147 146 143 139 135 132 130 129 126 123 121 119 119 120 119 118 114 111 108 105 101 91 77 68 60 46 30 21 17 18 26 33 41 43 52 68 85 96 96 90 80 71 66 70 73 67 58 54 76 76 57 45 68 94 102 100 110 108 107 106 106 105 102 100 96 99 111 132 146 142 123 105 101 105 112 118 124 130 136 140 141 143 145 146 145 141 136 133 132 127 122 117 116 114 112 110 104 103 101 101 99 98 98 98 101 103 105 108 111 115 117 118 
222 221 220 218 216 215 214 213 210 206 202 199 197 195 192 189 176 171 166 164 164 152 125 100 81 79 92 101 97 100 111 114 104 94 88 93 104 102 88 72 49 38 31 34 39 46 59 74 77 93 102 111 130 140 140 145 146 146 145 145 144 146 150 151 154 156 160 162 163 164 166 168 170 170 171 172 172 173 174 174 172 174 176 176 176 176 178 181 182 181 179 178 179 181 184 186 185 185 186 186 187 188 189 190 192 192 192 192 192 192 192 192 193 194 196 196 194 194 196 197 200 199 198 199 200 201 198 197 197 198 199 200 200 200 199 199 200 199 198 197 197 198 199 200 198 198 197 196 196 196 197 197 199 199 198 198 198 199 200 201 201 201 202 202 203 203 203 203 200 200 200 200 200 200 200 200 196 196 197 198 200 200 200 200 199 198 197 197 197 198 199 199 195 195 196 196 198 198 198 198 198 198 198 197 196 195 195 194 194 194 193 192 191 190 190 189 191 188 186 185 185 186 185 184 184 183 183 181 180 178 176 175 177 177 177 176 176 175 175 175 178 179 179 179 179 177 176 175 176 175 174 174 173 173 173 173 174 174 174 174 174 174 174 174 175 175 174 174 173 172 171 171 169 170 170 170 169 168 167 167 166 164 162 160 160 159 156 154 147 145 141 137 133 130 129 128 126 123 121 7 21 120 120 119 116 113 110 108 104 95 84 76 67 52 36 27 18 15 17 22 36 38 48 63 78 87 91 91 79 65 56 64 77 77 65 53 66 75 65 55 70 88 94 96 97 96 96 99 103 106 106 106 101 100 106 122 138 142 127 109 104 107 113 118 123 129 135 139 141 143 145 145 144 140 136 133 130 125 119 115 114 112 111 109 103 102 101 99 98 97 97 96 102 103 105 109 112 115 117 119 
220 220 219 217 215 214 213 213 209 205 201 198 196 194 191 188 177 173 169 167 166 152 123 96 78 75 87 98 99 103 111 112 102 93 86 89 95 90 76 61 41 31 26 31 38 47 62 78 83 100 110 120 136 144 143 146 147 147 147 145 143 144 148 151 153 156 160 162 163 164 166 168 171 171 171 172 172 173 173 173 173 175 178 178 177 176 177 180 180 180 179 179 180 182 185 186 184 185 185 186 187 188 188 188 191 191 191 191 191 191 191 191 193 194 196 196 194 194 196 197 199 198 197 199 200 200 197 195 196 197 198 198 199 199 198 198 200 199 197 196 196 197 199 200 199 198 197 197 197 197 198 198 200 199 199 198 198 199 200 200 201 201 202 203 204 204 203 203 203 202 202 201 200 200 199 199 195 196 197 198 199 199 198 198 197 197 198 198 198 199 199 199 195 195 196 197 199 199 198 198 197 198 198 198 196 195 193 193 194 193 192 191 190 189 188 188 190 188 184 183 183 184 183 182 182 181 180 178 177 175 174 173 173 173 173 173 174 174 174 174 180 180 180 179 178 177 176 175 175 175 174 174 173 172 172 171 173 173 173 173 174 174 174 174 175 174 174 173 172 171 171 170 169 170 170 169 168 166 165 164 166 164 161 160 159 158 155 153 147 145 140 136 131 129 127 127 125 122 120 7 20 120 120 119 117 116 113 110 107 99 91 85 71 59 44 34 27 19 17 20 34 37 46 59 67 71 75 79 68 64 62 64 68 68 64 60 57 71 72 70 78 84 90 100 95 94 94 98 103 109 111 113 110 106 105 115 131 140 131 118 112 114 117 119 122 127 133 137 141 143 144 144 143 139 136 133 129 124 117 112 111 109 108 106 101 101 100 99 97 97 97 97 102 104 106 109 112 115 118 119 
217 216 215 214 213 212 212 211 209 206 201 198 196 194 190 188 179 175 171 169 167 152 122 94 77 71 80 93 98 103 110 108 97 91 87 88 89 81 64 50 29 21 20 29 40 49 63 78 89 106 116 125 141 147 144 146 148 148 148 145 142 142 147 150 153 156 159 161 162 164 166 168 171 171 172 172 172 172 173 173 173 175 178 177 176 174 175 177 177 178 179 180 182 183 185 186 184 184 185 186 187 187 188 188 191 191 191 191 191 191 191 191 193 194 196 196 194 194 196 197 197 197 197 198 200 199 196 194 195 195 196 197 198 198 197 197 199 198 196 195 195 196 198 199 199 199 198 198 198 198 199 199 200 199 199 198 198 199 199 200 200 201 203 204 204 204 203 203 205 204 203 202 200 198 197 197 195 196 196 197 197 197 196 195 195 196 198 199 200 199 198 198 194 195 197 198 199 199 198 198 197 197 198 198 196 194 193 193 194 193 192 191 190 188 187 187 190 187 183 181 180 181 182 181 180 179 177 175 174 173 172 171 171 171 172 172 173 174 174 175 180 180 179 178 177 175 174 173 175 175 175 174 173 172 171 170 171 171 172 172 173 173 174 174 174 173 173 172 171 170 170 169 169 170 170 169 167 164 162 160 164 162 159 158 157 156 153 151 147 144 139 134 130 127 126 126 125 122 120 119 120 121 120 120 119 117 114 111 108 102 97 93 79 68 54 43 34 25 20 20 30 33 41 52 57 56 59 65 63 64 63 61 61 65 71 75 64 74 77 79 82 79 85 105 103 101 99 100 104 108 111 112 114 110 106 111 127 141 136 124 117 119 120 122 124 129 135 140 142 143 144 144 142 139 135 133 129 123 116 111 109 108 107 105 101 101 100 99 99 99 99 99 103 104 106 109 113 116 118 119 
215 215 214 213 212 211 211 210 212 208 204 200 198 196 193 190 179 175 171 170 167 153 121 94 76 67 75 89 95 101 108 102 93 90 88 90 87 76 57 43 22 15 16 29 42 51 63 76 92 109 118 128 143 147 144 145 149 150 149 145 141 142 146 150 153 156 159 161 162 163 166 168 171 171 172 172 172 172 173 173 174 175 177 177 175 173 174 175 175 177 179 181 183 184 185 185 184 184 185 186 186 187 188 188 191 191 191 191 191 191 191 191 193 194 196 196 194 194 196 197 196 196 196 198 199 199 196 194 194 195 196 196 197 197 196 196 199 198 196 195 195 196 198 199 200 199 199 198 198 199 200 200 200 200 199 198 198 198 199 199 200 202 203 204 205 204 203 202 206 205 203 201 199 197 195 195 197 197 197 197 196 195 194 193 194 196 198 200 201 200 198 197 194 196 197 198 200 199 198 197 197 196 197 197 197 195 193 192 193 193 192 191 189 188 187 186 190 186 181 180 181 181 181 181 179 178 176 174 172 171 170 170 170 170 171 172 173 174 175 176 180 179 178 177 175 174 173 172 175 175 175 174 173 172 171 170 170 171 171 172 172 173 173 173 173 173 172 171 170 170 169 169 169 170 170 169 166 163 160 158 162 160 157 156 156 154 152 149 147 144 139 134 129 127 126 125 124 122 120 119 120 121 27 120 119 118 116 111 108 104 100 97 89 77 62 50 38 27 20 19 23 25 35 46 49 47 51 58 67 63 56 55 62 74 83 87 77 80 79 81 81 73 81 106 112 108 104 102 103 105 107 107 114 110 105 109 125 139 138 127 117 119 121 123 127 133 141 146 142 142 143 143 142 139 135 133 129 124 116 110 108 107 106 104 101 101 101 100 100 100 101 101 103 104 106 109 113 116 118 119 
213 212 211 211 210 211 210 210 207 206 203 201 198 195 193 191 186 181 174 171 166 148 120 99 78 77 77 83 97 108 106 98 91 90 89 90 86 75 56 42 20 15 20 32 41 51 69 89 103 116 129 135 139 145 147 145 153 151 147 143 142 143 146 148 154 156 159 160 160 161 164 166 171 171 171 171 171 173 174 174 173 174 176 176 176 176 174 174 177 177 178 178 178 178 178 178 181 181 183 184 184 184 184 184 188 188 189 190 190 191 190 190 192 192 192 193 194 195 197 197 199 199 198 197 197 196 196 196 195 196 197 198 198 198 198 197 199 198 197 196 196 196 196 196 199 199 200 200 199 197 195 194 197 197 196 195 195 195 196 196 200 200 200 200 200 200 200 200 197 199 201 201 199 198 198 199 197 197 197 197 197 197 197 197 197 197 197 198 198 199 199 200 197 197 198 197 196 195 193 193 193 194 195 195 195 194 193 193 191 192 193 193 192 190 188 186 187 186 184 181 180 178 178 178 177 176 174 173 172 173 174 174 170 171 174 176 177 176 175 174 178 179 179 177 174 172 172 173 173 174 175 174 172 170 169 170 167 168 169 170 170 170 170 169 172 171 170 170 171 171 168 166 168 169 169 169 167 166 164 163 161 160 158 157 157 155 152 149 140 139 137 135 132 129 128 126 121 120 119 118 118 118 118 75 118 117 116 114 111 108 106 104 95 85 71 57 46 35 25 18 15 20 30 35 32 29 35 44 60 62 58 57 67 85 93 93 99 78 65 74 83 86 92 103 114 109 103 99 100 104 108 111 119 120 115 110 119 136 141 134 123 123 124 127 130 135 139 142 145 144 143 143 143 140 137 134 127 122 116 110 106 104 102 102 101 102 101 100 100 100 101 101 104 104 106 109 113 117 120 122 
212 211 209 209 208 208 209 209 208 206 204 202 199 196 194 193 189 182 177 175 169 151 122 102 79 76 74 81 96 107 105 96 91 88 86 85 81 70 52 37 21 18 25 39 48 56 72 91 107 120 133 139 143 146 148 146 153 151 147 144 142 143 146 148 154 156 159 160 161 162 164 166 170 170 170 170 171 172 173 174 174 175 176 177 177 176 175 174 178 178 179 179 180 180 181 181 182 182 182 182 183 183 184 184 187 187 188 188 189 190 190 189 192 192 193 194 194 195 196 196 198 198 198 198 198 197 197 197 195 196 197 197 198 198 198 198 201 200 199 198 198 198 198 199 199 200 200 200 199 198 196 195 198 197 196 195 195 195 195 196 199 199 199 199 199 199 199 199 199 200 200 198 196 194 195 196 197 197 197 197 197 197 197 197 196 197 197 197 198 198 199 199 198 197 197 197 196 195 194 193 195 194 194 194 193 193 193 193 190 190 190 190 189 186 184 183 184 183 182 181 179 177 176 175 174 173 172 171 170 171 171 172 170 172 174 177 178 178 177 176 176 177 176 174 171 170 171 172 172 173 175 174 171 169 169 170 167 168 168 169 169 170 169 169 172 170 169 170 171 171 169 167 167 168 168 167 166 164 163 162 159 157 156 155 154 153 149 147 141 140 138 135 132 129 127 126 121 121 121 120 120 119 118 118 118 27 118 116 112 110 105 104 95 88 76 65 55 42 31 22 14 18 25 28 24 21 25 33 46 53 55 57 70 88 99 99 102 80 65 72 88 98 102 105 98 97 96 97 99 101 103 103 119 124 124 119 123 135 138 133 127 126 125 126 130 136 141 145 146 145 144 143 142 140 136 133 127 122 115 111 107 105 103 103 101 102 101 100 100 101 101 102 106 107 108 111 115 118 121 123 
209 209 209 208 208 207 206 206 207 206 204 202 199 196 194 193 189 184 181 179 172 153 125 103 85 79 75 81 97 108 105 95 88 83 79 77 74 63 46 32 22 23 31 45 55 63 77 93 113 125 137 144 147 148 148 145 153 150 147 144 143 144 146 148 154 156 159 160 161 162 165 167 169 169 169 170 170 172 173 174 176 177 177 177 177 176 175 174 178 179 179 180 181 182 183 184 183 182 181 180 181 182 184 185 185 185 186 186 187 187 188 187 190 191 193 195 195 195 194 194 197 197 197 197 197 198 198 198 196 196 196 197 197 197 198 198 203 202 201 200 200 200 201 201 200 200 200 200 199 198 197 196 198 197 196 195 195 195 195 195 198 198 198 198 198 198 198 198 199 199 198 195 192 190 192 193 196 196 196 197 197 197 197 197 196 196 196 197 197 197 197 198 197 197 196 195 194 194 194 193 195 194 193 191 25 21 192 193 187 187 187 187 185 182 179 178 179 180 180 179 178 175 173 172 171 170 169 168 168 168 169 169 168 170 172 174 176 176 175 175 173 173 172 170 167 166 168 170 170 172 25 21 170 168 168 169 167 167 168 168 168 169 169 169 171 169 168 169 170 170 169 168 166 166 165 165 164 162 160 159 158 156 155 155 154 152 149 146 142 140 138 134 131 128 125 124 122 123 123 123 122 120 119 117 117 117 75 118 114 110 105 103 97 92 84 75 66 53 39 29 12 15 20 23 19 15 18 25 31 42 51 56 68 87 100 101 95 76 61 67 88 104 104 96 83 87 92 96 99 99 97 96 108 121 129 128 128 134 137 136 130 129 127 128 131 138 145 149 147 146 144 143 142 139 135 131 128 123 116 110 107 106 105 104 101 102 101 101 101 101 102 102 109 109 111 113 117 120 123 125 
207 207 207 206 206 205 203 202 205 204 202 199 197 194 193 192 188 184 181 180 172 153 125 104 93 86 80 84 99 111 107 96 84 76 70 68 67 58 42 30 23 26 35 47 59 67 83 96 118 130 141 147 148 148 148 145 152 150 147 145 144 145 147 148 153 156 159 160 161 163 165 168 170 170 170 170 171 173 174 175 176 176 176 176 176 175 174 174 177 177 178 180 181 182 183 184 184 182 180 179 179 181 183 184 183 184 184 184 185 185 186 186 188 190 192 194 195 194 192 191 193 193 194 194 195 196 196 196 195 195 195 195 196 196 197 198 202 201 200 200 200 200 201 201 200 200 199 199 199 198 197 197 198 197 196 195 194 194 194 194 197 197 198 198 198 199 199 199 199 199 197 193 190 190 192 195 195 196 196 196 196 197 197 197 195 195 195 196 196 124 156 196 196 156 194 194 45 95 193 193 95 193 191 188 7 4 190 191 185 185 185 184 182 179 176 174 175 176 177 177 176 173 170 168 168 169 168 169 167 167 168 168 166 167 168 169 170 170 169 169 170 170 169 166 163 164 165 168 169 170 7 4 169 167 167 168 167 167 167 167 167 168 169 169 170 168 167 167 169 170 169 169 166 166 166 165 164 162 161 160 161 159 157 156 156 154 150 147 141 140 137 133 129 126 123 121 124 125 126 126 125 122 119 117 115 116 118 124 156 110 103 49 63 95 90 84 76 63 48 38 15 14 17 20 18 15 18 24 26 37 46 49 59 77 91 94 81 72 64 69 88 103 98 85 75 80 86 91 92 90 87 86 90 107 124 128 127 131 136 138 131 131 131 133 137 142 147 150 147 146 144 142 141 138 133 129 127 122 116 110 108 106 105 105 101 101 101 101 101 102 103 103 109 110 112 114 118 121 124 126 
204 204 204 204 203 202 199 198 200 199 198 195 192 190 188 188 184 181 179 176 168 149 122 103 96 90 85 88 101 111 106 95 79 70 62 61 61 56 42 30 25 29 37 48 60 72 89 102 122 132 144 147 147 147 147 144 151 150 148 146 145 146 147 149 152 18 39 159 160 162 165 167 170 170 170 171 172 174 176 177 175 174 174 173 174 173 173 173 174 175 176 177 179 180 181 182 183 182 180 178 178 179 181 183 182 182 183 183 183 184 184 184 187 188 191 192 193 192 190 188 190 190 190 191 192 192 193 193 194 194 193 193 193 194 196 196 199 198 197 197 197 198 199 199 199 198 198 198 197 197 197 197 198 197 196 194 194 193 193 193 197 197 197 198 198 199 199 200 198 197 196 194 192 192 195 198 194 195 195 196 196 27 197 197 195 45 95 194 194 156 190 194 194 193 192 191 41 55 192 192 193 191 188 186 185 185 187 188 183 183 183 182 179 176 173 171 172 173 174 175 174 171 168 166 168 169 169 169 168 169 168 169 167 167 167 166 167 165 164 164 168 168 168 164 163 162 164 165 166 169 169 170 167 167 166 167 167 166 166 165 166 167 168 169 168 166 165 165 168 169 170 170 167 167 167 166 165 163 162 162 162 160 158 156 155 153 149 146 140 139 136 132 128 125 122 120 126 127 127 127 125 122 118 117 113 114 116 156 190 107 102 11 11 95 92 25 21 71 56 17 24 20 18 39 19 16 17 17 21 31 18 39 47 64 17 84 69 71 74 81 93 98 90 77 73 77 82 83 81 79 78 78 77 94 113 121 121 124 128 132 129 131 134 139 142 145 147 147 146 144 142 141 139 135 131 128 126 122 115 110 107 106 105 105 102 101 101 101 102 103 104 104 109 110 111 114 118 122 125 127 
201 202 202 202 201 199 196 194 196 195 194 192 189 187 185 185 180 177 175 171 162 144 119 102 95 92 89 91 100 107 103 93 78 67 57 55 58 55 43 32 26 31 41 51 64 80 97 110 125 135 144 145 145 146 148 146 150 149 148 147 146 147 148 149 150 33 71 158 7 21 164 167 169 17 170 170 172 174 176 177 173 172 172 171 172 173 174 174 173 174 175 176 177 178 178 179 182 181 180 178 178 179 180 181 182 182 182 183 183 183 184 184 186 187 188 189 189 188 187 186 188 188 188 189 189 189 189 189 193 192 191 190 191 192 193 195 194 195 193 194 193 195 195 196 196 196 195 194 194 195 195 196 197 196 195 193 192 192 192 192 195 195 196 197 197 198 198 199 196 197 197 195 194 194 25 21 194 194 194 17 196 196 75 197 194 41 55 193 193 193 193 192 191 190 189 188 188 189 190 191 189 187 185 183 182 182 183 183 179 179 179 179 177 174 171 170 171 171 172 172 171 169 167 167 167 168 169 170 170 170 169 169 168 167 166 165 165 164 164 163 165 166 167 166 164 163 164 165 164 166 167 17 166 164 165 166 166 166 165 164 164 166 167 169 167 165 163 164 166 169 170 170 168 167 167 166 165 163 163 162 160 158 155 154 152 150 146 143 140 139 137 133 130 126 124 122 128 128 128 126 124 121 118 117 113 113 114 113 110 106 101 98 98 95 93 7 4 76 30 158 38 30 33 71 19 14 30 158 17 24 33 71 38 30 158 73 58 64 76 88 93 88 77 68 77 81 84 83 80 79 81 83 81 92 104 112 115 116 118 120 124 128 133 139 142 144 144 143 143 141 139 138 137 134 130 126 125 120 114 109 106 106 105 104 102 101 101 101 102 103 105 105 108 109 111 115 120 124 128 130 
199 200 201 201 199 197 193 191 194 193 192 190 187 185 184 184 178 174 171 167 157 140 117 102 94 95 95 97 101 106 101 93 81 68 57 54 56 54 43 32 26 35 47 60 74 90 106 115 129 139 144 144 143 147 150 149 150 149 148 148 147 148 148 149 148 151 154 156 7 20 163 165 30 158 167 168 170 172 174 175 172 172 171 171 173 174 176 177 174 174 175 175 176 176 177 177 181 180 180 179 179 178 178 178 182 182 182 183 183 183 184 184 185 185 185 185 185 185 185 185 189 189 189 188 188 188 188 188 191 190 189 188 188 190 192 192 193 192 192 192 193 193 195 195 196 195 194 193 193 194 195 196 198 197 196 194 193 192 192 192 192 192 193 194 195 195 196 124 156 198 6 30 195 193 7 4 193 193 30 158 196 196 197 197 194 193 193 193 192 192 191 191 189 188 186 185 185 186 188 189 185 184 183 182 181 179 179 178 174 175 175 175 173 171 169 167 171 171 170 170 169 168 169 168 166 165 167 168 170 169 169 168 164 164 164 163 163 164 164 165 163 166 168 169 166 164 163 163 162 164 30 158 165 164 164 165 166 165 164 163 163 165 167 168 166 164 162 163 166 169 170 171 166 166 166 166 165 163 161 160 160 158 155 154 152 149 146 143 142 141 139 136 133 130 128 127 130 129 127 125 122 120 118 118 115 114 114 112 109 106 102 100 100 95 92 89 86 79 70 63 47 37 28 24 22 17 12 12 14 20 23 25 35 52 60 59 53 57 71 89 93 81 69 65 73 78 83 84 82 83 87 92 93 95 100 107 112 114 114 114 121 123 128 133 137 139 139 139 139 138 136 136 135 133 128 126 123 119 112 107 105 105 104 103 101 101 101 102 103 104 105 106 108 109 112 117 122 128 132 135 
198 199 200 200 198 196 192 190 193 193 191 190 187 185 184 184 177 174 170 164 154 137 116 102 95 99 101 102 104 107 102 95 84 70 57 53 55 54 42 31 27 38 53 68 82 98 111 120 132 141 145 144 143 148 152 152 150 149 148 148 147 148 149 149 147 150 153 155 157 159 162 165 164 164 165 166 168 170 172 173 173 172 172 172 174 176 178 180 175 175 176 176 176 176 176 176 179 180 180 180 180 178 177 177 182 182 182 183 183 184 184 184 185 184 184 183 183 183 184 184 190 190 190 189 189 188 187 187 190 189 187 186 187 188 191 192 192 192 191 192 192 193 194 195 195 194 192 192 191 193 194 196 197 197 195 194 191 192 190 191 189 190 190 18 39 193 194 156 190 198 44 198 194 192 191 191 192 193 194 194 195 196 197 197 193 193 193 192 192 191 191 190 188 186 184 183 183 185 187 188 182 182 182 181 180 178 176 175 171 171 172 173 171 169 167 165 171 171 169 168 168 168 169 169 164 164 166 167 169 168 168 167 158 158 159 159 160 162 163 164 162 166 169 170 167 165 163 162 161 163 165 165 164 163 164 165 166 165 163 162 163 165 167 168 166 163 161 162 165 169 171 171 164 165 165 164 163 162 160 159 162 160 157 156 154 151 148 144 144 142 141 139 136 134 132 131 131 129 127 123 121 119 117 117 116 116 114 112 109 106 103 102 102 97 92 89 86 81 74 68 52 41 31 28 26 21 18 18 16 20 23 25 35 50 53 47 58 57 70 93 99 84 71 69 61 68 74 78 78 80 86 91 101 97 97 104 113 117 116 115 119 120 123 127 131 134 136 138 137 136 135 134 134 132 127 125 122 117 111 107 106 105 103 102 101 101 101 102 103 104 105 106 108 110 113 118 124 130 135 138 
196 196 197 198 197 196 193 192 195 194 191 189 186 183 181 180 179 174 168 160 150 137 123 115 102 107 111 114 110 103 96 92 80 69 56 48 47 43 37 30 31 40 56 77 98 113 122 126 141 143 147 147 146 146 147 148 147 148 148 149 148 149 149 150 149 151 153 157 159 162 163 164 167 168 168 169 171 172 172 173 173 173 172 172 173 174 174 175 177 176 176 176 176 177 178 178 181 180 179 177 177 176 176 176 176 177 178 179 180 181 181 182 182 183 184 185 185 185 185 184 182 182 182 183 185 187 190 191 190 188 186 186 188 190 190 190 189 190 190 190 191 191 191 192 190 189 187 186 187 189 192 193 198 194 191 191 49 63 191 18 39 188 191 33 71 197 197 197 197 196 196 195 193 191 190 189 191 192 194 195 196 195 194 193 190 190 189 188 187 186 185 185 189 188 186 184 183 182 181 181 176 177 176 175 175 175 174 174 169 170 169 169 169 169 169 169 173 173 173 172 171 170 169 168 164 165 166 167 167 166 164 163 163 161 158 156 156 158 160 162 160 159 160 163 167 168 165 162 162 159 157 161 168 170 166 161 161 160 159 160 163 164 164 163 159 163 169 173 174 171 167 164 162 163 163 163 162 160 159 159 157 159 162 163 161 156 151 147 143 143 142 141 138 135 131 129 135 131 125 122 120 119 117 116 118 118 116 114 112 109 107 104 104 103 99 96 91 85 80 77 65 54 41 33 32 28 22 17 17 20 25 30 32 34 36 37 45 69 87 87 85 86 78 63 52 58 69 80 79 73 74 80 92 94 99 107 116 119 117 114 120 120 120 123 126 129 130 129 132 132 132 132 131 130 125 122 117 114 109 106 105 104 102 101 100 100 100 101 103 105 107 108 106 108 112 117 123 129 134 137 
195 196 195 196 195 194 192 190 192 191 189 186 183 181 179 178 172 168 163 157 149 140 129 122 110 112 113 113 106 99 91 87 78 64 50 43 44 43 38 32 31 41 59 81 102 117 126 130 142 144 147 148 147 147 147 148 148 148 149 149 148 148 148 149 149 151 154 157 160 162 163 164 169 169 170 171 172 173 174 175 175 175 175 174 176 176 177 178 177 177 176 176 177 178 179 180 180 179 178 177 177 176 177 177 178 177 177 178 178 179 180 181 180 181 182 183 183 183 183 182 180 179 179 180 181 183 185 186 185 183 181 182 184 185 186 185 186 186 187 187 188 188 188 188 189 188 187 187 187 189 190 191 7 21 188 187 11 11 189 33 71 188 190 191 192 193 192 192 193 193 193 193 192 191 190 190 190 190 191 191 190 189 188 187 186 186 186 185 184 184 183 183 185 184 184 182 181 180 179 178 177 176 176 176 176 175 174 174 171 170 169 168 167 167 167 166 171 170 170 169 168 168 167 167 160 160 162 162 162 161 159 158 158 156 153 151 150 151 152 154 155 154 154 155 157 159 160 159 159 25 21 154 155 156 156 155 156 156 155 152 149 149 152 155 163 166 171 174 174 171 166 163 166 164 163 162 161 161 159 158 157 158 159 159 156 151 146 143 145 144 143 140 136 132 128 126 127 125 123 122 122 120 117 115 116 115 114 112 110 106 103 101 105 103 100 95 91 86 82 79 70 61 50 42 37 32 25 18 17 20 25 28 27 27 29 31 53 75 91 87 81 81 74 61 54 59 69 76 74 68 68 74 85 89 97 106 114 117 116 114 118 119 121 125 129 132 133 134 135 134 134 134 132 128 124 120 116 112 108 105 104 103 102 100 100 100 101 102 103 105 107 108 111 112 115 119 125 130 135 138 
196 196 196 196 195 193 190 188 190 189 186 183 180 177 175 174 165 161 157 152 148 142 135 130 119 118 114 109 101 93 85 81 75 61 43 38 41 43 40 35 31 43 63 86 108 122 131 134 141 144 147 149 148 147 148 149 149 149 149 149 147 147 147 147 149 151 154 157 160 162 163 164 167 168 169 170 171 173 173 174 175 175 174 174 176 177 178 178 175 175 175 176 177 178 180 180 179 178 178 178 178 178 177 177 179 178 177 176 176 177 179 180 178 179 179 180 181 181 180 180 177 177 177 176 177 178 179 179 179 178 176 177 178 180 180 179 182 182 182 183 183 183 184 184 186 186 186 186 124 156 187 188 7 20 184 182 183 185 185 185 185 186 187 187 188 187 187 187 189 189 189 189 189 189 189 189 186 186 186 185 184 182 180 179 181 181 181 181 181 181 181 181 179 179 180 180 179 177 175 174 176 174 173 173 172 171 171 171 170 169 166 164 164 164 164 165 169 168 166 165 164 164 165 166 158 159 160 161 160 158 157 156 155 154 151 148 147 146 147 147 149 150 149 148 148 150 154 157 154 7 4 145 140 139 143 147 148 152 151 145 136 134 139 145 147 152 158 165 171 173 173 172 174 170 165 164 166 167 165 163 158 159 158 157 155 151 149 147 147 146 144 140 135 130 127 125 122 122 122 123 123 122 118 114 116 116 116 114 111 107 102 99 105 104 100 94 90 86 83 82 76 70 61 53 44 36 28 22 19 23 26 26 24 24 28 32 61 81 93 84 74 72 67 59 60 63 69 70 66 61 63 68 77 83 93 101 105 108 111 112 117 119 123 127 132 135 138 139 140 139 136 135 133 127 122 118 114 110 106 104 103 103 101 100 100 101 101 102 104 106 108 109 116 116 118 121 126 133 138 142 
196 196 196 197 194 193 190 188 187 185 183 181 178 175 173 172 164 160 154 149 145 141 136 132 124 120 112 105 97 88 81 78 75 60 42 36 39 42 40 36 29 44 66 91 112 125 133 137 140 143 147 149 148 147 149 149 150 150 149 149 147 146 146 146 148 149 152 155 158 160 162 162 164 164 166 167 169 170 171 172 172 172 172 172 173 174 175 176 174 174 174 175 176 177 179 180 179 179 179 180 179 179 179 178 179 178 176 175 174 175 177 178 176 177 178 179 179 179 179 179 178 177 177 176 176 176 176 176 176 175 173 175 176 178 177 177 178 179 178 180 179 180 180 180 182 27 183 184 156 190 183 182 186 184 181 179 179 180 182 183 182 182 183 183 184 184 184 184 186 186 185 185 184 184 184 184 180 180 180 179 178 177 176 176 178 178 178 178 178 178 179 179 173 175 176 177 177 124 156 170 171 171 170 169 168 167 166 166 168 167 165 163 163 163 164 164 167 165 163 161 160 161 162 163 156 156 157 157 156 154 152 150 151 150 148 145 142 141 139 139 137 140 142 140 138 139 143 147 142 141 137 132 128 127 128 129 133 134 134 129 123 121 124 128 125 130 138 148 158 164 169 172 173 168 163 163 167 169 169 167 157 156 156 155 154 153 152 152 151 149 147 143 139 135 131 130 125 124 124 124 124 123 120 117 120 120 120 118 114 110 105 102 105 102 99 94 89 86 85 84 80 76 68 58 47 38 31 27 23 25 26 24 22 25 36 45 67 84 91 80 68 65 64 61 68 69 68 64 57 55 61 68 73 78 85 90 93 97 103 107 118 121 126 131 134 137 140 141 144 142 138 135 133 127 120 116 112 108 105 103 102 102 101 100 101 101 102 103 105 107 108 110 117 117 119 122 128 135 141 145 
196 197 197 197 195 192 188 187 184 184 182 179 176 173 171 170 166 161 154 148 143 138 132 128 125 118 108 101 94 86 80 77 77 64 48 39 38 39 37 34 29 44 70 96 114 126 133 135 139 143 147 149 149 149 148 149 149 149 149 148 146 146 145 145 146 147 150 153 156 158 160 160 163 164 165 167 169 170 172 172 172 172 171 171 172 172 173 173 175 175 175 175 176 178 179 180 179 180 180 181 181 180 178 178 177 176 175 174 174 174 175 176 176 176 177 178 179 179 178 178 179 179 179 178 177 176 175 175 174 173 173 174 176 176 175 174 174 174 175 175 175 176 176 176 178 178 75 179 178 178 177 177 181 180 178 178 176 178 179 180 178 178 179 180 181 182 183 184 184 183 181 179 178 177 177 177 175 176 175 176 175 176 175 177 175 176 176 177 176 45 95 176 170 41 55 174 174 156 190 170 169 169 168 168 167 166 165 165 164 164 163 162 162 163 164 165 163 161 159 157 156 156 156 156 149 149 149 149 147 145 143 141 142 141 140 137 134 131 129 127 123 127 131 131 129 128 129 27 126 123 119 120 121 120 115 110 109 108 108 109 110 111 110 110 117 119 123 129 136 144 151 155 161 158 156 157 161 165 166 166 157 156 156 155 154 153 153 153 153 152 150 147 144 142 140 139 136 132 128 126 125 124 122 121 122 122 121 119 116 111 108 105 106 103 99 94 90 88 86 86 82 77 69 58 49 40 34 30 24 23 21 19 20 29 44 57 72 83 87 78 67 66 68 68 72 72 68 60 53 55 64 72 74 76 78 79 81 86 95 102 118 123 128 132 135 136 139 141 145 143 139 136 133 127 119 114 110 107 104 102 102 102 103 101 102 102 103 104 105 107 109 110 114 116 118 123 129 136 143 147 
196 197 196 195 193 190 186 184 183 182 180 177 173 171 168 167 165 159 152 145 139 133 126 122 123 115 105 97 92 86 80 77 76 66 54 44 38 36 33 31 29 46 74 100 117 126 131 134 136 141 145 148 148 148 148 148 148 148 148 148 146 146 146 146 146 147 150 153 156 158 160 160 166 166 168 170 172 173 175 176 175 174 173 171 172 171 171 172 176 176 175 175 175 176 177 178 179 179 180 180 179 177 175 174 174 174 174 174 174 175 174 174 174 175 176 177 177 177 177 176 179 179 179 179 178 177 175 174 173 172 172 174 176 176 174 173 171 171 172 172 172 7 21 172 172 173 172 172 171 172 171 172 174 176 176 176 173 174 175 176 175 175 175 176 177 179 181 182 180 178 176 173 171 171 171 171 173 172 7 21 172 173 45 95 173 173 6 30 173 41 55 173 167 168 170 170 171 170 169 168 168 168 168 167 167 167 166 166 160 161 161 161 161 161 160 160 157 156 155 153 151 149 147 147 143 144 144 143 141 138 136 134 132 132 131 130 127 123 119 117 114 117 120 121 121 119 118 118 75 111 109 113 117 116 107 99 92 91 92 96 102 106 107 106 108 107 106 109 116 126 136 142 149 149 150 152 155 158 161 163 160 160 159 159 158 158 157 157 153 152 150 148 147 146 145 145 143 138 134 130 128 127 125 124 120 119 117 115 112 109 108 106 106 105 101 98 94 92 90 89 84 79 70 62 53 43 35 29 23 20 15 13 19 32 47 58 73 79 81 74 68 70 73 74 69 71 69 60 54 59 69 76 77 76 75 75 78 85 93 100 116 122 128 132 134 135 138 141 144 142 138 135 132 126 118 114 109 106 103 102 103 104 104 103 103 103 103 105 106 108 110 111 114 116 120 125 131 137 142 145 
194 194 194 192 190 186 182 180 179 178 176 174 171 168 166 165 157 152 147 141 136 130 123 119 121 113 103 95 91 86 79 75 71 67 59 48 39 32 30 29 30 49 79 104 119 126 129 131 134 139 144 147 148 147 146 146 146 147 147 147 146 146 147 147 147 149 152 155 158 160 161 162 166 167 169 171 173 175 176 177 175 174 172 170 169 168 168 168 171 171 170 169 169 169 169 170 176 177 178 177 176 173 170 168 170 171 173 175 176 175 174 173 172 173 174 174 175 175 174 174 176 176 177 177 176 175 173 172 169 168 169 170 172 173 171 169 167 167 167 167 168 7 20 169 169 168 167 165 165 165 166 167 168 171 174 174 172 170 171 172 173 173 172 172 172 174 175 176 174 172 170 167 166 167 168 63 172 172 7 20 169 170 41 55 171 171 44 170 169 168 168 168 164 164 165 165 166 166 167 167 162 162 164 164 164 165 165 165 158 159 159 159 158 155 153 151 150 150 150 148 146 142 138 136 133 133 133 132 130 127 124 122 116 116 117 116 114 110 105 103 99 98 98 99 100 101 100 99 96 96 98 100 101 98 92 87 7 21 79 82 88 96 104 109 104 99 94 92 97 106 118 126 133 137 142 143 143 144 149 153 155 156 158 159 160 161 162 162 152 151 149 147 145 145 145 145 144 141 137 135 133 131 128 125 118 117 115 112 109 108 108 108 108 108 105 103 100 97 94 92 88 82 75 68 61 49 34 24 24 19 14 14 23 34 44 51 69 71 70 66 65 69 72 72 61 68 69 64 60 65 73 76 79 77 77 79 85 92 98 101 112 119 126 131 133 135 138 142 140 139 137 134 131 126 119 115 109 106 103 103 103 105 105 103 103 104 104 105 107 109 111 112 117 119 123 129 133 137 140 141 
192 192 191 190 187 183 180 178 178 177 174 171 168 166 163 161 150 147 141 137 133 128 122 117 121 112 102 95 91 85 79 73 66 65 61 51 39 30 27 29 33 52 81 108 121 128 128 130 133 138 143 147 147 147 146 146 145 146 146 147 146 147 147 148 149 151 153 156 159 162 163 164 164 165 167 169 171 173 175 176 174 173 170 168 166 164 163 163 165 164 163 162 161 161 161 161 174 175 175 175 173 170 166 164 167 169 173 176 177 176 174 172 170 171 172 172 173 173 172 172 173 173 174 175 174 173 171 170 165 165 165 167 169 169 49 63 163 164 63 164 165 165 165 166 167 165 163 161 160 161 163 164 164 168 172 172 170 167 167 168 173 173 172 170 170 170 171 124 156 169 166 49 63 166 168 11 173 173 171 169 168 168 168 169 170 170 169 168 167 165 164 165 162 161 161 161 162 163 165 165 158 158 158 159 160 161 161 162 157 159 159 158 155 151 146 143 145 146 146 145 142 137 131 128 117 117 117 116 114 110 107 105 97 98 99 98 96 91 87 84 79 75 72 72 74 77 77 75 74 77 80 81 77 73 71 70 7 20 67 67 69 79 93 105 110 102 90 83 81 87 97 103 116 122 129 129 126 125 130 136 137 140 145 151 156 160 162 162 152 151 147 145 143 143 142 143 141 141 138 138 136 134 129 125 119 117 113 111 109 109 109 110 109 109 108 108 105 101 97 95 91 85 79 75 68 54 33 18 27 22 17 19 27 36 41 43 64 62 60 58 60 65 68 67 52 62 69 66 65 70 74 74 80 78 79 85 94 101 103 103 107 115 124 130 133 134 139 143 139 136 135 134 131 127 121 116 109 107 104 103 104 105 105 104 104 105 105 105 107 109 111 112 120 123 127 132 135 137 137 137 
188 189 189 188 185 181 178 175 173 172 169 167 165 162 158 155 150 142 136 134 130 122 118 117 109 110 105 101 96 93 83 72 66 69 68 60 46 33 25 23 30 47 77 106 121 127 130 134 134 138 143 148 150 150 148 146 148 148 147 147 146 146 147 148 149 154 161 164 163 162 163 165 156 158 162 165 167 169 169 169 166 164 159 153 149 149 151 154 153 153 154 155 155 155 152 149 154 158 163 163 159 157 159 163 160 160 163 169 175 176 171 167 167 168 169 169 167 166 167 169 170 170 171 171 171 171 170 169 166 167 167 168 168 166 11 11 163 164 164 163 161 162 164 167 165 164 163 161 160 160 160 160 166 164 163 161 162 164 166 168 174 17 170 168 25 21 168 156 190 165 164 11 11 164 165 165 167 170 172 171 166 162 164 167 171 168 164 163 164 164 164 124 156 163 163 163 163 164 162 161 161 159 157 155 155 156 157 159 153 152 151 146 141 139 139 141 142 140 138 137 136 130 120 113 109 104 100 99 99 94 85 77 72 77 83 87 87 83 77 72 63 59 55 54 57 59 25 21 58 60 62 63 62 60 57 56 56 58 59 57 55 57 64 71 87 96 103 97 82 75 80 89 83 92 101 109 110 109 106 105 105 107 111 117 127 138 147 153 150 149 148 145 145 142 143 141 141 142 144 144 144 141 139 136 128 125 121 117 115 113 110 108 107 107 108 106 104 100 95 92 92 88 82 76 68 55 39 29 25 28 30 28 30 37 42 43 59 64 65 56 53 54 55 52 52 54 57 60 63 65 65 66 73 71 74 82 89 95 102 111 118 120 124 126 129 133 138 142 141 136 131 128 129 126 119 113 107 107 104 102 102 104 107 108 107 107 108 109 110 112 114 115 123 125 129 134 138 140 142 142 
187 188 188 187 184 180 177 174 171 169 165 163 161 158 153 151 141 134 127 125 120 113 108 107 105 106 105 100 97 91 82 72 68 69 70 65 57 43 30 23 28 44 73 104 122 126 130 133 136 140 144 148 149 148 146 144 146 146 147 147 148 149 151 152 149 153 157 158 156 153 153 153 155 158 161 164 165 163 161 159 154 149 141 133 126 124 126 129 147 146 144 144 143 142 139 136 146 149 152 150 146 142 141 143 151 154 158 160 160 159 158 157 160 161 162 162 160 160 163 164 166 166 167 168 168 168 167 167 160 162 163 163 124 156 159 158 159 160 160 159 158 159 161 164 165 164 163 161 161 161 161 161 162 162 161 161 124 156 164 165 30 158 169 168 7 4 167 167 165 165 165 164 164 163 163 162 164 167 169 168 164 161 163 166 169 166 162 160 161 163 163 156 190 159 25 21 162 161 159 157 153 151 148 147 144 145 146 145 143 141 139 134 131 130 128 125 127 125 122 121 118 112 103 95 87 84 81 80 79 73 64 57 57 61 66 69 69 66 61 58 44 42 39 39 42 45 7 4 46 46 46 46 45 45 124 156 42 45 44 42 37 37 42 47 62 72 84 90 88 80 73 69 67 69 71 77 84 86 83 78 78 78 79 84 94 105 114 120 131 133 136 140 141 143 141 142 146 147 149 149 147 142 135 132 130 128 124 123 120 116 111 107 107 108 109 108 106 100 95 92 92 89 85 79 70 56 42 32 23 27 28 25 27 36 45 50 64 64 56 46 40 41 40 38 40 41 43 46 52 57 61 64 67 65 67 76 84 91 100 108 117 119 120 122 126 132 140 146 142 137 132 130 128 125 118 112 107 106 103 101 101 103 106 107 106 106 107 108 110 112 113 114 121 124 128 133 138 141 142 143 
186 187 187 185 182 179 175 172 167 164 160 157 154 151 147 144 133 125 118 115 110 101 96 97 98 101 102 99 96 90 81 71 66 65 66 68 67 57 39 25 29 44 72 103 122 128 131 133 138 142 144 147 148 147 145 144 146 146 146 147 148 150 152 153 150 153 156 157 155 152 151 151 162 163 164 163 160 155 150 147 136 133 128 125 124 128 132 135 142 139 135 132 130 127 123 120 127 132 137 139 138 137 138 140 147 151 155 155 151 149 151 155 154 155 156 155 154 155 157 160 162 163 164 166 166 165 165 164 158 160 161 162 156 190 159 158 158 158 158 157 156 157 160 163 161 160 159 158 158 159 160 161 159 159 159 160 156 190 162 162 165 165 166 166 166 166 165 165 162 163 163 163 162 160 158 157 160 163 165 163 161 159 161 164 165 162 159 156 157 158 159 158 154 156 7 4 160 159 155 152 147 145 143 139 137 135 133 133 135 130 127 125 123 119 115 109 112 109 105 103 100 93 85 78 69 66 63 62 60 56 48 42 46 48 50 52 52 50 48 46 34 32 30 30 31 34 34 34 33 32 30 29 29 29 156 190 35 36 37 34 31 29 31 33 31 37 52 69 83 83 73 63 55 48 44 50 62 69 66 60 59 56 55 58 67 77 83 85 104 108 117 126 133 136 137 136 149 153 154 155 151 145 138 133 132 131 129 128 124 119 111 106 108 110 111 110 107 102 96 92 92 92 90 84 73 59 44 37 21 26 25 21 22 35 50 61 63 56 42 29 25 27 27 24 33 33 34 37 43 53 62 67 66 63 65 72 80 86 97 105 113 113 114 116 120 129 140 147 143 139 134 130 128 123 115 109 106 104 102 101 101 102 104 106 104 105 106 108 109 111 112 113 120 123 127 133 138 141 143 144 
187 187 186 185 182 178 173 170 163 160 155 151 148 145 141 138 127 119 111 107 101 92 87 88 90 95 99 97 94 89 81 72 62 57 56 64 72 67 51 35 35 47 72 103 124 130 132 134 137 139 142 145 146 146 146 145 147 147 147 147 147 149 150 151 151 153 156 158 159 159 159 159 166 164 159 152 144 136 131 128 123 122 122 125 130 135 140 142 127 124 120 117 115 113 110 108 114 118 124 128 129 130 133 134 131 132 136 135 135 135 139 143 143 145 146 146 146 147 149 151 149 151 153 157 158 158 157 156 154 155 157 158 159 158 157 157 155 155 155 153 151 151 154 156 155 154 153 152 153 154 157 158 158 124 156 159 159 158 158 157 159 160 162 164 164 164 163 162 160 161 162 162 160 157 153 151 155 157 158 158 156 157 159 162 160 157 153 152 152 153 153 152 148 149 150 153 154 152 146 17 141 139 136 131 127 122 120 118 119 114 108 107 106 103 96 89 90 87 82 80 78 74 67 60 55 52 48 45 44 41 36 32 35 36 37 38 38 37 36 35 31 29 28 26 25 49 63 23 22 22 22 21 21 21 22 22 25 27 28 28 25 25 26 27 18 18 24 38 53 60 57 51 42 37 34 39 51 58 58 54 55 52 50 53 60 67 69 69 82 88 97 106 114 119 122 123 143 145 148 150 149 147 143 141 139 137 134 131 127 121 113 107 111 112 113 112 109 103 98 94 94 95 94 88 77 63 49 40 21 24 23 19 21 37 56 69 57 44 27 15 15 20 21 19 27 28 30 35 41 51 60 65 65 61 60 65 70 76 85 93 101 103 106 110 116 124 134 141 142 138 134 130 126 120 112 107 104 103 101 100 100 101 103 104 102 103 105 107 109 111 112 112 119 121 127 132 137 141 144 145 
187 187 186 185 181 176 171 168 162 158 152 146 143 139 135 131 121 112 103 97 93 84 80 80 83 90 95 94 93 89 83 75 61 54 51 59 72 75 64 52 44 54 74 103 125 132 134 134 135 135 138 141 144 146 147 147 147 147 147 148 149 151 153 154 156 157 159 161 162 163 162 161 161 153 141 129 117 110 106 105 114 113 113 114 115 113 109 105 98 97 97 98 100 102 102 100 111 112 113 112 110 108 107 106 102 101 101 105 111 116 118 118 124 127 130 130 132 133 135 137 134 137 141 143 145 145 144 144 142 143 17 147 148 148 148 147 148 149 148 146 143 143 18 39 153 152 124 156 150 152 124 156 158 158 158 158 156 155 154 153 156 157 159 161 161 161 160 160 158 159 159 159 157 154 150 148 151 152 153 153 151 153 155 156 156 153 149 147 147 148 148 147 139 140 142 144 143 139 30 158 128 6 30 114 108 103 100 98 90 85 79 78 77 74 65 59 58 55 52 51 51 49 44 39 37 33 28 24 22 22 22 21 22 21 21 22 22 21 21 21 22 22 21 19 17 11 11 16 16 17 18 20 124 19 17 17 14 16 17 18 17 17 16 17 21 18 16 16 20 24 24 24 28 27 28 31 36 39 41 40 47 47 49 54 60 65 65 64 71 73 78 83 90 97 102 105 122 124 126 129 134 138 142 145 146 144 139 135 130 125 119 115 115 115 115 113 109 105 100 97 96 97 95 91 81 67 53 43 24 23 20 19 26 44 62 70 52 36 19 9 12 17 19 20 24 26 30 36 41 48 54 57 61 55 52 53 55 59 67 75 89 94 101 108 114 120 126 130 137 136 132 128 124 117 109 104 102 101 101 100 100 101 102 103 101 103 105 108 110 111 112 112 118 121 126 132 137 141 143 144 
186 187 186 183 179 175 168 165 160 156 149 143 138 134 130 126 113 104 95 89 84 76 73 73 78 86 92 91 91 89 85 79 66 58 53 58 69 75 71 64 50 56 73 99 121 131 134 133 132 132 134 137 141 145 147 147 144 145 146 147 150 153 155 157 162 160 158 158 157 156 153 150 141 132 119 104 94 89 89 90 101 99 98 98 95 88 76 69 70 71 75 82 89 94 95 95 98 96 94 91 88 87 86 86 85 83 82 87 96 101 102 100 106 110 115 118 119 120 120 121 122 125 130 134 137 137 137 136 131 30 158 138 140 142 140 140 145 145 45 95 142 143 33 71 152 150 156 190 148 150 153 156 156 154 154 153 153 152 153 152 155 156 157 158 158 159 158 158 157 157 157 156 155 152 149 148 149 148 147 147 147 149 151 152 151 148 144 141 141 142 142 140 138 138 138 138 135 130 122 116 115 44 104 96 90 86 83 82 64 60 55 52 50 46 40 37 35 31 28 28 29 29 27 23 22 19 13 9 8 9 12 14 14 14 12 13 12 13 14 14 13 14 16 15 15 14 16 18 17 19 22 24 24 23 20 18 19 19 20 20 19 18 17 16 19 21 21 17 13 11 13 17 21 26 29 29 28 28 30 32 42 45 50 55 60 63 66 67 64 64 65 67 73 78 85 89 98 100 103 108 116 124 131 135 146 144 140 137 135 131 128 124 120 118 116 113 109 105 102 100 99 97 95 93 86 73 56 44 28 23 18 20 36 56 67 67 50 35 20 15 16 18 19 20 29 32 37 43 48 51 53 54 61 54 49 48 50 55 62 70 84 91 100 109 114 118 120 122 130 131 129 127 122 116 108 104 102 102 102 101 101 102 102 103 101 103 106 109 111 113 113 113 119 121 126 132 136 140 142 143 
185 184 183 180 175 171 164 161 158 153 145 139 133 129 125 122 108 98 89 83 78 72 69 69 76 83 89 89 88 88 87 84 72 66 60 59 63 67 66 63 49 53 65 91 115 128 132 132 132 132 134 135 138 141 144 146 143 143 142 142 143 144 145 146 145 142 137 134 132 129 124 121 107 100 89 79 74 73 76 79 82 81 79 80 79 73 63 54 48 51 56 65 72 76 77 75 67 65 62 61 63 65 69 70 70 70 72 75 78 81 82 82 84 90 96 102 103 102 102 101 104 107 113 118 121 122 121 120 122 123 126 129 132 133 133 25 21 138 41 55 140 144 147 150 148 147 144 142 142 145 148 150 148 147 147 148 148 150 153 154 156 156 156 155 156 156 157 158 157 156 155 154 154 152 151 150 148 146 144 143 144 145 147 149 148 144 140 137 137 138 137 137 136 134 132 130 125 118 110 104 100 95 87 78 70 6 30 65 45 43 39 35 31 28 25 24 22 19 15 15 17 18 17 14 13 12 9 8 7 8 10 12 11 11 11 12 12 11 11 11 8 11 14 14 17 13 15 17 27 16 18 19 19 19 18 18 20 20 20 20 22 23 23 23 14 19 23 21 17 18 22 28 25 28 30 31 30 31 34 37 45 49 52 53 52 54 59 64 59 58 58 59 63 70 76 80 86 88 90 96 103 110 116 120 132 133 133 135 136 134 131 128 124 121 117 112 109 106 104 104 102 97 94 93 90 78 58 43 35 24 16 24 48 69 69 59 46 33 23 21 23 21 22 24 35 37 41 47 50 54 55 56 60 53 49 49 54 59 69 79 87 94 104 112 117 119 120 121 124 125 127 125 121 113 108 105 102 103 102 102 102 102 103 103 101 103 107 110 113 114 114 114 120 122 127 132 136 139 141 141 
182 182 181 178 174 168 161 158 156 151 143 136 130 125 122 119 107 97 88 83 78 72 69 69 75 82 88 88 87 88 89 86 74 70 64 59 57 57 58 57 47 48 59 85 110 125 131 132 133 132 133 133 135 139 141 143 144 143 139 137 134 132 132 132 116 113 108 104 102 98 93 88 73 68 62 57 56 57 62 65 68 65 62 63 63 59 50 43 34 36 41 47 51 52 50 47 43 41 37 37 39 44 47 50 51 55 57 58 55 54 56 58 62 68 77 84 84 84 81 81 83 86 92 96 100 101 100 100 111 112 115 119 121 123 124 7 4 125 127 130 133 136 141 146 144 142 139 136 136 139 142 144 142 141 141 142 145 149 154 157 158 157 155 154 154 155 156 157 157 156 154 154 152 152 152 152 147 144 142 141 143 144 145 145 146 143 139 135 135 136 135 134 127 125 121 117 112 104 96 90 85 79 69 59 53 44 49 49 25 21 30 24 19 15 15 15 14 9 5 5 8 9 8 6 6 6 9 9 9 9 9 10 7 7 9 10 10 9 7 7 5 9 12 30 158 6 8 10 4 75 3 3 4 5 6 7 6 6 6 10 14 18 20 21 17 19 20 17 14 15 22 28 27 28 29 31 34 39 44 48 51 53 53 46 40 40 46 53 54 54 55 58 61 67 73 76 84 86 89 94 99 103 106 108 117 120 125 131 135 134 130 126 126 123 117 111 108 106 105 106 103 97 92 92 92 80 59 43 38 25 16 27 56 76 70 54 39 30 24 26 28 26 26 30 33 35 37 42 46 49 52 54 54 48 45 48 53 60 73 84 93 99 107 113 117 120 122 123 121 123 125 124 119 113 108 106 102 102 103 103 103 103 103 103 101 104 107 111 114 115 115 114 120 123 127 132 136 138 140 140 
180 179 178 177 174 168 160 155 151 147 141 135 128 121 114 109 100 96 91 84 78 72 68 66 81 80 79 79 82 83 83 83 77 74 64 54 51 52 51 47 44 43 53 78 106 123 131 134 137 138 138 138 139 138 137 136 135 135 136 135 130 121 110 103 95 88 86 89 94 88 71 56 42 39 37 41 48 57 63 64 58 55 50 44 40 35 33 32 35 38 40 40 36 33 32 33 32 32 32 33 34 35 36 37 36 34 32 32 35 38 39 41 44 46 50 54 56 58 58 58 61 66 71 74 73 73 78 81 92 98 103 102 101 100 103 108 103 109 116 120 123 126 132 137 139 137 133 129 127 129 133 137 132 131 135 141 143 141 142 146 152 151 150 149 150 151 153 154 153 153 154 154 153 153 152 152 147 144 143 146 146 142 142 146 136 136 136 136 135 131 128 125 128 123 115 108 102 93 85 78 67 59 50 47 46 43 36 28 7 4 20 16 15 14 14 13 19 14 9 6 9 10 9 6 9 5 3 3 3 4 4 4 6 9 11 10 8 6 7 9 9 11 11 8 4 27 5 8 14 14 15 16 18 20 21 22 22 25 26 25 21 17 14 13 11 12 11 12 14 18 22 25 30 32 36 42 48 48 43 38 46 49 47 40 37 42 51 56 59 54 50 53 61 72 81 86 90 89 90 93 97 101 103 104 111 112 116 123 129 130 127 122 125 126 126 121 113 109 109 109 104 106 103 96 88 77 61 48 33 29 26 35 57 73 68 52 37 23 18 27 34 31 30 34 36 34 32 31 31 33 37 40 38 39 44 48 58 72 87 98 106 100 103 113 120 119 120 123 119 117 116 120 123 120 112 103 108 106 106 106 105 105 106 106 104 106 109 111 112 114 117 120 124 127 131 134 136 139 143 146 
182 179 176 173 169 165 159 155 149 145 139 132 126 119 111 105 98 95 90 84 78 72 68 66 75 78 81 82 82 82 81 80 76 75 66 55 50 51 50 47 42 43 56 82 108 123 131 134 137 138 139 138 139 138 137 137 131 130 127 124 118 109 100 91 78 77 80 87 90 78 56 37 36 36 40 45 51 55 55 52 41 39 35 30 27 24 23 23 34 35 36 36 34 33 32 32 28 28 27 26 26 26 27 27 32 29 27 25 25 24 23 22 30 31 32 33 34 35 36 36 38 42 46 48 46 47 52 55 6 30 69 69 67 68 73 76 79 86 94 102 108 115 123 129 132 130 126 123 123 126 132 135 127 126 129 135 136 134 135 138 145 146 148 149 151 152 152 153 152 152 153 152 151 150 149 148 144 141 142 144 143 139 138 141 135 134 132 131 131 130 128 128 120 113 103 95 88 82 74 68 60 51 42 36 35 31 25 18 17 14 13 16 45 95 11 5 12 7 3 2 2 4 6 7 2 5 10 13 15 13 10 7 5 5 6 7 9 15 24 31 34 39 44 47 48 50 75 55 65 66 67 69 72 75 77 79 79 80 80 77 71 66 62 61 54 52 50 45 42 41 40 39 42 41 41 42 44 45 45 44 32 44 56 60 64 69 73 73 54 55 58 65 75 83 86 87 88 88 88 91 96 100 103 104 106 108 111 116 120 122 121 119 124 124 122 119 115 112 112 111 106 108 105 99 90 80 64 51 39 34 30 37 56 70 63 48 30 19 16 27 34 30 27 30 27 23 17 13 14 19 25 29 33 36 44 55 68 83 97 104 112 110 112 120 123 122 122 125 128 128 128 130 131 127 120 113 113 111 108 107 105 105 105 107 106 109 112 113 114 116 119 122 125 128 131 134 136 138 141 144 
183 179 174 170 166 163 157 155 147 143 136 130 124 116 108 103 97 93 89 83 78 72 69 67 71 76 82 83 80 76 75 75 74 73 65 54 45 44 45 43 39 44 61 87 111 124 131 135 136 137 137 139 139 139 137 137 131 128 123 116 109 100 89 84 77 71 66 65 66 59 47 35 42 42 43 46 47 45 41 37 29 27 24 22 21 22 24 26 32 29 28 28 28 28 27 25 29 29 28 27 25 24 23 22 21 19 19 19 21 22 21 19 10 11 12 14 17 20 23 24 21 23 26 25 23 25 29 34 44 38 41 40 40 41 47 52 53 60 70 80 88 96 106 114 119 117 115 114 117 121 127 130 116 117 122 127 128 126 128 131 139 141 145 148 150 151 150 150 150 150 150 149 147 145 143 142 140 138 139 142 142 137 134 136 135 132 128 127 127 127 127 125 116 107 94 84 77 72 66 62 55 46 36 27 25 21 16 9 17 10 4 4 41 55 7 7 21 10 13 13 14 15 17 18 2 3 3 6 10 18 26 32 42 44 50 57 68 81 94 103 121 124 27 39 132 132 132 133 134 134 135 137 139 141 143 144 144 145 145 142 136 132 130 128 128 129 126 125 123 119 116 115 97 94 85 73 59 48 40 38 43 54 65 70 73 76 77 76 63 67 75 83 89 89 85 81 81 82 84 87 92 97 102 104 104 105 107 109 109 111 114 116 122 120 118 117 117 117 116 114 109 111 108 102 95 85 69 55 48 40 34 39 54 63 56 42 23 17 18 27 33 28 23 22 18 16 12 8 8 11 14 17 21 28 42 59 78 94 104 108 116 116 118 123 126 125 128 133 140 142 145 147 147 144 139 136 128 124 117 112 107 105 106 106 109 112 115 116 117 119 122 124 127 129 132 134 135 136 139 142 
181 178 173 170 166 162 156 152 146 141 135 129 123 115 108 103 97 93 89 84 79 74 72 70 71 76 80 79 73 68 68 70 72 71 64 51 41 38 37 37 37 45 65 91 113 125 131 136 135 136 137 138 140 140 139 138 138 133 125 116 106 97 87 82 78 67 56 48 48 47 43 40 42 40 37 34 33 31 31 31 35 34 33 33 35 39 44 47 38 34 30 30 31 32 29 26 17 18 17 15 14 11 9 8 10 11 14 18 20 21 20 18 5 7 9 12 14 16 17 19 15 16 16 14 12 45 95 22 25 26 27 26 26 29 34 38 40 45 54 62 69 77 86 93 102 103 104 107 111 114 117 116 107 109 115 122 123 122 126 132 138 139 142 145 147 148 148 148 149 149 148 146 144 142 139 138 135 134 137 141 141 137 134 135 136 132 128 126 126 124 121 117 110 100 85 72 65 61 57 55 46 38 27 21 17 14 10 7 10 8 6 6 8 9 11 7 20 16 10 18 39 2 2 7 11 17 28 41 57 75 92 103 118 122 128 133 138 142 144 146 146 145 33 75 132 127 123 121 115 114 114 113 113 114 114 115 114 115 117 117 116 114 114 115 125 127 134 139 144 147 149 150 143 144 142 132 117 101 91 86 71 74 74 70 69 73 79 80 76 78 83 87 87 83 78 73 78 78 81 84 89 95 101 105 108 109 109 107 104 106 111 116 120 116 114 115 118 121 120 119 114 115 111 106 101 92 75 60 52 43 35 38 50 56 48 37 21 17 20 28 32 26 18 14 9 11 15 17 16 13 8 5 15 24 41 62 83 98 105 106 110 113 119 123 127 132 139 147 154 158 162 163 163 162 162 162 148 142 132 122 114 109 108 107 112 114 117 118 119 120 123 125 129 131 133 134 134 135 138 140 
176 175 173 170 167 161 154 149 145 140 135 130 123 117 111 105 98 96 92 88 84 79 77 76 77 79 79 74 66 61 61 65 72 71 65 54 44 40 37 34 37 45 64 91 112 124 131 135 135 136 137 138 140 141 140 140 142 135 125 114 103 93 85 79 66 60 55 51 49 46 41 35 29 29 28 27 26 27 27 29 23 22 21 21 22 25 28 31 38 34 29 28 29 29 26 23 24 24 24 24 23 21 19 18 23 23 24 26 27 25 22 18 11 12 14 15 14 12 9 7 9 8 7 5 5 41 55 12 14 15 15 15 16 18 22 26 29 35 41 47 52 59 67 74 83 85 91 97 102 104 101 97 97 101 109 118 121 122 127 134 140 140 140 141 143 145 147 149 150 149 148 146 144 141 139 138 133 133 136 141 142 138 137 138 137 134 130 128 126 120 112 104 95 84 68 57 50 46 42 40 31 24 16 10 8 8 7 5 2 4 15 19 16 11 9 7 10 10 13 33 71 43 7 21 107 117 131 142 146 143 136 132 120 118 113 6 30 90 81 18 46 42 35 27 20 15 11 9 13 12 11 10 10 10 11 11 12 15 18 19 19 21 23 25 30 35 43 53 60 67 70 73 96 104 115 124 128 130 135 137 126 125 117 103 90 82 76 70 68 68 69 69 68 68 69 69 77 80 83 86 90 96 104 109 115 115 114 110 107 108 113 118 118 115 112 114 119 123 123 122 118 118 114 109 106 97 81 64 53 42 33 36 45 49 42 34 24 22 23 28 29 23 15 10 2 3 10 15 16 15 12 9 21 31 50 70 88 99 103 104 103 110 117 123 130 140 153 160 168 169 169 167 165 164 165 167 158 153 143 133 124 118 114 112 113 116 118 119 120 121 122 126 131 133 135 135 135 136 138 139 
171 171 170 169 166 160 152 147 142 139 135 130 125 119 113 108 102 100 97 93 89 85 84 83 84 83 81 75 68 62 62 63 73 72 67 59 54 52 46 38 36 42 58 84 109 121 128 132 134 135 137 139 140 141 141 141 137 130 120 109 98 87 79 73 68 61 54 48 45 43 42 41 35 36 38 37 33 27 24 21 26 26 25 24 24 24 25 26 31 30 28 28 28 27 25 24 12 13 14 15 14 13 11 10 10 10 11 13 14 13 10 6 3 4 6 8 9 9 7 6 5 4 3 3 4 4 6 7 9 8 7 7 8 10 13 14 18 22 28 32 36 42 51 57 62 67 73 83 90 91 85 81 88 93 103 112 116 118 125 134 140 139 139 140 142 146 149 152 152 152 151 149 147 144 142 141 135 134 137 142 142 139 137 140 138 135 130 126 124 115 103 92 82 72 58 47 41 36 33 29 22 18 13 10 10 11 12 11 8 7 5 2 2 2 6 13 4 20 48 74 97 113 7 20 150 147 142 134 120 102 82 70 17 40 32 44 22 19 16 16 124 156 12 8 8 9 10 10 16 16 16 17 19 20 22 23 25 27 29 30 30 31 33 36 36 38 44 49 53 56 57 57 47 51 56 64 74 84 94 101 127 132 136 133 127 117 103 91 58 56 53 51 51 55 62 68 76 79 83 85 88 94 102 109 116 116 115 114 113 114 117 120 117 115 113 114 118 122 124 126 121 121 116 112 110 102 84 68 54 41 32 35 42 43 38 33 27 25 24 24 23 20 15 12 5 6 8 10 15 20 25 28 35 45 62 77 88 95 99 102 101 110 119 127 137 149 158 161 164 158 150 142 137 134 134 134 140 139 134 131 126 123 120 119 116 118 120 121 121 121 124 126 133 135 136 137 136 137 139 141 
168 166 164 163 160 156 151 147 140 137 133 129 125 121 115 112 106 104 101 98 95 92 90 89 90 88 86 82 78 73 69 67 70 68 65 63 64 64 56 46 35 38 50 74 101 117 124 127 134 135 137 139 141 142 142 143 133 127 117 106 96 86 77 71 76 69 59 50 44 44 46 47 45 46 45 39 32 25 20 18 10 10 12 12 14 15 16 15 3 4 6 7 7 6 6 7 8 9 10 10 9 7 5 3 9 8 8 10 11 11 9 6 8 8 6 6 5 7 9 8 5 5 4 5 6 8 7 7 9 7 7 7 9 8 7 8 11 14 19 21 23 28 35 41 46 48 54 65 74 78 75 71 79 85 96 104 108 110 119 128 135 136 138 142 146 150 153 155 155 155 154 153 151 149 147 145 140 138 138 141 141 137 136 138 139 132 126 121 117 110 98 86 74 65 53 44 39 34 28 24 19 16 15 13 14 15 16 16 24 14 5 3 15 34 54 66 105 115 131 144 145 133 115 101 61 49 27 27 49 63 18 30 158 5 3 5 12 17 20 20 156 190 11 12 17 21 23 23 24 24 25 26 28 30 32 33 36 37 39 40 39 40 42 44 47 48 50 52 52 53 52 51 52 50 48 48 50 53 54 55 65 75 90 104 118 131 136 134 85 81 72 63 55 53 57 61 69 73 77 78 80 86 95 103 109 109 110 113 117 120 121 121 116 116 116 116 116 119 124 128 123 122 117 114 112 105 87 71 57 43 33 35 41 41 35 32 28 25 21 18 17 18 18 17 19 17 15 16 19 24 31 36 40 51 65 73 77 81 88 94 102 112 123 133 144 151 150 144 132 121 106 94 87 84 82 80 94 97 104 110 116 119 120 120 119 121 123 124 123 124 126 128 134 136 138 138 138 139 141 143 
167 164 160 157 155 153 150 146 137 135 130 127 125 120 116 111 109 107 104 101 99 95 94 93 92 91 90 90 87 83 76 71 63 62 61 63 69 71 62 49 34 34 43 68 95 114 121 123 133 134 137 140 142 142 143 143 133 128 118 108 98 89 79 73 68 70 72 70 62 52 43 38 37 36 32 26 21 19 23 27 36 39 43 47 52 55 56 58 68 73 79 82 82 82 84 86 86 87 87 88 86 83 80 78 73 70 67 63 60 57 52 48 33 28 19 11 3 2 2 2 3 2 3 5 6 7 6 5 9 7 7 7 8 8 5 4 10 14 16 16 16 19 24 30 35 37 41 51 62 70 69 66 73 79 90 99 101 103 111 121 129 133 138 144 150 154 156 157 157 157 156 155 154 152 150 149 144 140 139 140 139 134 133 135 139 131 121 115 112 106 95 84 67 59 50 42 36 31 25 20 13 11 11 11 12 13 13 13 15 15 24 48 83 113 130 136 133 122 105 87 71 55 41 31 18 39 4 75 11 45 95 3 10 9 10 13 15 13 6 3 8 7 6 7 11 13 12 10 15 15 15 15 15 16 17 18 22 23 26 26 26 28 31 34 38 39 40 42 43 44 45 45 43 43 44 49 54 55 52 49 54 54 53 55 68 88 104 111 129 122 108 88 69 57 52 52 62 66 69 71 72 77 87 95 102 102 105 111 119 123 123 121 116 117 118 117 115 118 123 129 124 122 118 114 113 107 89 72 61 45 34 36 41 38 33 31 26 24 18 12 12 17 20 21 23 24 23 24 23 24 24 25 38 49 60 66 64 68 76 84 102 114 127 137 145 147 138 124 98 84 66 53 48 46 44 43 54 62 75 90 102 111 115 117 121 123 126 126 126 127 129 131 133 136 138 139 139 140 142 144 
159 157 155 153 152 149 145 142 138 135 131 126 122 120 117 117 105 103 101 101 102 102 102 100 101 103 102 98 95 93 86 77 70 59 60 68 70 73 68 53 45 34 38 67 100 117 123 127 131 135 139 139 140 141 139 134 132 125 116 109 105 100 93 90 85 81 75 68 62 58 55 53 48 52 56 59 65 74 85 92 96 100 107 114 118 120 120 120 131 134 139 143 144 143 140 138 141 142 144 146 146 142 137 133 135 137 135 129 128 129 123 112 103 99 92 83 73 66 59 57 42 32 19 10 9 11 10 9 4 8 12 11 7 6 10 13 9 14 18 18 13 13 19 25 26 29 32 36 41 49 57 63 70 79 87 88 92 101 112 118 126 132 140 146 151 155 159 162 157 156 155 152 150 148 146 145 139 140 141 142 141 138 137 134 131 127 120 112 105 99 91 86 67 58 49 42 34 24 19 17 14 10 9 12 15 13 8 6 42 63 89 113 135 146 131 109 70 63 48 30 45 95 6 9 33 71 9 13 18 41 55 4 7 27 16 12 8 10 18 39 9 12 14 14 12 12 13 16 7 13 17 16 12 10 13 17 13 14 15 17 19 23 24 25 26 26 25 25 27 30 33 35 33 32 34 37 42 48 53 57 52 52 50 48 49 54 64 71 89 101 114 117 109 91 67 48 49 55 63 69 73 76 81 86 92 96 105 114 120 119 115 110 112 113 114 114 113 116 122 128 121 117 116 119 118 109 89 75 66 52 41 38 35 28 24 24 20 15 9 10 18 27 34 37 37 27 20 17 15 14 17 21 25 32 41 49 59 72 88 99 116 118 124 134 138 130 109 93 68 58 46 39 38 37 36 35 44 49 58 73 89 106 120 127 127 127 129 131 133 135 135 135 141 141 141 142 143 144 145 146 
158 156 153 152 150 148 143 140 137 135 130 126 121 118 116 116 110 107 104 104 105 105 104 103 102 104 103 99 99 98 94 88 80 69 69 74 74 79 76 62 53 39 40 66 100 118 125 127 130 134 137 136 137 138 135 131 126 121 113 110 109 107 104 101 84 82 80 79 81 85 91 94 112 115 119 122 124 128 134 139 144 145 145 143 140 136 131 128 127 127 126 124 122 118 115 114 114 113 112 113 115 117 118 118 119 126 129 127 129 135 138 137 134 139 146 149 147 139 128 121 113 101 84 67 52 36 20 9 7 6 6 7 8 8 8 7 8 10 12 12 11 12 15 18 24 25 27 29 32 37 44 49 60 70 81 85 90 102 114 120 126 132 139 145 149 152 156 158 157 156 154 152 149 146 143 142 141 142 142 143 142 140 138 137 133 128 121 113 105 97 88 81 67 57 48 41 33 24 18 15 19 21 19 12 6 18 43 67 105 120 128 117 100 82 61 42 19 95 12 6 41 55 10 14 13 15 14 12 16 19 17 9 16 19 75 15 45 95 33 71 34 30 23 18 17 19 21 20 28 29 30 27 23 19 17 17 13 13 12 13 14 16 18 21 16 16 17 19 22 25 27 29 28 29 31 34 38 43 47 49 52 51 51 49 47 49 53 57 60 70 87 106 120 117 95 71 59 57 56 62 72 80 81 81 89 27 99 106 111 113 112 111 108 110 112 114 115 119 125 130 132 125 120 118 117 107 91 76 60 49 40 38 35 28 22 20 14 17 22 28 34 41 46 50 32 25 17 15 15 12 14 19 21 28 39 49 62 77 93 105 120 120 122 125 121 108 88 73 51 44 36 33 34 37 38 37 43 47 58 73 91 109 123 130 130 130 133 135 136 138 138 139 143 144 143 145 146 148 148 148 
154 152 149 147 147 145 140 137 134 132 128 123 118 115 113 113 112 109 106 105 105 107 107 106 108 110 110 109 110 112 109 104 92 80 79 83 81 84 82 70 61 43 41 65 100 122 129 130 132 136 138 137 138 137 134 130 121 113 102 96 97 102 105 106 103 105 110 116 123 130 136 139 149 149 145 139 130 121 117 116 101 99 97 93 88 82 78 75 67 64 60 55 52 49 47 46 44 44 44 44 45 47 49 50 53 60 64 62 62 65 71 74 88 92 101 110 119 126 131 133 136 138 140 140 131 112 89 72 57 44 24 12 8 9 12 13 12 11 11 13 16 16 14 11 22 24 24 25 27 31 37 42 54 66 78 85 93 104 116 121 130 135 140 146 149 151 153 154 156 155 153 153 150 148 144 143 146 147 146 144 142 140 138 138 136 132 124 118 108 98 87 80 66 55 47 42 37 29 22 19 15 13 13 19 36 69 108 134 136 129 105 68 38 18 39 8 4 55 4 4 4 6 11 14 14 15 13 9 11 19 22 21 30 28 24 23 41 55 56 57 61 51 39 34 37 42 46 48 46 45 43 41 40 35 29 25 21 20 17 15 13 11 10 10 9 10 10 12 16 19 21 22 24 25 29 33 36 40 43 44 49 50 50 51 49 47 47 48 51 54 59 72 92 111 118 117 88 74 59 58 68 80 83 81 93 96 75 106 110 113 115 115 114 115 117 119 121 125 128 132 137 129 120 119 119 112 95 82 58 47 35 30 26 22 19 19 25 40 58 69 67 60 52 47 35 28 22 22 21 20 20 23 25 32 45 58 71 86 102 111 118 116 115 109 97 80 62 51 37 34 30 30 33 37 39 38 42 46 57 74 93 112 127 135 134 134 137 139 141 143 142 143 147 147 148 148 149 151 152 152 
148 147 145 144 143 141 137 134 130 128 124 119 115 112 111 109 111 108 105 104 106 109 109 110 114 118 120 120 122 124 122 115 102 93 93 94 89 88 85 74 63 46 41 63 98 125 134 135 138 141 143 142 141 141 137 133 118 107 92 85 90 103 116 123 133 136 141 143 141 136 130 126 110 106 99 91 79 71 65 62 50 49 46 43 39 37 35 34 31 28 25 22 20 18 18 18 11 13 16 18 16 15 14 14 10 14 16 16 14 14 14 13 13 14 17 23 34 46 58 64 74 83 98 115 129 134 133 130 110 96 74 52 35 22 14 8 12 7 4 9 16 20 19 16 22 23 25 26 28 33 39 44 55 67 81 88 96 107 118 122 135 140 145 149 151 153 154 155 155 155 155 154 153 152 149 148 152 150 148 146 143 139 136 136 138 135 130 124 114 103 90 82 65 55 49 45 41 32 26 23 8 13 33 69 109 131 126 112 80 63 124 156 9 33 71 21 20 19 16 11 8 8 11 14 17 21 21 17 18 27 36 38 50 43 36 40 56 17 75 67 124 156 43 39 38 42 46 49 54 52 51 54 58 58 53 47 42 41 39 35 29 22 17 14 16 14 12 11 11 13 15 17 20 23 28 33 38 42 43 44 46 48 50 51 52 52 52 53 53 56 56 52 55 77 105 125 117 100 81 68 67 76 84 90 96 100 103 107 110 112 114 115 119 120 122 123 124 125 125 125 127 120 114 115 116 108 91 76 50 41 31 27 29 35 43 47 64 70 77 77 71 61 52 47 48 41 36 37 35 32 31 33 32 40 52 64 77 89 101 108 107 106 100 90 75 60 47 41 37 34 33 33 36 39 40 40 43 49 60 76 96 114 129 138 136 137 140 142 144 146 145 147 149 149 150 150 151 153 154 154 
146 144 142 141 141 139 135 132 129 126 123 119 115 113 112 111 108 106 104 105 109 113 115 115 119 125 131 133 136 138 133 127 121 114 114 112 100 93 86 73 63 48 42 61 95 123 133 134 141 144 146 145 144 143 139 134 120 112 104 103 112 126 138 145 141 138 133 124 112 100 88 82 68 66 62 59 59 60 60 61 58 55 51 47 42 39 37 36 31 31 29 26 24 22 21 21 13 15 19 20 21 22 25 27 22 22 26 34 42 42 38 32 18 19 20 21 21 20 18 17 19 16 16 23 38 61 80 92 109 116 123 120 103 79 56 42 28 18 5 2 4 13 20 23 22 22 24 18 39 30 37 18 39 65 80 89 98 109 119 124 137 140 146 150 152 153 155 156 158 157 157 156 154 151 148 146 150 150 149 148 145 142 140 138 137 135 131 126 117 105 93 84 68 59 51 43 34 24 20 20 34 63 25 21 140 116 7 21 12 7 156 190 20 31 33 28 15 14 11 7 7 12 19 24 33 39 41 37 36 43 49 52 58 48 40 46 30 158 71 54 156 190 45 40 34 31 33 35 49 47 49 55 64 68 65 60 59 60 61 59 53 44 36 30 28 23 17 11 8 8 11 13 15 20 26 32 38 43 45 46 48 49 49 50 53 56 58 59 50 60 66 63 59 65 77 86 116 114 106 90 78 75 85 95 95 99 105 108 108 108 109 110 117 119 120 122 123 121 119 117 119 114 110 108 103 90 71 55 36 36 37 42 53 66 77 82 85 74 58 49 47 53 61 65 61 54 48 47 43 37 34 34 32 41 52 64 76 85 93 97 95 92 87 75 61 48 41 37 40 38 37 38 40 42 44 44 48 53 63 80 98 116 131 139 139 139 142 144 146 148 147 148 149 150 150 151 152 154 153 155 
141 139 137 137 137 135 131 128 126 123 121 118 115 114 114 113 106 105 105 108 112 114 115 115 125 132 139 146 153 157 155 148 147 139 135 126 105 90 80 68 58 47 44 60 91 117 127 127 137 143 145 143 141 141 138 133 133 130 128 129 132 134 132 130 117 111 104 95 88 83 81 81 84 80 73 70 68 69 69 70 56 54 50 46 43 40 37 35 25 24 23 20 18 16 14 13 18 20 23 23 25 31 40 48 55 52 57 71 82 82 76 69 62 58 50 42 36 33 32 32 20 16 10 5 7 14 22 28 47 64 87 104 110 107 103 101 75 61 38 16 4 4 11 18 20 20 20 21 21 24 30 33 71 59 45 95 95 107 119 17 134 138 18 39 151 153 155 155 162 162 161 159 155 149 144 142 147 147 149 150 150 149 147 145 137 134 129 123 114 103 91 83 74 63 49 35 24 17 22 49 63 125 7 4 81 41 7 20 5 11 16 17 14 14 18 21 12 12 11 10 13 20 29 36 43 49 50 44 40 41 44 43 39 31 25 31 47 55 43 25 15 24 32 124 156 20 22 27 30 28 27 33 42 46 45 42 45 49 54 57 55 49 42 37 33 29 21 14 9 7 9 12 13 18 24 31 38 43 46 47 54 52 50 51 55 57 59 61 60 63 65 66 70 73 69 63 91 103 113 108 91 82 85 93 97 124 156 110 110 109 110 112 117 118 121 123 125 123 119 116 121 117 109 98 85 69 51 39 33 41 50 59 66 73 74 71 59 50 42 41 48 59 67 70 62 54 46 43 39 32 28 29 36 43 55 67 78 85 88 89 85 82 75 65 54 46 41 39 39 38 39 39 42 44 47 48 53 57 68 83 101 119 133 140 141 141 144 146 148 150 149 149 150 150 151 152 153 153 155 155 
129 127 126 126 125 123 120 118 118 117 114 112 111 111 110 111 103 102 104 106 109 111 109 108 118 126 134 143 155 166 170 168 168 155 144 124 93 73 62 49 44 40 41 58 88 114 126 127 135 141 143 140 140 140 137 132 139 136 132 129 125 118 107 99 97 95 93 91 91 93 96 97 103 96 87 79 74 69 63 59 47 47 43 40 36 33 31 28 21 20 20 20 21 25 28 31 44 49 54 56 55 55 59 63 72 68 71 82 87 84 76 73 66 59 48 38 34 34 37 40 32 35 36 36 31 24 17 13 2 5 15 27 44 63 78 89 97 93 80 57 33 16 11 13 18 18 18 19 21 25 30 35 45 58 41 55 91 104 30 158 132 136 33 71 152 25 21 158 164 45 95 164 160 25 21 147 148 151 154 156 156 154 150 147 140 137 131 123 113 101 89 45 95 60 45 6 30 29 52 11 11 125 104 60 20 7 12 18 19 19 18 14 7 5 8 15 18 19 19 19 20 25 30 35 37 40 38 31 27 26 24 21 15 15 7 21 16 21 19 12 3 6 12 12 6 3 49 63 11 9 6 9 13 17 17 16 20 24 28 33 35 36 33 31 34 30 26 22 18 15 15 15 17 20 26 33 39 44 48 49 59 57 55 57 61 64 65 65 70 68 63 62 68 77 79 75 77 88 101 104 97 89 88 91 98 156 190 109 108 110 115 119 117 117 120 122 124 121 113 108 114 106 92 75 58 47 40 38 43 52 58 58 58 56 49 41 38 40 43 48 52 53 52 50 47 40 36 35 34 31 30 33 45 51 62 72 80 83 83 80 74 70 63 58 52 48 47 45 40 39 40 39 41 44 47 50 55 60 71 86 104 122 136 144 143 143 146 148 150 152 153 152 152 152 153 153 154 156 155 157 
118 116 114 113 113 112 109 107 110 109 106 105 104 105 105 106 99 99 100 103 104 104 101 98 101 108 117 127 143 161 170 172 176 159 141 115 78 55 44 33 30 30 37 56 87 115 129 131 135 140 142 141 141 141 138 133 131 125 119 114 110 104 97 93 94 96 99 101 99 95 89 86 85 81 77 74 73 70 64 60 51 48 44 38 31 24 18 15 19 18 19 23 31 42 52 58 70 80 91 93 86 75 66 62 49 45 48 56 57 51 47 48 46 47 46 43 38 31 23 19 26 26 25 24 22 22 23 25 29 20 12 11 18 29 37 42 73 86 97 89 64 38 22 18 16 17 19 21 24 30 37 42 49 62 74 81 89 101 112 118 132 137 145 151 154 7 4 162 164 41 55 167 166 7 4 159 155 45 95 161 18 39 148 143 124 156 134 125 18 39 89 41 55 55 41 44 29 50 92 129 112 86 44 16 16 28 24 9 8 4 6 17 27 27 20 12 13 14 16 17 18 20 24 26 29 30 26 18 15 15 12 7 10 15 7 20 3 6 16 21 38 35 30 21 15 8 11 11 5 3 124 156 3 4 6 7 7 45 95 18 21 24 24 25 31 31 31 29 27 24 22 20 22 26 31 35 42 47 51 52 60 59 60 63 69 72 71 70 64 70 72 69 67 72 81 86 81 82 86 90 93 94 93 93 93 96 100 101 101 105 114 121 112 112 113 115 113 107 99 91 90 81 65 46 32 27 33 41 52 57 57 50 46 46 43 38 50 49 44 38 30 26 29 33 32 28 26 30 35 36 40 44 51 56 63 71 77 76 71 68 64 60 55 54 53 54 53 53 44 43 43 41 41 43 47 50 56 61 72 88 107 125 139 147 145 146 148 150 152 154 154 154 153 153 154 155 156 156 158 158 
107 107 107 106 105 103 100 99 98 97 95 94 93 94 96 97 96 97 100 105 105 100 90 82 85 82 85 96 114 136 159 173 176 152 111 71 45 33 26 21 22 28 32 47 85 112 123 129 134 141 141 133 129 130 124 114 116 118 120 121 120 118 114 112 107 103 98 95 96 96 96 97 92 87 82 75 72 68 65 63 51 44 40 36 29 21 16 17 19 28 41 50 56 63 72 79 89 96 97 88 76 65 51 38 25 32 25 16 22 25 21 22 23 21 19 18 21 21 15 7 15 14 15 18 21 22 20 18 23 19 18 20 19 14 11 11 24 41 62 80 92 90 70 49 27 19 15 19 24 28 34 42 53 56 65 76 87 99 113 126 132 139 149 158 161 163 166 169 175 173 171 172 173 174 173 170 167 41 55 169 33 71 149 146 156 190 130 127 33 71 89 77 58 52 37 30 53 94 114 109 48 34 21 18 18 16 13 12 12 7 7 14 19 19 19 20 24 23 21 19 18 16 16 16 11 13 12 12 23 32 27 13 6 6 18 29 34 47 58 55 76 75 65 33 5 9 13 2 8 9 156 190 20 19 124 16 12 41 55 5 8 8 10 13 17 16 18 23 25 25 28 34 32 34 36 40 45 49 53 54 64 66 68 69 70 71 74 77 73 74 75 75 76 78 82 86 88 80 77 87 105 118 114 103 104 27 103 98 101 127 148 147 148 140 132 126 117 106 101 101 100 99 85 58 35 25 25 26 38 46 52 50 44 40 43 48 37 34 29 26 24 22 18 15 21 24 32 41 44 43 42 46 53 61 66 67 69 69 63 54 50 49 52 57 61 59 59 58 52 50 47 45 45 48 53 57 63 67 76 90 109 127 140 147 147 151 153 155 154 156 157 158 156 156 155 157 159 161 163 164 
97 97 97 96 94 92 90 89 90 89 87 87 87 88 90 90 91 91 95 98 99 97 88 82 69 64 62 71 90 118 145 163 153 120 77 45 31 24 19 16 22 25 26 41 80 111 124 132 135 133 126 117 113 114 113 109 125 126 126 125 125 122 119 117 112 109 104 102 103 103 102 100 93 90 85 81 75 69 62 58 47 39 33 29 24 18 18 22 34 44 61 73 76 76 75 74 60 63 60 51 41 34 23 14 5 14 9 4 8 9 7 10 4 8 12 11 7 7 7 10 5 6 7 10 12 13 12 11 18 15 14 16 14 10 10 12 10 18 29 42 63 84 93 91 60 39 22 19 27 35 41 47 59 62 70 81 89 96 109 120 130 138 148 156 160 161 162 163 173 173 173 173 175 177 178 179 178 172 169 170 167 159 152 151 158 151 141 132 122 107 92 83 65 42 30 48 87 105 87 59 35 25 18 17 17 15 13 14 20 13 9 13 15 18 19 22 19 19 16 15 12 9 7 6 19 26 34 44 50 45 29 11 6 30 57 80 96 118 130 124 99 71 45 23 6 9 19 20 9 18 34 50 53 49 156 47 35 23 12 10 11 9 5 5 11 9 10 15 15 16 17 22 29 32 38 45 51 57 60 63 63 65 67 68 69 70 74 76 78 79 79 78 79 81 83 86 87 83 83 97 118 133 133 126 120 117 75 121 125 145 165 167 160 151 140 129 117 105 102 104 119 110 86 55 32 26 29 31 48 54 60 55 44 35 33 34 26 22 18 18 22 25 24 22 24 26 34 42 44 43 43 46 57 63 69 68 67 62 53 44 43 46 52 61 67 69 67 66 57 55 51 49 48 50 55 57 62 67 76 91 109 126 139 146 147 151 154 155 155 156 157 157 157 157 157 158 159 161 164 165 
87 87 87 86 85 84 81 80 79 78 77 77 78 80 81 83 84 85 87 89 91 89 86 82 65 58 50 52 69 96 123 140 123 83 44 26 24 23 20 19 21 24 20 34 75 109 125 135 134 122 110 105 106 108 113 118 135 134 133 131 129 126 123 122 118 115 113 112 110 109 107 105 95 93 90 84 77 67 58 50 41 33 25 23 22 23 28 35 46 53 62 68 67 61 54 48 32 30 24 17 13 11 7 4 14 23 19 11 14 18 24 35 32 34 39 44 47 42 37 30 7 8 11 11 10 7 7 6 13 11 11 13 12 8 9 15 13 12 11 14 30 55 79 92 94 75 49 34 28 28 34 41 54 58 67 79 89 97 109 120 133 140 150 159 164 165 165 164 175 177 179 180 181 183 186 188 192 183 175 173 170 165 161 161 161 154 143 129 116 102 89 80 65 39 36 74 110 97 55 21 26 21 18 18 16 13 14 17 19 15 14 18 19 18 19 20 22 19 15 12 14 18 24 28 50 56 68 80 76 55 29 11 44 49 93 123 140 158 160 142 96 48 16 11 5 4 19 31 19 30 53 76 79 68 67 77 59 42 17 21 21 16 7 4 11 8 8 11 13 11 13 17 24 29 36 45 55 62 68 70 67 68 70 72 71 73 76 79 85 85 85 85 85 85 88 90 97 97 103 117 131 141 143 142 117 110 112 113 104 104 115 118 114 104 92 84 78 75 77 82 87 82 66 42 27 27 34 39 44 48 49 42 29 21 20 23 24 17 11 14 23 32 34 35 32 33 38 45 46 45 46 50 59 64 70 68 62 54 43 34 39 44 56 68 77 79 75 72 63 61 56 53 53 54 57 59 65 70 79 93 110 126 139 146 149 153 155 156 157 157 158 158 159 159 159 160 161 163 165 166 
76 76 76 76 74 72 71 70 67 67 67 67 68 71 73 75 78 79 80 81 83 84 84 83 75 67 56 51 59 76 92 99 85 54 26 21 25 23 20 20 19 20 17 32 70 105 121 131 119 106 99 104 112 116 125 134 141 140 137 134 131 128 125 125 122 120 118 117 117 114 110 107 98 95 89 83 75 65 54 47 37 30 27 27 29 34 41 50 52 49 45 41 36 31 26 22 14 12 10 9 13 17 21 22 35 43 35 20 18 26 46 73 99 92 93 107 116 101 67 40 14 16 17 15 11 6 5 5 8 8 12 16 15 11 10 13 18 19 16 13 17 27 41 50 90 92 86 66 42 29 34 44 54 59 70 85 95 103 114 125 137 143 152 160 167 169 170 172 173 177 182 185 185 185 185 186 193 186 180 178 175 172 170 171 161 155 144 131 119 106 88 73 49 50 67 91 93 64 36 23 27 24 21 20 16 13 18 24 16 17 21 27 27 21 15 13 23 18 13 13 23 39 57 69 93 90 94 97 84 52 26 14 32 62 100 114 112 118 116 98 55 18 2 6 6 6 22 37 31 34 49 63 59 49 58 78 72 30 27 39 27 29 19 14 15 11 10 13 14 13 13 16 18 22 29 38 48 58 65 69 72 73 75 76 76 77 80 83 87 88 90 89 89 91 94 97 96 99 104 105 97 88 85 87 75 69 81 86 67 53 59 69 50 35 21 16 19 23 27 32 51 59 61 51 40 41 50 57 37 38 34 25 16 16 21 29 33 24 15 17 29 40 44 43 41 41 46 51 52 51 53 57 61 64 65 61 54 47 38 34 40 50 64 77 85 87 80 73 67 64 59 57 57 59 61 63 69 76 86 100 115 129 142 150 153 157 159 160 160 160 160 161 161 161 161 162 163 164 166 167 
59 60 60 60 60 59 57 56 59 58 58 59 60 63 66 68 71 72 73 74 75 78 81 83 79 75 65 56 56 59 58 52 42 27 18 21 24 20 14 11 14 18 15 27 62 92 106 116 99 93 96 110 123 127 133 142 142 142 139 136 133 130 128 126 124 123 121 120 119 116 111 107 102 96 89 80 72 63 55 50 41 37 35 36 38 39 44 50 44 39 30 24 19 16 14 13 9 12 18 26 35 43 52 60 74 75 57 33 24 37 73 114 161 154 157 169 166 131 78 41 9 11 13 13 12 11 10 10 6 7 12 20 23 18 14 13 12 16 20 22 22 23 28 32 57 77 94 92 75 60 56 58 67 72 83 96 105 111 120 130 143 145 152 160 169 174 178 179 174 179 186 191 192 191 189 187 189 187 186 186 181 175 173 176 170 164 152 140 129 113 88 65 39 70 97 92 63 38 31 33 28 24 22 20 17 17 25 35 28 27 28 31 26 18 10 10 11 11 12 20 36 56 77 90 113 107 106 104 86 49 63 12 36 56 73 63 40 37 40 32 15 4 4 9 6 17 38 48 42 34 27 26 20 21 41 69 77 69 63 75 54 75 32 28 16 11 9 13 14 14 12 14 16 17 23 30 38 49 57 62 70 72 73 73 74 75 79 80 82 85 87 90 91 94 97 101 101 106 110 99 71 45 35 37 15 6 30 61 49 37 50 68 57 38 18 10 11 12 11 12 33 50 61 54 38 34 42 52 49 48 43 35 28 26 32 38 39 28 19 20 31 43 48 47 50 50 51 55 57 57 60 66 69 67 61 54 45 37 34 35 44 56 72 84 93 96 88 78 71 66 60 58 59 64 66 67 77 84 96 108 122 135 148 155 160 162 164 165 165 164 164 165 164 164 163 164 165 167 167 169 
50 51 51 51 50 49 47 46 49 50 49 50 51 54 57 58 62 64 65 66 67 69 74 78 76 78 73 65 61 58 44 28 17 17 21 25 28 24 15 8 9 16 15 23 50 73 86 96 93 97 109 123 134 138 142 146 144 143 142 140 138 135 132 131 127 126 123 122 120 116 111 108 104 98 89 80 74 68 64 59 55 49 47 45 41 35 32 34 20 19 17 15 14 13 14 14 26 32 46 58 67 76 89 101 110 99 67 36 28 41 79 123 158 159 164 164 140 94 50 25 2 4 9 15 23 26 29 28 11 9 13 25 33 31 24 21 16 18 22 26 27 27 33 40 41 57 78 90 94 88 74 60 68 73 85 97 106 112 122 131 146 149 155 162 172 178 181 182 187 189 193 198 202 202 198 195 185 188 192 189 176 163 160 164 159 156 145 130 119 106 82 60 58 91 107 82 48 35 34 32 24 21 18 19 20 25 37 48 46 39 31 24 16 11 12 17 13 19 28 42 59 76 88 95 109 108 112 113 99 11 11 14 27 45 67 64 39 21 14 3 4 4 11 8 5 24 50 59 58 41 22 9 8 23 51 77 81 78 76 75 69 56 45 25 21 23 20 23 24 22 20 20 21 22 26 31 38 46 55 59 66 67 69 69 69 70 72 75 79 81 86 89 93 96 101 103 108 113 119 115 91 62 48 48 31 44 61 78 67 59 74 89 62 46 30 23 21 18 17 17 32 50 61 54 38 35 46 58 70 70 65 56 45 37 35 36 34 26 20 22 32 43 48 48 52 52 52 56 59 60 66 74 78 70 60 49 38 30 31 36 46 60 79 90 101 108 102 91 77 70 62 59 62 67 71 73 83 91 103 115 127 139 151 160 163 166 168 168 168 168 167 169 166 166 165 166 166 167 168 170 
42 43 43 43 43 42 41 41 40 40 40 40 42 44 46 48 52 54 56 57 57 60 64 69 71 76 76 70 67 62 44 25 13 23 30 32 36 39 29 15 11 20 18 20 39 58 72 84 93 107 121 130 137 144 148 149 146 147 148 148 146 144 140 139 133 130 127 124 122 118 115 112 107 101 93 87 82 77 74 71 68 63 57 52 42 30 22 20 11 13 16 17 17 20 24 27 52 60 76 88 92 96 112 129 119 94 49 17 13 24 51 85 100 96 91 84 59 27 5 2 4 5 9 22 36 47 48 48 23 16 18 31 46 50 46 41 35 28 22 21 22 25 33 44 50 60 71 81 91 94 84 71 74 77 83 94 98 101 109 117 136 139 146 155 164 168 167 165 182 177 173 173 177 178 174 169 165 171 175 165 141 118 113 118 132 135 128 113 106 104 96 87 112 122 110 75 46 42 41 36 26 23 21 25 29 34 44 55 50 40 29 21 13 12 19 28 37 42 52 65 79 91 100 105 110 118 7 21 118 94 56 28 32 46 82 104 93 71 51 34 28 19 19 19 20 38 57 59 62 49 28 13 21 46 72 87 84 78 49 63 77 68 58 7 4 44 38 39 39 35 30 30 31 33 38 44 50 56 60 63 67 69 70 70 70 71 73 76 82 86 90 95 99 102 107 110 108 107 112 119 107 80 59 53 28 26 35 39 28 24 32 37 22 21 20 19 14 13 19 28 58 74 87 85 79 82 93 102 92 87 76 61 47 39 37 37 36 31 27 30 36 44 48 49 49 48 49 54 58 60 68 76 79 70 59 47 35 28 32 39 52 68 85 97 108 118 114 102 85 77 66 61 64 70 74 76 84 92 106 117 127 139 151 160 164 168 170 170 169 169 168 170 168 168 167 167 168 169 170 171 
34 34 34 35 34 34 32 31 35 34 34 34 35 37 39 41 44 47 50 50 51 53 57 62 66 71 71 66 65 62 44 24 18 29 35 33 41 51 41 22 18 26 22 20 34 51 66 80 89 107 122 125 129 140 148 147 148 150 152 153 153 150 147 145 137 134 130 126 124 121 118 115 108 103 98 93 90 86 82 79 76 69 62 55 43 29 19 15 26 29 29 29 27 33 43 52 67 76 91 99 98 98 115 134 133 99 46 16 16 25 39 62 73 53 35 28 21 9 3 7 6 5 10 24 42 55 56 53 34 24 22 37 57 66 65 59 46 33 22 17 17 20 31 44 62 72 80 80 83 93 100 101 97 95 96 96 91 88 90 95 115 120 129 140 148 149 143 138 156 145 132 128 130 130 125 119 136 142 144 128 95 67 61 67 115 124 123 111 107 118 130 133 158 147 115 72 47 43 48 50 33 28 28 32 37 42 49 56 39 33 27 23 18 19 26 36 58 60 64 72 83 99 111 118 121 131 7 20 133 115 78 45 31 33 61 93 97 85 70 59 56 36 30 38 44 54 61 58 54 46 29 17 30 59 80 84 84 75 11 11 81 78 69 63 65 55 7 21 47 41 35 34 40 43 51 58 64 67 67 68 73 75 77 77 76 77 80 82 90 93 98 103 106 110 114 117 130 119 117 124 117 87 54 38 32 22 23 23 17 20 26 24 21 30 40 42 36 33 46 62 75 90 104 110 112 116 119 121 107 96 76 57 43 40 45 51 43 41 39 40 43 47 50 51 46 44 45 50 55 58 67 76 74 66 56 46 36 30 35 44 60 76 91 101 112 123 120 108 92 81 69 63 66 72 77 78 84 93 106 118 127 138 150 158 165 168 170 170 169 169 168 169 169 169 169 168 169 169 170 171 
33 34 33 32 31 29 28 27 29 29 28 28 29 29 30 31 35 34 36 40 43 46 48 47 50 56 64 67 60 45 28 16 18 28 39 44 51 52 40 22 16 20 27 26 29 54 83 92 104 89 93 114 126 137 144 142 151 152 152 151 149 149 151 152 149 147 144 140 134 129 125 123 114 108 101 95 92 87 80 74 68 61 51 40 31 27 26 26 29 34 41 47 50 60 74 85 92 98 105 109 110 114 121 128 130 113 79 40 23 33 49 57 72 61 46 32 24 21 19 18 23 23 28 39 52 56 50 42 30 24 30 51 71 74 68 63 51 42 32 28 32 37 38 37 56 80 102 106 106 115 127 134 130 128 119 106 95 86 76 67 80 83 83 80 87 94 88 74 85 78 68 58 54 57 66 74 95 96 87 71 52 42 42 47 88 101 106 105 110 124 133 133 119 93 69 60 53 45 43 47 44 39 36 42 51 57 56 53 41 36 26 18 16 27 43 57 83 74 66 68 81 99 113 121 126 131 135 136 140 135 115 90 54 31 28 58 88 90 73 64 65 64 56 53 60 66 60 47 38 22 12 28 60 88 98 96 91 86 87 95 96 83 69 63 61 63 7 20 47 37 38 46 53 59 68 77 82 85 88 90 85 85 87 88 90 92 94 95 105 106 109 112 115 118 120 122 128 134 132 132 135 112 68 40 44 7 21 56 56 61 67 76 74 73 73 75 81 86 93 97 108 110 114 119 122 120 116 112 95 91 82 70 58 51 49 48 39 45 51 53 51 52 55 60 54 48 44 49 55 60 68 75 69 66 60 53 49 51 56 60 77 85 95 105 116 121 116 109 91 80 68 67 70 76 83 89 93 97 104 110 119 131 144 153 161 165 171 172 169 168 169 172 171 171 170 170 170 170 170 170 
34 34 33 33 31 30 28 27 26 26 25 24 24 25 25 26 31 31 32 34 38 41 44 43 50 55 58 54 41 28 19 14 28 36 44 50 52 48 36 26 19 16 16 14 22 51 82 88 89 75 83 105 121 131 139 138 152 153 154 153 152 152 154 156 153 152 149 145 140 136 132 129 116 110 103 97 92 86 79 72 62 55 47 42 39 37 35 34 40 42 45 47 53 67 83 95 110 112 118 122 126 128 130 131 141 129 98 59 33 30 43 54 71 70 64 54 44 38 36 36 34 40 47 54 56 52 45 39 28 28 37 58 76 77 70 65 56 49 45 50 59 62 55 49 58 75 100 121 125 118 112 112 122 116 107 98 92 87 78 71 56 63 68 71 79 90 87 77 87 85 83 80 79 82 89 94 115 111 105 93 79 68 61 57 66 71 69 64 70 83 88 83 58 49 49 56 59 53 48 51 49 49 51 58 67 72 71 67 33 30 27 26 31 41 55 65 70 64 60 60 69 82 95 6 30 114 122 132 142 145 135 122 90 60 38 42 57 60 54 50 54 58 58 54 51 47 37 26 21 25 38 61 88 104 105 100 94 89 89 93 92 82 73 70 67 66 63 57 48 41 27 51 62 67 77 86 92 97 100 103 102 101 102 102 103 104 106 108 116 117 118 119 120 121 123 123 132 137 134 136 141 117 71 41 59 7 20 105 106 108 107 111 118 117 116 117 120 123 128 130 128 127 126 126 125 122 117 112 100 96 88 77 63 53 47 45 37 44 51 52 51 53 59 67 61 52 46 49 54 58 64 70 71 70 68 65 64 67 73 78 92 98 105 112 119 123 119 110 96 84 73 71 74 79 85 92 94 98 103 109 116 126 139 148 161 164 169 171 169 167 168 171 173 173 172 172 172 172 172 171 
34 34 34 33 32 30 29 28 26 25 24 23 22 22 22 22 27 27 26 28 31 34 37 37 45 48 46 36 20 7 8 9 19 26 40 53 55 48 41 39 56 46 42 41 52 80 101 98 70 60 72 98 115 126 135 135 149 151 153 154 154 154 156 158 157 156 154 152 148 144 141 139 122 117 109 103 98 92 84 78 70 66 62 59 60 59 57 54 48 46 44 47 56 70 86 96 116 117 121 128 135 141 140 139 150 143 125 94 56 30 28 35 61 67 72 69 60 53 52 54 53 60 67 64 52 39 31 30 31 35 48 65 75 72 64 59 49 46 48 60 77 85 79 70 64 73 100 129 134 110 83 71 89 83 80 81 83 83 78 75 80 90 100 104 112 123 126 121 127 132 136 141 142 144 147 148 148 142 137 133 129 118 103 92 77 73 64 55 57 64 61 53 38 38 48 63 68 62 54 52 52 56 63 72 78 78 73 68 34 31 30 31 34 40 43 46 44 44 46 48 54 65 75 44 89 93 105 121 135 140 141 144 124 97 63 45 46 52 52 48 50 56 59 55 47 41 33 27 37 53 79 101 113 112 103 96 89 87 87 6 30 83 80 81 77 71 63 58 52 50 55 75 73 80 90 98 105 110 115 118 120 119 117 116 117 119 121 122 126 126 127 128 129 130 130 131 137 141 137 141 149 125 76 43 72 113 141 142 143 141 137 138 143 142 141 140 140 140 141 141 141 137 133 129 125 121 116 112 104 101 93 81 67 53 44 40 36 43 51 52 50 54 64 75 69 58 49 50 53 57 62 66 70 72 76 77 81 87 93 98 108 112 114 118 122 126 123 115 102 90 78 76 78 82 89 95 97 100 105 109 115 123 136 145 160 164 169 170 168 166 167 170 171 171 171 170 170 170 170 169 
35 35 35 34 33 31 30 29 29 28 27 25 24 23 23 23 25 24 22 23 26 29 30 31 34 40 44 42 37 36 41 46 40 47 67 89 94 88 88 94 114 103 98 96 98 112 111 92 57 52 68 96 112 123 134 135 144 146 150 152 152 154 156 158 158 157 157 155 153 150 148 147 132 127 121 115 112 106 100 95 91 91 90 87 82 78 74 73 59 56 54 58 67 79 88 93 99 101 107 116 125 132 137 140 149 148 146 129 92 50 28 26 43 51 59 62 60 58 56 58 54 59 60 54 42 33 30 31 45 51 61 70 70 63 55 50 48 44 44 53 68 79 83 81 77 88 112 135 138 117 85 65 58 58 67 83 95 95 93 93 114 123 130 131 135 143 147 149 151 156 165 170 173 172 171 171 169 165 162 162 162 156 141 129 116 112 100 88 84 82 72 62 59 56 60 71 75 70 62 57 56 62 72 80 81 76 68 63 51 47 45 44 45 45 43 40 46 50 54 56 57 61 68 75 81 83 95 111 119 118 123 131 135 124 102 84 82 89 88 79 79 79 78 76 74 73 73 73 81 93 108 116 113 102 91 85 78 80 84 44 88 88 90 92 83 72 62 58 59 61 68 76 84 45 95 107 113 118 122 125 127 126 124 124 125 126 131 133 132 133 134 136 138 140 140 141 142 144 140 145 154 131 80 44 83 125 150 147 144 143 142 144 141 140 139 138 136 134 132 131 133 131 128 125 123 120 116 113 106 102 94 80 66 53 44 40 37 45 53 53 51 55 67 78 72 61 51 52 56 59 62 65 65 70 79 87 94 101 107 111 117 118 119 120 124 128 126 120 108 95 84 81 82 86 91 96 101 104 107 112 117 126 138 147 159 163 168 169 167 165 165 167 167 167 167 166 166 166 166 165 
36 36 36 35 34 32 29 28 31 30 29 27 25 24 24 24 24 22 20 21 24 27 26 27 29 39 55 73 87 96 103 105 102 105 118 131 133 128 133 144 156 147 141 133 126 126 115 89 55 50 67 93 107 117 130 134 141 144 148 151 152 154 156 158 156 155 155 154 154 152 150 149 139 135 130 128 127 124 120 116 111 114 112 105 91 82 78 79 77 76 78 83 92 98 98 97 85 89 93 95 98 105 115 123 136 137 141 141 120 87 61 54 46 49 54 59 64 66 66 65 57 55 52 49 48 49 54 57 65 72 78 79 74 68 61 57 64 63 62 64 69 76 85 90 99 119 137 142 144 141 121 98 57 60 80 111 127 125 121 122 127 132 135 132 132 137 144 148 149 154 162 167 168 168 168 168 167 166 163 162 161 155 145 138 132 131 125 116 107 97 87 78 72 64 63 69 78 77 70 64 62 68 76 83 83 77 69 63 68 65 63 66 71 74 74 72 83 87 89 85 77 73 74 78 87 89 98 109 109 101 102 111 125 130 127 122 124 133 131 122 115 108 103 106 114 118 116 113 98 100 102 104 99 93 85 80 76 82 88 91 92 93 94 93 79 69 61 60 65 71 79 86 95 41 55 112 49 63 123 126 129 127 127 129 130 133 138 140 139 140 141 143 144 146 146 147 147 149 144 148 157 132 80 45 92 25 21 148 144 145 144 145 142 142 142 140 138 135 132 131 125 124 125 125 125 123 118 115 109 104 93 79 65 55 50 48 42 49 55 56 55 58 68 78 71 61 51 53 57 61 62 64 63 71 83 95 104 111 117 120 124 124 122 122 124 130 127 121 110 98 87 84 85 88 93 98 102 105 108 112 117 127 140 148 158 162 167 168 165 163 163 165 165 165 165 164 164 164 164 163 
36 36 36 36 34 33 30 29 30 29 27 26 24 23 23 23 23 22 21 22 25 26 24 23 28 41 61 83 101 108 110 107 116 115 118 118 112 106 108 115 120 116 116 110 102 108 108 94 58 54 68 90 100 109 123 129 140 144 149 152 154 155 157 160 154 154 154 154 154 153 151 151 144 140 137 138 140 141 138 134 127 129 126 114 100 89 84 85 92 94 98 103 109 110 107 103 93 94 94 88 82 84 93 101 114 113 117 124 124 115 104 98 81 79 78 82 87 91 92 92 94 87 79 75 76 79 81 82 82 89 92 89 85 82 78 76 79 85 91 95 98 104 112 120 121 140 146 136 134 142 132 111 69 68 85 122 146 140 129 127 124 126 128 128 129 135 143 150 151 157 162 167 169 171 173 174 165 163 160 156 150 142 136 132 122 123 121 117 110 102 90 83 73 69 67 73 80 81 74 66 64 66 69 74 77 75 70 65 71 69 69 71 76 82 87 89 94 98 100 97 91 86 87 89 96 101 109 114 109 102 102 104 106 114 119 120 127 138 141 138 122 109 101 109 122 123 114 105 82 80 80 85 92 95 92 87 87 92 95 95 94 92 87 82 69 63 61 64 72 78 88 97 104 109 114 118 11 11 126 128 131 132 133 135 138 141 144 145 148 148 148 147 149 149 148 149 151 154 149 151 157 132 82 47 99 7 4 155 152 154 150 146 145 145 143 142 139 136 134 133 126 126 127 128 128 125 120 116 112 106 96 82 70 61 57 57 48 54 61 64 65 67 72 77 69 58 48 50 55 56 55 54 60 70 84 96 108 115 122 125 130 129 126 122 124 128 125 120 113 101 90 87 89 91 96 100 104 106 108 110 115 126 137 148 157 162 166 167 164 162 162 163 164 164 164 164 164 164 163 163 
37 37 37 36 35 33 31 30 29 28 27 25 24 24 24 24 22 22 23 25 26 26 22 20 26 38 55 68 73 71 67 65 73 85 96 98 94 88 79 72 55 62 72 70 65 76 91 89 69 62 74 90 94 103 118 126 138 142 148 151 153 154 156 158 155 157 157 156 156 154 153 152 149 147 145 147 151 152 152 149 143 138 130 122 114 108 103 100 102 103 105 108 111 113 113 112 111 109 104 97 91 90 92 96 103 105 107 110 119 127 128 123 114 113 110 107 106 107 110 113 129 123 116 109 104 99 93 89 86 94 98 95 92 91 88 84 84 87 94 100 107 116 125 132 129 136 135 126 126 130 125 111 84 66 72 111 142 140 122 113 109 111 117 124 130 138 146 152 155 160 164 168 170 172 174 176 174 171 167 161 155 149 141 134 124 119 116 114 113 104 92 83 75 77 80 81 82 83 82 80 68 64 61 62 67 68 65 61 64 64 63 62 62 66 71 75 77 80 83 84 84 85 89 93 99 106 113 112 110 111 112 111 99 100 102 104 111 121 129 133 112 96 86 95 108 111 104 98 85 80 78 83 93 99 99 96 98 100 97 91 25 21 77 67 62 62 66 74 82 90 100 108 115 119 124 127 128 132 134 136 137 17 141 144 146 148 148 149 150 150 150 152 152 152 153 153 156 160 155 155 157 130 83 51 112 151 168 156 153 158 154 148 145 143 141 138 135 132 130 129 128 126 124 124 123 122 118 116 111 107 98 86 73 64 59 57 52 58 66 73 77 78 78 78 67 55 45 45 48 45 40 37 50 60 74 89 101 110 117 120 124 123 121 119 120 126 123 119 114 103 92 90 92 94 99 103 108 110 111 112 115 125 137 147 158 162 166 166 163 160 161 162 163 163 163 163 163 163 163 163 
37 37 37 37 35 34 31 30 30 29 28 27 26 26 26 26 21 21 24 26 27 25 21 16 21 34 49 55 51 45 43 44 45 72 103 120 125 120 100 81 56 70 86 84 71 80 96 97 78 71 78 92 93 100 116 126 135 139 145 148 150 151 152 153 157 158 158 158 157 156 155 154 155 153 151 153 158 161 160 157 149 138 127 123 124 124 118 112 109 109 109 110 111 115 119 122 123 119 113 110 107 107 105 104 108 115 116 115 122 134 136 129 124 124 122 114 106 102 106 112 126 126 126 122 114 104 94 89 84 92 96 93 91 91 86 79 81 79 77 79 87 96 105 110 126 122 122 127 135 136 132 126 99 68 62 102 142 142 123 110 112 115 124 136 148 156 161 166 170 174 178 180 180 181 183 184 183 178 172 169 167 161 151 143 138 126 117 116 117 110 95 83 72 78 84 82 80 85 95 101 77 69 60 58 62 65 63 59 60 61 60 57 56 57 63 67 65 67 69 72 75 77 81 84 96 107 112 108 109 115 118 114 105 102 100 103 108 115 122 130 115 96 84 91 106 115 118 119 109 101 93 90 95 99 100 100 100 98 92 83 7 4 69 57 61 63 71 83 92 100 109 118 123 125 130 133 136 139 142 144 30 158 146 149 151 150 149 149 148 149 151 152 155 157 159 160 160 165 160 157 157 130 83 54 129 18 39 152 149 158 157 152 148 146 143 139 135 132 130 129 124 121 117 115 115 116 115 114 107 105 98 87 75 64 56 53 55 60 69 79 86 87 84 81 66 54 43 42 42 36 27 23 38 47 62 77 91 100 107 111 113 114 113 113 118 124 124 119 115 105 94 92 94 97 101 105 114 115 115 116 119 126 138 147 156 161 165 165 163 160 160 161 160 160 160 160 160 160 160 160 
40 40 39 38 36 34 32 31 31 30 28 26 26 25 25 26 25 27 28 29 29 29 27 26 33 32 43 58 61 52 51 57 57 63 76 87 89 78 65 55 42 59 71 69 72 86 100 103 79 78 82 90 97 104 115 123 134 137 141 144 146 148 151 153 155 156 156 157 157 157 156 155 160 160 159 158 157 157 157 158 146 146 145 142 137 130 124 121 113 112 113 115 118 119 118 117 115 116 116 118 121 123 124 124 126 130 132 134 135 140 147 153 144 137 127 119 116 116 118 119 126 129 131 126 116 106 100 98 89 83 77 72 71 70 68 65 62 64 68 74 77 82 90 97 103 122 135 128 117 118 125 130 98 76 65 92 133 135 117 111 124 133 143 150 160 170 177 179 183 188 194 194 189 188 189 192 190 187 183 180 176 171 165 160 146 144 138 128 122 115 103 92 80 81 82 86 93 97 94 86 72 71 70 68 62 57 56 57 69 68 67 66 65 63 62 62 64 61 58 59 63 67 68 68 74 76 82 91 100 107 110 111 101 103 107 113 117 123 127 129 121 111 100 99 108 116 120 119 117 110 100 93 92 92 92 90 86 84 78 76 73 72 70 68 73 80 92 105 114 122 128 131 134 137 140 142 144 146 149 152 155 155 156 7 21 152 150 149 154 155 158 161 162 163 162 162 156 169 164 157 148 111 72 68 141 33 71 154 161 159 151 156 150 146 140 135 132 131 129 127 124 121 118 116 115 114 111 108 103 101 93 82 70 59 52 49 63 66 70 74 82 89 89 85 61 49 37 33 29 25 19 18 28 32 43 59 70 77 86 94 96 100 107 110 113 113 116 116 113 110 105 101 100 105 112 118 120 121 123 123 125 132 144 154 160 161 161 162 161 161 160 159 161 160 159 159 158 159 159 160 
42 41 41 39 37 36 34 32 33 32 30 28 27 27 27 27 29 29 31 31 30 29 26 26 29 33 46 65 72 66 66 72 62 61 62 63 62 59 57 56 61 72 75 68 72 87 104 110 87 86 89 95 102 107 116 123 132 135 140 143 145 147 150 152 155 156 156 157 157 157 156 156 157 156 155 154 153 153 154 155 150 150 149 146 141 135 129 125 119 118 117 118 119 119 117 115 115 118 122 123 123 124 128 132 138 140 141 143 144 147 150 153 155 148 138 129 125 123 122 122 116 117 116 112 105 97 92 89 79 74 66 62 60 60 59 58 59 64 72 78 84 88 97 104 106 119 126 114 102 103 114 121 102 80 69 94 128 128 116 120 132 143 154 160 168 176 182 184 185 190 196 196 193 191 192 194 194 190 184 180 176 173 169 167 162 158 150 139 129 117 98 81 77 82 84 86 92 95 86 72 65 65 67 70 70 66 60 57 71 71 70 69 69 68 68 67 69 67 64 63 64 64 64 63 63 66 71 77 84 88 88 88 94 97 99 103 108 113 116 117 112 107 100 100 105 109 108 106 104 99 92 88 86 85 83 82 77 74 70 69 72 77 81 83 97 103 112 121 128 131 136 138 140 143 146 148 150 152 155 157 159 158 157 7 20 156 157 157 159 160 161 162 163 165 166 166 165 171 166 159 143 101 70 74 149 168 165 154 160 160 152 155 150 145 140 135 132 130 127 124 121 120 117 116 116 115 113 111 103 101 93 82 70 59 53 50 66 66 68 75 87 94 88 77 58 45 31 26 25 21 18 19 24 27 36 49 58 66 74 83 89 94 101 105 109 111 114 115 114 111 108 105 105 109 117 123 127 128 128 128 128 134 145 154 158 158 157 158 157 157 157 157 157 157 156 155 155 155 155 156 
44 43 42 41 39 37 35 34 34 33 32 30 30 29 29 30 31 32 32 31 30 28 27 26 24 30 44 62 70 66 66 71 67 68 68 66 65 67 70 73 78 79 71 60 62 81 102 111 98 95 98 105 110 112 118 123 131 133 138 141 143 146 149 151 153 154 155 156 157 157 157 156 155 154 154 153 152 153 153 153 154 154 153 151 147 142 136 133 127 126 123 121 122 120 116 113 113 119 125 125 121 121 127 133 136 135 136 139 140 142 142 141 148 142 134 126 121 118 115 113 103 100 96 92 88 83 77 74 67 63 58 56 57 60 63 64 67 74 84 91 96 102 110 117 121 131 134 128 119 118 126 133 111 87 73 94 121 119 117 132 140 153 166 172 175 181 186 187 188 192 197 198 196 195 195 197 198 193 187 182 180 178 176 174 175 171 162 152 142 125 98 77 73 80 80 75 77 85 80 69 64 65 67 70 72 71 65 59 74 74 74 74 75 75 75 75 77 77 76 72 69 65 63 63 62 62 63 66 70 72 71 71 84 84 86 89 92 95 99 99 98 98 96 97 97 95 91 88 92 89 85 83 83 81 80 78 72 70 68 70 77 21 97 102 115 120 127 133 137 139 141 142 148 150 153 155 157 159 162 164 162 160 159 158 159 161 124 156 166 165 164 164 165 167 169 172 171 171 167 161 134 88 72 94 160 172 166 155 159 160 154 154 147 144 139 136 132 129 124 121 119 118 116 116 117 118 117 115 105 103 95 84 72 62 56 54 64 63 66 77 93 98 85 68 52 38 24 20 19 17 17 20 21 23 30 41 48 55 64 73 83 87 94 99 103 107 111 113 114 113 110 109 110 114 122 127 135 135 135 132 132 136 146 153 155 154 153 152 151 153 154 154 153 153 152 151 150 150 150 151 
45 44 44 42 40 38 37 35 35 34 33 31 31 30 30 31 30 31 30 30 29 29 28 27 25 28 36 47 50 46 45 49 59 73 90 100 105 104 100 96 89 83 70 56 59 78 100 111 105 103 105 112 117 118 121 125 130 132 137 141 142 145 148 150 152 153 154 156 157 157 157 157 158 157 156 156 156 156 157 157 157 157 157 155 151 148 144 142 136 133 130 127 124 121 116 113 112 114 117 117 115 114 116 119 117 116 117 121 126 128 125 121 121 117 112 107 105 101 98 96 90 84 78 73 72 68 64 60 58 56 55 57 63 71 78 83 84 93 102 105 109 118 128 132 131 136 142 141 133 125 125 130 120 91 72 88 115 117 120 142 146 160 173 177 178 183 186 187 189 193 197 199 198 197 198 199 199 195 191 188 185 183 180 178 177 174 168 161 155 138 109 83 69 74 69 56 55 68 77 76 60 63 62 58 58 63 68 71 75 76 77 78 80 81 82 82 85 87 88 85 79 74 74 75 71 67 63 62 62 63 63 63 74 74 74 76 76 79 81 83 83 86 88 88 85 80 76 74 82 80 78 77 77 78 78 78 81 79 79 83 92 103 113 118 124 130 135 141 144 146 148 150 153 155 157 160 160 162 165 167 160 161 161 163 165 168 156 190 171 170 167 165 166 169 172 175 171 168 169 158 117 77 84 125 27 172 166 158 158 159 155 151 143 141 138 135 133 129 124 121 117 115 114 115 118 120 118 117 110 106 99 89 75 67 62 60 59 62 70 82 94 94 76 57 43 30 18 14 16 15 16 17 22 24 29 37 45 51 61 70 79 83 90 96 99 104 108 111 115 114 113 111 112 116 123 127 137 137 135 134 134 139 145 151 154 152 150 147 147 149 150 152 151 150 149 148 147 147 147 147 
46 45 45 43 41 39 37 35 35 34 33 32 31 31 31 31 30 31 31 32 32 33 34 33 33 33 33 35 33 30 30 33 45 70 102 125 135 132 119 104 95 89 76 65 68 84 105 118 110 108 109 115 121 124 126 129 132 134 138 141 143 145 148 150 151 151 153 155 156 157 158 158 160 159 159 158 159 159 160 160 160 160 159 158 155 152 150 149 144 140 137 133 130 125 120 116 114 110 107 106 107 106 104 100 105 104 105 108 111 111 107 103 97 95 91 89 86 84 81 78 74 70 65 64 64 65 64 62 61 61 63 68 75 84 95 101 101 109 114 116 123 135 145 147 149 146 146 146 137 124 120 124 125 94 68 80 107 117 127 149 155 166 175 179 180 183 186 186 188 191 195 198 199 199 199 199 197 195 194 193 191 187 181 177 174 172 170 166 162 149 121 95 63 67 63 51 44 52 65 72 62 66 61 46 38 47 68 82 77 78 79 82 84 86 88 89 90 93 95 94 90 88 89 91 82 76 69 63 62 63 64 65 73 72 70 69 70 71 73 74 76 78 81 80 76 73 71 71 76 75 73 73 73 76 79 82 92 93 96 102 111 121 126 129 136 140 146 151 153 155 158 159 155 157 159 162 162 164 166 169 158 161 165 170 171 173 172 173 174 171 168 167 167 169 172 174 171 171 170 147 98 72 103 150 172 75 166 161 156 156 156 149 141 138 136 134 133 130 126 123 117 115 114 115 117 119 117 116 113 109 101 90 79 71 66 65 59 68 77 83 84 77 61 45 34 23 14 14 16 16 15 15 23 25 29 37 44 50 60 70 77 81 88 93 98 101 106 110 115 115 114 112 111 114 120 123 134 133 131 131 133 136 143 148 150 149 147 144 144 145 147 148 147 146 146 144 143 143 143 143 
48 48 47 46 44 41 39 38 36 35 34 33 32 32 32 32 34 35 35 35 36 38 40 41 42 39 37 34 31 31 32 35 43 67 99 123 138 139 124 105 95 90 81 73 73 86 105 120 116 112 111 117 124 128 130 133 134 137 141 143 144 145 148 149 150 150 152 154 156 157 158 158 159 159 159 158 159 160 160 161 163 163 162 161 159 158 156 155 151 149 145 141 138 134 128 124 122 115 108 106 107 105 99 92 100 100 99 99 98 96 91 88 85 82 80 77 75 73 70 67 67 66 65 67 71 75 78 79 85 86 90 93 99 105 114 119 115 121 123 124 134 150 156 153 147 134 127 128 125 118 120 131 120 94 67 69 97 118 136 155 165 172 177 178 180 186 189 188 188 190 194 197 200 200 200 199 195 195 195 195 193 187 180 175 173 172 170 168 164 152 131 109 64 64 65 61 53 45 46 50 87 90 80 51 32 37 58 75 80 83 84 86 90 92 94 95 95 97 99 99 100 101 104 106 99 94 86 81 79 80 81 81 81 79 76 74 74 75 77 78 80 81 82 81 79 78 78 79 83 83 83 83 85 89 96 100 104 107 112 120 128 135 21 139 146 149 153 156 156 157 157 160 157 160 161 164 163 166 167 170 161 163 169 173 176 175 174 172 25 21 172 171 171 171 171 171 177 175 167 128 80 79 124 163 168 162 166 166 156 155 155 147 142 139 136 134 132 130 127 124 118 117 114 115 116 115 113 111 111 107 100 89 77 70 67 66 66 74 80 75 66 57 47 38 30 21 12 14 17 17 15 16 23 23 29 36 42 47 57 65 72 76 83 88 94 100 105 110 115 114 114 113 113 115 118 122 128 127 125 125 128 132 138 141 145 143 142 140 139 140 141 142 141 140 140 138 137 137 136 136 
52 52 51 49 47 45 43 42 38 37 36 35 34 34 34 34 36 36 35 35 36 37 39 40 41 40 39 35 33 35 36 38 46 66 88 108 125 134 122 102 90 87 81 74 72 81 101 117 123 116 114 119 126 130 132 135 139 141 145 146 146 146 149 149 148 149 151 154 156 158 158 159 160 160 159 159 160 161 162 162 166 166 165 164 163 162 161 161 158 155 152 149 147 143 139 136 133 129 123 119 116 112 106 101 99 100 100 97 94 89 87 86 87 85 82 81 81 80 80 78 80 81 83 87 90 95 101 104 111 114 118 120 122 125 131 136 131 135 136 137 148 160 158 147 119 101 93 98 100 94 99 111 108 94 68 62 86 117 142 163 172 174 173 173 178 187 190 188 188 190 194 198 201 202 202 201 196 195 193 192 189 185 179 174 172 173 170 168 163 155 139 122 76 65 65 73 70 49 35 34 93 100 90 60 36 37 50 59 88 89 91 94 97 99 101 102 106 105 104 106 110 114 115 117 117 114 110 107 106 104 103 101 96 94 90 88 87 88 90 92 93 92 92 92 93 92 91 90 95 98 102 104 107 110 117 122 122 124 127 134 141 145 4 145 148 152 155 156 156 156 157 159 160 162 165 166 166 168 170 172 166 168 172 175 177 177 176 175 7 4 175 176 176 174 171 170 184 177 155 105 68 97 149 168 162 156 167 171 156 152 155 145 147 143 138 133 131 128 125 123 121 119 115 114 113 111 109 105 106 102 94 84 73 65 62 62 71 74 70 58 48 45 44 43 32 21 11 11 16 17 18 20 23 23 28 35 40 43 50 57 63 68 75 83 90 97 104 110 115 115 116 115 116 119 122 126 125 123 120 121 124 128 131 135 135 135 134 133 134 133 132 132 133 132 132 130 128 128 128 128 
55 54 54 52 50 48 46 44 40 39 38 37 36 36 36 36 35 35 34 32 32 33 34 35 33 37 36 33 31 32 35 34 44 59 78 96 116 128 117 97 90 88 84 77 73 79 98 116 129 120 116 120 127 131 133 135 142 144 146 147 147 148 149 149 148 149 151 154 156 158 159 159 162 161 161 161 162 163 164 165 168 168 167 167 166 166 165 165 161 160 157 155 153 150 146 143 141 140 137 131 125 120 117 115 102 105 106 103 97 94 94 95 95 94 93 94 97 99 99 99 97 100 105 106 107 111 117 122 121 125 129 131 131 133 138 142 147 150 149 148 158 165 156 138 120 101 93 99 99 86 83 91 99 94 72 59 79 116 146 168 175 172 168 166 174 185 189 187 189 191 194 198 202 204 203 202 198 195 191 188 186 182 178 175 170 172 170 167 162 157 146 134 88 66 61 78 80 55 34 29 67 77 76 56 40 41 50 54 94 95 97 99 102 105 107 108 117 113 111 112 118 121 123 122 123 123 123 123 122 120 114 110 107 106 102 99 98 99 101 102 104 103 103 104 104 103 100 97 100 104 111 116 119 122 127 131 140 140 140 143 147 149 149 150 151 153 157 159 159 160 162 163 163 165 168 169 169 171 173 175 172 173 174 175 176 177 178 178 172 175 178 181 180 176 172 168 184 173 144 88 64 114 168 172 49 63 167 173 155 150 154 144 152 147 140 134 130 127 124 122 122 120 116 114 112 108 105 101 101 97 89 79 68 61 58 58 72 68 58 43 37 42 49 53 34 22 11 10 14 17 20 23 25 26 29 35 39 41 46 53 56 61 69 78 86 95 104 110 114 115 117 118 119 122 126 129 124 121 120 119 121 124 127 129 127 129 129 128 128 127 127 125 127 127 125 123 123 122 121 121 
59 58 56 55 53 51 50 49 44 41 39 38 38 39 39 38 39 39 40 41 40 40 39 38 39 40 41 41 38 38 39 40 45 54 70 87 107 117 113 103 95 86 85 90 84 76 89 110 133 136 133 128 132 141 142 135 144 147 151 152 150 149 151 155 149 150 153 155 156 157 160 163 163 164 165 166 167 168 169 170 168 168 170 170 169 168 167 166 164 163 161 160 158 157 157 157 155 154 153 151 147 145 143 142 136 135 134 132 130 128 126 126 127 127 128 130 132 132 130 127 133 132 132 134 136 136 135 133 133 134 136 138 141 142 142 142 150 153 153 154 164 168 152 128 92 75 79 108 114 89 71 74 83 88 64 54 89 134 160 180 182 175 170 170 177 184 188 189 189 193 198 202 204 202 199 197 194 192 190 189 188 185 180 177 171 170 167 160 154 151 151 152 119 83 56 65 79 70 49 36 38 31 37 51 53 43 46 60 87 95 106 110 106 102 107 117 124 121 117 118 122 124 121 118 114 122 132 139 139 137 135 134 130 122 120 123 126 122 121 123 124 125 126 126 125 122 118 116 123 128 132 135 133 135 140 145 150 148 149 152 156 157 154 124 156 156 159 162 164 166 167 167 172 173 174 175 176 177 178 177 181 181 180 180 180 181 181 183 178 179 180 4 175 173 178 186 179 148 94 66 102 164 181 159 11 11 165 163 160 156 150 145 146 144 138 131 125 122 123 126 124 121 117 115 114 112 110 109 106 98 92 87 77 62 54 54 50 49 45 41 46 57 66 69 58 32 14 16 19 14 14 20 23 26 29 31 35 39 45 49 52 54 59 67 78 91 104 110 115 120 123 124 126 131 131 127 124 119 113 110 111 114 116 117 116 116 116 116 116 117 117 117 116 115 115 115 114 113 113 113 
60 59 58 56 54 52 51 50 46 43 40 39 40 41 42 41 42 42 42 43 42 42 41 40 40 41 41 40 39 39 41 43 42 51 63 80 100 112 111 103 99 90 86 89 89 85 90 100 126 133 137 134 132 138 142 142 146 149 153 153 151 151 154 155 153 155 158 159 159 161 163 165 166 166 167 168 169 170 170 171 169 169 169 170 171 172 172 173 172 172 169 168 167 166 166 166 165 164 163 161 159 157 156 155 151 150 150 147 145 143 143 141 143 143 142 145 146 146 144 141 140 139 137 140 141 142 141 138 141 141 143 144 146 148 150 151 147 150 150 150 157 162 149 130 86 67 65 84 89 74 69 80 89 86 64 64 105 145 165 179 183 179 175 175 178 183 186 188 190 193 198 202 204 202 200 198 193 192 192 191 189 186 180 176 170 168 165 159 154 150 150 151 125 96 66 59 69 73 62 48 38 31 33 45 51 50 51 58 83 91 105 114 115 110 113 119 124 120 117 118 121 122 119 115 118 123 129 131 130 130 129 129 130 125 126 132 137 136 136 139 136 137 138 138 137 134 132 131 135 140 144 145 144 145 151 155 157 155 155 156 160 162 160 156 190 163 165 167 170 171 172 173 178 178 179 179 179 179 180 180 182 182 183 184 184 184 183 183 177 181 183 179 175 176 182 185 164 126 89 90 131 171 179 166 168 167 165 163 161 156 150 145 144 142 138 132 126 123 123 124 127 123 118 115 114 113 112 111 108 101 94 85 71 55 47 48 44 43 42 42 49 64 75 79 65 36 16 17 21 17 16 21 23 26 30 31 34 38 43 46 52 54 59 65 76 89 100 107 114 119 122 123 126 130 130 126 117 114 107 103 103 106 108 109 108 108 109 109 109 110 110 110 108 108 108 108 108 107 107 107 
62 61 60 58 56 54 52 51 48 46 43 41 43 44 43 43 44 44 44 45 44 43 42 42 43 43 41 40 38 39 42 45 39 46 55 70 89 104 108 103 103 94 85 87 95 98 95 88 114 130 143 142 136 135 142 149 149 151 154 155 156 155 156 159 160 162 164 164 164 165 167 168 169 170 171 172 172 173 175 176 171 171 171 172 174 177 179 181 180 180 178 177 176 174 174 175 175 174 174 172 171 170 169 168 168 167 166 165 163 162 161 160 159 159 159 160 161 161 158 156 150 148 147 147 149 149 148 147 149 149 149 150 153 156 158 160 154 157 157 155 159 164 156 143 113 90 76 76 73 64 70 89 93 80 65 80 128 162 172 178 180 180 180 178 178 179 182 185 190 193 198 202 204 203 201 199 194 193 194 194 192 187 180 175 170 168 164 158 153 149 148 149 136 116 85 62 60 73 76 69 44 41 39 45 56 66 69 68 81 87 103 117 124 122 121 123 124 123 121 122 125 125 122 119 124 126 127 127 127 127 128 129 134 132 134 142 148 149 150 153 149 150 151 151 151 150 148 147 151 154 155 155 155 156 161 165 165 165 162 164 167 167 167 167 170 172 174 176 178 180 181 181 184 184 183 183 182 182 182 182 184 185 186 187 187 186 185 185 181 183 181 175 177 124 156 179 131 98 90 126 165 176 172 172 166 17 164 163 160 155 148 143 141 141 138 133 128 124 124 124 127 123 118 114 113 112 111 110 108 104 96 82 63 46 38 38 41 41 41 43 52 70 83 87 71 41 20 19 25 22 20 24 26 30 32 35 37 39 42 46 52 54 59 66 76 88 98 104 113 117 120 121 125 129 128 124 109 103 97 92 92 93 95 96 94 96 97 99 99 99 98 97 97 97 97 97 98 98 98 98 
64 64 62 60 57 55 53 53 51 48 45 43 45 45 45 44 44 44 44 45 44 44 43 42 44 44 41 40 38 39 43 47 39 43 49 61 79 98 107 107 106 96 84 83 99 112 103 85 101 121 144 151 142 135 141 153 152 153 156 157 159 160 161 160 165 166 168 168 167 167 169 171 173 173 174 175 176 177 179 179 176 175 174 175 177 180 183 186 183 181 181 179 178 179 178 178 179 179 178 176 176 176 175 175 177 176 175 174 173 173 172 171 168 168 167 168 169 167 164 162 159 157 155 154 155 156 155 153 155 154 153 154 156 159 163 165 163 165 165 162 163 166 163 156 145 122 100 88 76 72 83 102 92 74 68 99 149 177 179 175 172 176 180 179 176 175 178 182 191 194 198 202 204 204 202 201 195 195 196 196 194 188 180 174 170 168 165 159 154 150 148 148 147 132 106 77 62 65 77 87 64 68 64 57 63 79 87 84 83 86 99 115 128 129 127 127 129 128 128 130 134 135 133 130 133 133 134 134 135 134 135 136 141 141 144 149 152 154 154 155 156 157 158 159 159 159 158 158 161 162 163 162 161 163 167 170 170 169 169 170 172 175 177 178 178 179 181 184 185 186 187 187 186 186 186 186 186 186 186 186 187 187 187 186 186 186 186 187 186 182 174 171 183 156 190 157 97 89 110 158 182 173 166 174 30 158 161 160 157 152 146 141 140 140 139 136 131 127 126 126 126 122 116 113 110 109 107 106 107 105 97 79 57 40 32 33 41 41 40 43 55 72 83 86 72 44 23 21 29 30 28 30 32 35 37 39 41 43 46 48 55 57 60 67 78 87 98 103 113 116 118 118 123 127 124 117 100 95 88 82 81 81 82 83 81 83 85 88 88 88 86 85 86 86 86 87 88 88 89 89 
66 65 63 61 58 56 54 53 52 49 45 45 45 45 45 44 43 43 42 43 43 42 41 41 44 44 41 40 38 39 43 47 40 42 46 55 72 94 109 113 108 97 82 80 101 119 113 93 94 112 137 153 149 139 141 152 155 155 157 159 161 163 163 163 167 168 170 170 169 168 170 171 174 176 177 178 179 180 181 181 180 178 177 176 177 179 182 184 183 183 181 182 182 181 182 183 181 180 180 180 180 179 179 179 180 179 179 178 178 177 176 176 172 170 170 171 170 169 165 162 164 161 159 158 159 160 159 158 160 159 158 158 160 163 166 168 164 165 164 162 162 163 160 156 144 130 112 101 93 93 102 112 87 71 79 120 163 184 182 172 168 174 180 181 178 177 181 185 192 195 199 202 204 205 204 203 197 196 197 197 194 188 179 173 171 170 167 162 156 151 149 149 149 136 119 98 71 55 65 88 101 111 107 84 74 84 95 96 90 88 95 110 124 130 131 132 133 133 134 137 140 142 142 142 139 139 142 144 146 147 146 145 147 150 152 153 155 157 157 157 160 161 162 163 164 165 165 165 166 167 167 167 166 167 170 172 172 173 174 175 178 181 185 187 183 25 21 187 188 188 188 188 185 185 186 186 187 188 189 189 190 188 185 183 182 184 186 189 186 181 173 178 191 187 152 114 86 107 146 177 182 168 165 173 162 159 158 156 153 149 143 139 139 140 141 138 134 131 129 129 126 123 118 115 112 109 106 104 104 103 95 76 54 39 32 32 38 38 38 42 57 73 83 84 70 47 28 27 35 38 38 39 37 39 41 43 44 45 48 51 59 61 66 73 82 92 101 107 114 115 116 117 121 124 118 109 93 87 79 74 72 72 72 72 71 73 75 78 79 78 77 76 77 77 77 78 79 79 80 80 
67 66 64 62 59 56 54 53 51 48 46 44 44 44 43 42 41 42 41 42 42 41 40 39 43 43 41 40 38 39 42 44 41 42 44 51 69 92 111 119 113 99 81 78 96 118 121 111 96 102 120 144 153 146 144 150 156 156 157 160 164 166 165 164 167 169 170 170 169 169 171 173 175 177 178 179 180 181 181 182 181 181 179 179 179 180 182 183 186 186 186 184 184 185 186 187 185 185 184 185 184 182 182 183 181 181 181 182 182 181 180 180 176 175 173 173 172 171 166 162 164 162 160 160 161 162 162 162 165 165 164 164 165 167 168 170 166 165 164 164 164 162 157 153 139 134 126 119 117 116 110 105 82 78 103 143 170 183 182 170 169 175 182 184 182 182 186 190 193 195 199 202 205 206 205 205 199 198 197 196 192 186 178 173 171 171 168 163 157 151 149 148 144 133 124 112 86 56 54 70 130 148 147 118 94 93 102 105 96 91 93 106 119 128 134 137 136 137 138 140 142 145 148 149 142 144 147 152 156 156 154 151 153 157 159 157 158 162 166 166 167 166 167 168 169 170 170 171 173 173 174 175 175 176 176 177 175 177 179 181 183 186 189 192 185 7 4 188 189 189 189 188 185 185 185 187 188 189 190 190 190 188 185 183 182 183 185 188 185 182 182 189 188 163 120 86 107 141 174 183 175 168 168 171 163 159 155 152 149 146 143 140 138 139 140 138 134 131 131 130 128 126 123 121 117 113 108 104 101 100 91 72 52 40 34 30 30 31 34 43 59 77 86 85 69 51 36 35 42 47 48 49 43 43 45 45 46 48 52 55 65 68 73 80 90 101 109 114 117 117 116 116 119 118 111 100 86 79 72 67 65 65 65 65 63 65 67 69 70 70 70 69 70 70 70 70 71 71 71 71 
68 67 64 62 59 56 54 53 50 48 44 42 42 42 41 40 42 42 41 42 42 41 40 39 40 41 41 40 39 39 41 42 41 42 43 49 66 91 113 123 120 103 83 77 90 111 125 130 107 94 101 129 151 152 148 150 157 157 157 160 165 167 166 165 167 168 170 170 171 171 172 174 175 177 178 178 180 181 182 181 182 183 182 183 184 184 184 184 187 187 187 188 188 189 190 191 190 190 189 188 187 186 185 185 183 183 184 185 185 184 184 184 181 179 177 176 175 172 167 164 165 162 160 160 161 163 164 164 168 168 168 168 168 168 168 168 170 167 167 169 170 165 156 150 142 144 143 142 144 138 115 91 83 93 132 166 173 179 181 168 172 176 181 183 184 185 188 191 193 196 199 202 205 206 206 206 201 199 196 194 190 185 178 173 170 170 168 162 156 150 147 146 141 134 128 120 101 74 56 49 116 139 149 130 107 102 108 112 98 93 94 105 118 128 136 143 143 143 142 142 143 146 150 153 150 150 152 156 160 162 159 156 158 164 164 160 160 166 171 173 173 173 172 173 173 175 175 177 178 179 180 184 184 185 183 181 179 183 186 188 187 188 190 193 187 188 188 189 189 189 189 188 188 187 187 188 188 189 189 190 188 188 187 187 186 185 184 185 186 186 190 186 161 127 105 100 150 168 181 176 170 170 170 166 7 21 155 150 148 146 144 143 136 137 137 135 132 130 130 131 128 127 125 123 120 115 107 102 99 98 86 67 50 41 33 28 25 28 34 45 63 81 88 85 70 57 46 45 49 54 56 59 51 51 51 50 51 54 60 64 71 74 80 88 98 109 117 122 121 120 117 115 117 114 104 93 80 73 66 61 59 59 60 60 58 59 60 61 63 64 65 65 65 65 65 64 64 64 64 63 
68 66 64 62 58 56 53 52 50 47 43 41 41 41 40 39 42 42 42 43 42 42 41 40 39 40 40 41 39 39 40 40 41 42 41 47 64 91 114 125 126 106 84 77 85 103 125 141 115 91 87 117 148 155 151 151 158 157 157 160 165 168 167 165 168 169 171 171 172 172 174 175 175 176 177 177 180 181 182 181 181 183 184 186 187 187 186 186 187 188 188 188 189 190 191 192 192 192 191 190 188 187 186 186 184 185 184 185 185 185 185 187 183 180 178 177 176 173 168 165 166 162 160 160 162 165 166 166 167 168 168 168 168 167 165 165 169 166 165 170 171 165 153 146 140 145 150 155 162 154 122 88 86 106 151 180 174 176 180 167 173 176 179 181 182 184 186 188 194 196 199 202 205 207 207 207 202 199 195 192 189 183 177 173 169 170 167 161 155 149 146 144 140 138 130 122 113 94 64 38 78 104 124 120 106 103 109 114 99 94 95 106 119 130 139 147 150 149 147 145 144 147 152 155 158 156 156 158 163 164 163 162 164 168 167 161 159 166 171 171 175 175 175 175 176 177 178 178 180 181 184 187 189 188 186 184 183 187 191 192 190 189 190 192 188 188 189 190 190 189 189 188 191 190 189 189 189 189 188 188 186 187 190 191 190 187 183 181 189 190 191 173 133 99 105 133 181 181 175 166 166 170 168 161 7 20 156 150 148 147 146 145 135 135 135 132 130 128 129 131 126 125 125 124 120 114 105 99 99 96 83 64 48 41 32 24 25 29 35 47 66 83 87 83 72 63 55 52 55 58 61 63 59 58 57 56 56 60 67 72 76 78 84 93 103 114 123 127 123 121 118 114 114 112 101 87 75 71 62 57 56 56 58 58 56 56 56 57 58 60 62 63 62 62 61 61 60 59 59 59 
64 64 62 59 55 51 48 47 47 45 43 41 40 40 40 41 39 40 39 41 41 40 40 39 39 38 36 36 37 38 40 40 39 37 39 50 67 88 113 132 140 129 99 77 81 94 115 138 144 130 103 87 107 144 158 148 148 156 164 163 158 158 168 178 172 173 175 175 174 175 177 180 178 180 180 182 185 186 188 187 188 189 188 188 187 188 189 190 192 192 191 191 191 192 193 194 193 193 192 191 190 189 189 188 185 185 185 185 185 185 184 185 181 181 180 178 177 176 175 174 173 170 168 170 174 174 170 165 169 169 169 169 170 170 171 172 168 171 173 172 170 166 154 143 139 138 144 157 158 135 98 72 49 63 177 175 167 173 178 174 177 180 183 185 184 184 185 186 192 193 194 197 200 203 207 208 205 201 196 195 193 187 179 173 171 169 164 161 158 155 150 147 139 134 130 129 129 116 83 53 48 50 66 91 103 99 96 97 91 96 103 114 124 134 141 144 149 151 153 153 153 153 155 157 162 162 162 162 162 164 165 165 166 166 166 166 168 170 172 173 172 173 176 179 182 184 185 185 190 191 192 192 192 190 189 187 187 190 194 198 200 199 197 195 194 193 192 191 191 191 191 192 189 188 188 188 188 188 188 188 200 196 190 184 182 183 186 189 194 184 158 124 102 115 157 194 174 171 166 164 164 164 164 163 161 157 151 148 145 144 141 139 133 133 133 132 130 128 126 125 124 121 118 117 114 108 99 91 92 91 74 44 26 22 22 19 15 21 34 53 72 84 87 86 83 73 63 60 63 68 69 68 71 68 66 67 66 65 69 76 77 83 92 100 114 126 132 131 128 122 114 110 108 99 86 74 62 57 53 49 48 50 50 49 50 50 52 52 54 54 56 56 56 54 55 54 54 53 54 52 
65 64 62 59 55 50 48 46 47 45 43 40 39 39 39 39 39 39 39 40 40 40 39 39 38 38 36 37 38 39 41 41 40 37 39 49 65 87 113 133 143 136 110 87 84 91 110 134 151 137 117 101 99 115 139 158 158 163 167 168 166 165 166 168 172 174 176 176 176 176 178 181 181 183 183 184 187 188 189 189 187 188 188 188 187 188 189 190 191 191 191 191 191 192 193 194 193 193 193 192 191 191 190 190 189 188 188 188 187 186 186 186 183 182 181 180 178 177 176 176 177 174 172 174 177 177 173 169 170 170 170 170 172 172 173 174 175 175 173 171 171 169 157 144 140 134 138 147 133 103 85 85 11 11 178 176 169 172 178 178 180 183 186 188 187 187 188 189 187 189 191 193 196 199 202 204 200 197 193 193 192 189 181 176 171 168 164 161 159 155 152 149 138 137 134 132 127 117 96 76 47 45 58 83 100 99 93 90 81 89 102 113 122 131 139 143 152 152 153 154 154 156 159 162 162 162 161 163 163 164 165 166 165 167 169 172 175 176 177 178 176 177 179 182 184 187 188 189 192 193 194 194 194 193 191 190 190 193 197 200 202 201 199 197 194 193 192 192 191 191 191 192 193 192 191 190 189 188 187 187 191 188 185 184 185 185 184 182 180 156 127 117 130 153 175 185 170 168 166 165 165 163 161 160 156 154 150 146 144 142 139 136 134 133 133 132 130 128 126 125 123 119 116 114 112 107 98 92 92 88 69 42 24 22 22 17 15 23 36 55 72 84 86 84 84 76 64 61 63 68 73 74 75 72 71 73 70 69 71 76 82 89 98 108 120 131 134 132 127 120 113 109 104 94 78 67 56 53 48 47 47 47 48 47 47 48 48 50 51 52 53 53 51 51 51 50 50 49 49 49 
65 64 62 58 54 50 47 45 46 45 42 39 38 37 37 37 38 38 38 39 39 39 38 38 37 37 36 37 38 40 41 41 39 37 39 47 62 84 112 133 147 148 130 103 89 87 104 129 150 144 139 128 103 91 114 150 157 158 162 166 170 172 171 170 172 174 176 177 178 178 179 181 180 180 181 182 183 184 184 185 187 188 187 187 188 189 189 189 191 191 189 189 191 192 193 192 194 194 194 193 193 193 193 193 193 193 192 191 190 189 188 188 185 184 183 182 181 180 179 179 178 176 174 176 178 179 175 172 172 172 173 173 174 175 176 176 182 179 173 169 170 170 161 149 143 136 138 136 106 74 78 108 148 164 176 176 171 172 176 181 180 183 187 188 188 187 188 189 184 186 188 190 193 194 197 199 195 193 191 191 192 189 183 178 171 167 163 160 158 156 155 153 138 140 139 133 127 121 112 102 59 49 49 67 87 95 94 93 84 93 102 111 116 125 136 145 153 154 155 156 157 159 164 167 164 164 164 164 164 165 167 168 165 168 173 178 182 184 184 182 182 182 183 185 188 190 193 194 195 196 197 197 197 196 194 193 194 196 199 201 202 202 200 199 194 193 193 193 192 192 192 191 194 192 191 189 188 186 185 184 189 186 183 183 185 184 181 178 146 127 114 129 162 186 185 176 167 166 165 164 164 161 158 18 39 151 148 145 143 140 135 132 133 133 133 132 130 128 126 125 121 117 113 111 109 105 98 92 91 83 61 37 24 23 21 16 14 24 41 59 75 80 81 78 80 75 68 63 64 69 76 82 81 78 78 78 76 73 76 81 86 95 107 118 128 136 136 130 125 118 113 106 100 87 69 57 50 46 44 42 43 44 45 45 44 44 46 46 48 49 49 50 48 47 48 46 47 45 46 45 
65 64 61 57 54 49 46 43 46 44 41 38 36 36 36 36 37 38 37 39 39 38 38 37 35 35 35 37 38 39 40 40 36 34 38 44 57 78 108 132 151 160 149 122 100 88 99 124 139 145 154 150 123 98 100 121 143 150 159 165 167 169 172 174 173 175 176 178 179 180 181 182 181 181 181 182 182 183 183 184 187 188 188 187 188 189 189 189 190 191 190 189 190 192 192 192 194 194 194 195 195 195 195 195 196 195 194 193 191 190 189 188 186 186 185 185 184 183 182 182 179 177 175 176 178 178 176 173 174 175 176 177 178 178 179 179 180 179 174 168 166 167 164 159 151 146 139 121 87 69 92 133 164 167 27 176 173 171 173 181 177 180 184 185 185 184 185 186 184 186 188 191 193 194 196 197 193 191 189 190 191 189 183 178 171 167 162 159 158 158 157 156 140 142 139 133 128 125 121 117 82 64 48 51 66 81 94 102 97 104 111 114 115 122 136 147 150 152 156 158 160 162 165 167 166 166 166 167 167 170 171 171 170 173 176 180 184 185 185 185 186 186 186 188 190 193 195 197 197 198 199 200 200 199 198 197 195 196 197 6 30 199 198 198 193 193 194 194 193 192 192 191 190 189 188 186 185 184 183 182 183 188 194 194 188 176 163 155 119 125 140 159 178 185 180 174 171 168 165 162 161 158 155 33 71 149 146 144 142 138 133 129 132 133 131 130 129 127 125 124 118 114 109 107 106 103 96 91 88 76 54 33 24 24 22 17 12 26 46 66 77 78 74 69 70 70 70 69 69 73 80 86 87 82 80 79 77 76 81 87 90 100 113 124 134 138 135 128 119 115 109 103 94 79 63 50 42 41 38 39 40 42 43 43 42 41 42 43 45 46 47 47 45 45 45 44 44 44 43 43 
63 62 61 58 53 49 45 43 45 43 40 38 36 35 36 36 37 38 37 39 39 38 38 37 34 34 34 36 37 38 38 37 34 35 37 42 51 72 102 129 153 169 165 141 114 96 100 120 133 145 155 154 143 126 110 99 124 141 161 171 169 165 166 171 173 174 176 178 181 182 182 181 186 187 187 188 188 189 189 190 189 189 187 187 188 190 189 190 191 191 190 190 191 192 192 193 195 195 195 195 196 196 196 196 196 195 194 193 193 191 190 189 188 188 188 188 187 186 185 184 181 180 179 179 179 180 179 178 177 178 179 180 181 180 180 179 174 176 175 167 162 164 165 165 159 150 124 92 72 83 121 156 167 166 169 75 175 171 172 178 176 179 183 184 184 183 184 185 187 190 191 194 195 197 198 198 194 190 189 190 190 188 182 177 172 168 163 159 159 159 158 157 144 142 137 133 132 131 125 118 104 85 64 52 54 65 82 95 98 107 118 123 124 128 137 145 145 150 156 160 162 162 163 164 169 169 170 170 171 173 175 175 177 179 178 180 181 183 184 185 186 187 188 189 191 193 195 196 198 199 201 202 202 201 200 199 194 194 194 44 195 195 195 195 193 194 194 195 194 193 192 191 188 186 186 186 186 185 185 185 181 189 198 194 177 154 135 125 134 152 174 183 178 172 172 176 177 172 163 158 155 154 152 151 149 147 145 143 141 137 132 128 129 130 129 127 126 124 122 121 115 111 106 104 104 100 94 89 82 68 47 31 25 25 23 19 12 30 53 72 78 73 65 60 61 65 72 75 76 78 83 88 86 80 77 75 75 77 85 93 97 108 120 131 138 142 135 127 113 110 105 100 89 75 59 47 39 37 35 36 39 41 42 42 41 42 42 43 44 45 46 46 46 46 46 45 45 44 44 44 
61 60 59 56 53 49 46 44 44 42 40 38 37 37 37 38 38 38 38 39 39 39 38 38 35 35 35 37 37 37 37 35 35 36 38 41 47 66 98 127 153 172 174 155 130 107 103 118 135 144 147 145 149 153 134 105 102 122 148 165 172 174 174 174 173 173 175 178 182 183 182 180 185 186 186 187 188 189 190 191 190 190 189 189 189 190 191 192 192 192 192 192 192 193 193 195 196 196 196 196 196 195 195 195 195 195 194 193 193 192 191 190 189 188 189 189 188 187 186 186 186 185 184 184 183 183 184 184 180 181 182 183 183 181 179 178 172 175 174 167 163 163 165 164 156 135 97 68 70 105 146 171 165 165 168 173 174 172 173 175 179 182 185 187 186 186 187 187 190 193 194 197 198 199 199 198 194 191 190 190 191 188 180 176 172 168 164 161 160 160 158 157 149 145 137 134 135 134 127 116 115 104 88 70 59 58 66 73 82 95 111 124 129 133 137 141 145 149 155 159 161 161 162 163 171 171 171 172 174 176 176 178 183 181 181 179 180 181 183 184 185 187 189 191 193 194 194 194 198 199 201 202 202 201 200 199 195 194 193 192 192 192 193 193 193 194 195 196 195 194 192 191 190 189 189 189 189 189 189 189 193 188 176 157 139 130 133 138 172 179 185 182 172 168 170 175 175 169 160 154 151 150 49 63 149 146 143 140 138 135 131 127 126 126 125 123 122 120 118 117 112 109 105 102 102 97 90 84 72 59 42 29 24 24 22 21 20 37 60 75 76 69 62 57 60 66 75 81 83 83 85 87 82 78 75 75 77 81 91 101 111 120 130 138 142 141 133 124 108 105 101 94 83 69 54 43 37 35 36 37 40 42 44 43 41 43 43 44 45 46 47 48 48 48 48 47 47 47 46 46 
60 59 58 56 53 49 47 45 42 41 40 38 38 38 39 40 39 39 39 40 40 40 39 39 38 38 38 40 39 38 37 35 38 40 41 42 45 63 96 126 151 172 177 164 144 120 110 118 133 142 144 141 150 161 17 132 112 112 120 138 160 177 181 178 172 172 173 177 182 183 181 179 181 182 183 184 186 187 188 190 192 192 191 191 191 191 192 193 194 194 193 193 194 193 194 195 197 197 196 196 195 194 194 194 195 195 196 195 195 194 194 192 189 190 189 189 188 187 187 187 188 188 187 186 184 185 186 187 183 184 184 185 183 181 178 177 177 176 171 167 167 168 163 156 138 108 78 73 97 132 161 174 165 169 171 171 172 124 156 175 181 184 188 189 189 188 189 189 191 193 195 198 198 199 198 197 193 191 190 191 191 189 182 178 172 169 166 163 162 160 157 155 153 150 142 135 136 135 129 121 119 116 106 91 76 67 66 66 71 79 91 103 114 125 134 140 149 152 155 156 158 160 163 165 170 170 170 171 173 175 176 178 182 181 183 182 183 183 183 182 184 187 190 193 195 195 193 192 197 198 200 201 201 201 200 199 198 197 195 193 192 193 194 195 193 194 195 196 196 194 192 191 191 191 191 190 189 189 188 188 186 171 148 131 129 141 160 173 184 182 178 174 169 167 167 169 165 160 155 151 149 149 11 11 147 144 140 136 134 132 129 126 122 122 121 120 118 116 114 113 110 107 104 102 100 94 86 79 60 49 36 27 22 21 20 21 34 48 66 75 72 66 62 61 68 73 80 84 86 86 85 84 82 79 81 85 89 95 104 114 125 132 137 138 139 136 127 117 106 102 97 88 76 62 48 39 38 37 36 39 41 45 45 44 44 44 45 46 47 48 49 50 50 50 49 49 49 48 48 48 
58 58 57 55 52 50 47 46 42 41 39 38 38 39 41 42 39 40 40 40 41 40 40 39 41 41 42 42 40 40 37 36 42 43 43 43 45 61 96 127 151 170 178 168 153 129 114 119 128 138 146 146 152 30 158 153 146 121 101 109 140 169 175 170 171 171 172 177 182 183 181 178 183 183 185 186 188 190 191 193 193 193 192 191 192 192 193 194 195 195 194 194 195 195 195 197 198 197 196 195 194 193 193 192 196 195 195 196 195 196 195 195 189 189 188 188 188 188 188 187 187 187 186 184 183 183 185 187 184 185 186 185 184 181 178 175 184 177 169 167 172 173 162 148 119 88 72 93 130 155 165 171 167 174 175 170 171 156 190 176 181 184 187 189 189 188 189 190 190 192 194 197 197 198 196 195 192 190 190 191 192 190 185 179 172 170 167 166 163 161 157 154 156 154 147 139 134 134 132 128 123 121 113 100 89 81 77 74 71 71 71 79 93 112 131 143 154 155 154 154 155 158 164 169 168 168 169 170 172 174 175 177 179 180 184 186 186 185 183 182 184 187 192 195 197 196 193 192 196 197 199 200 201 200 199 199 201 200 197 195 194 195 196 198 193 194 196 197 196 194 192 191 192 191 190 189 187 186 185 184 149 143 139 146 160 175 183 186 169 170 172 172 170 166 162 160 157 154 151 149 149 149 148 147 146 142 137 133 131 129 127 125 120 120 118 117 116 113 112 110 109 106 104 103 100 93 84 76 52 43 32 24 20 18 19 21 44 57 69 74 69 64 64 65 77 79 84 86 88 87 85 83 85 85 89 98 103 108 116 125 133 137 139 137 135 130 119 109 104 101 94 84 71 57 43 35 39 38 39 40 44 46 45 45 46 46 47 48 49 50 51 51 50 50 50 50 49 49 48 48 
56 56 54 52 50 47 44 43 43 42 42 41 41 40 40 41 40 40 39 38 38 38 39 39 41 43 44 43 40 37 37 39 40 44 39 38 47 60 82 112 152 167 173 172 165 146 130 130 130 139 146 149 148 151 161 169 168 159 137 112 98 109 140 167 179 178 173 166 170 180 186 185 190 186 180 180 185 190 193 193 191 193 193 193 192 192 194 196 196 196 196 196 196 196 196 196 195 195 195 195 193 192 190 189 196 196 195 195 195 195 194 194 190 190 191 191 190 190 189 188 187 187 187 187 186 186 186 186 187 186 185 185 186 184 180 178 172 160 161 177 185 163 126 101 78 85 102 127 153 168 172 171 176 176 176 175 174 177 180 18 39 185 187 188 189 190 189 190 193 195 196 198 198 199 198 197 195 194 193 193 193 188 183 176 178 174 171 171 172 166 157 148 154 154 152 148 142 136 130 126 118 118 119 119 115 105 91 80 83 87 87 79 71 71 83 96 122 133 150 163 170 171 169 168 166 168 170 173 175 174 174 175 179 182 185 184 180 177 177 178 182 187 189 187 188 193 197 196 196 195 194 194 195 199 203 206 196 196 194 193 193 194 195 196 193 190 189 192 198 202 200 196 200 199 195 185 170 155 147 144 142 152 165 176 182 183 181 180 174 173 170 167 166 162 158 154 149 150 149 146 143 142 142 142 139 138 136 134 130 127 124 122 123 120 117 116 117 114 109 106 101 100 102 103 103 93 77 66 42 29 19 19 17 14 22 36 56 63 72 75 74 73 76 79 83 81 80 80 82 87 92 96 102 108 117 125 129 132 135 136 132 129 126 125 115 102 99 103 99 96 88 79 64 46 39 39 42 41 40 40 40 42 44 45 47 48 49 51 51 53 52 53 51 52 52 54 53 53 51 52 
55 54 53 51 49 46 43 42 42 41 41 41 40 40 39 40 40 39 38 38 38 38 39 39 42 43 44 43 41 39 39 39 41 46 42 39 47 57 80 111 147 165 172 171 172 158 139 132 131 139 147 150 148 150 157 164 160 167 163 144 120 109 121 135 156 167 178 180 182 187 192 192 182 181 182 186 192 194 192 190 189 190 191 191 191 192 195 198 197 196 196 196 196 196 196 195 194 194 195 195 195 194 193 192 196 196 196 195 195 195 194 194 192 192 192 192 191 190 189 188 188 188 189 190 191 192 192 193 185 186 187 187 188 186 181 177 171 176 179 171 156 136 112 94 84 99 122 145 159 166 168 167 175 176 177 177 177 179 183 33 71 187 188 190 191 191 191 192 195 196 198 199 199 199 198 198 197 196 195 195 194 189 184 178 180 176 172 170 171 167 160 153 153 153 151 148 144 138 134 131 124 123 123 123 120 108 93 80 87 90 93 92 86 80 76 75 91 103 121 140 154 162 167 170 170 170 168 169 171 175 176 178 179 182 185 187 186 186 187 190 185 190 192 190 190 195 198 197 200 199 197 197 197 198 200 202 204 203 202 199 196 192 188 187 187 185 185 189 195 197 195 191 187 179 169 158 153 149 148 148 170 173 176 176 173 169 166 165 169 165 163 161 160 159 156 154 148 148 148 146 143 140 25 21 137 136 135 132 129 125 122 120 122 117 115 114 115 113 108 105 97 97 99 102 101 92 74 61 34 23 16 20 22 24 33 46 59 67 73 75 74 72 75 79 78 79 82 85 92 99 107 111 123 127 132 138 139 137 133 130 130 121 115 109 100 91 91 94 102 94 85 74 57 43 37 39 44 43 42 41 41 42 44 44 47 49 50 52 53 53 53 53 53 53 54 55 55 54 53 53 
52 52 51 49 47 44 41 40 40 40 40 39 39 39 38 39 39 38 38 37 38 38 39 39 42 44 45 44 42 40 40 41 42 48 45 41 45 53 76 107 142 167 178 177 183 178 158 142 135 142 148 150 148 149 27 158 168 166 163 161 153 138 120 106 119 138 163 183 193 193 186 177 183 184 185 189 194 195 194 193 190 191 191 190 190 191 194 196 197 197 197 196 196 195 195 195 192 193 194 195 196 196 195 195 197 196 196 196 195 195 194 194 194 194 194 194 193 191 190 189 188 189 190 192 193 195 196 197 192 190 187 185 185 183 179 177 176 180 170 142 121 115 109 100 105 122 145 159 163 163 166 169 172 174 177 179 181 182 185 187 188 189 190 191 192 192 194 194 197 197 198 199 200 199 198 197 198 197 197 196 195 190 186 181 184 179 173 170 170 168 164 161 154 154 152 149 145 140 136 133 127 125 124 125 125 116 101 88 77 80 88 98 107 109 103 96 89 89 89 93 105 123 144 158 168 169 171 173 175 178 179 179 177 180 184 186 186 187 188 189 184 189 191 188 188 192 194 193 195 196 196 197 198 199 200 200 202 203 203 202 199 196 192 189 198 194 190 187 185 181 173 167 156 150 143 144 152 160 165 167 177 176 174 170 165 164 165 167 161 158 154 153 153 153 152 151 147 146 146 144 143 139 7 4 135 134 132 130 127 123 120 118 119 115 110 109 111 109 105 102 95 95 97 100 98 87 69 55 30 20 15 22 30 37 46 57 60 66 72 73 71 70 73 77 79 83 90 99 110 120 128 133 142 143 145 147 145 137 125 115 108 98 91 88 88 88 92 97 98 89 77 65 52 43 40 45 49 48 47 46 45 46 47 47 49 50 52 53 54 54 54 53 55 56 56 57 57 56 56 55 
49 49 48 47 44 42 40 38 38 38 38 38 38 38 38 39 39 38 38 37 38 39 39 40 43 44 46 45 43 42 42 42 42 49 47 41 44 49 68 98 132 166 182 183 190 189 172 155 147 149 150 148 147 148 153 75 169 161 155 161 168 163 143 125 110 114 126 147 171 184 184 178 189 188 185 183 184 188 191 192 194 194 193 191 189 189 192 194 198 198 197 196 196 195 194 194 192 193 194 195 195 195 195 194 198 197 197 196 195 195 194 194 196 196 196 195 194 192 191 190 189 189 190 191 193 194 195 195 192 189 185 184 185 183 181 181 173 158 132 111 107 115 120 121 133 145 157 163 162 163 168 175 171 174 178 181 183 185 187 189 189 189 7 21 191 194 195 196 198 198 198 197 199 198 197 197 195 195 196 196 195 192 188 187 187 182 175 170 168 169 169 168 159 157 155 151 147 141 137 135 126 122 119 122 126 124 114 104 79 76 80 90 106 118 123 124 113 106 92 83 83 93 110 121 135 141 150 160 167 170 171 172 179 183 187 190 191 190 188 186 186 191 193 191 190 192 194 192 193 195 198 201 203 205 205 206 203 202 201 199 196 193 190 188 190 184 176 168 162 155 148 144 143 144 149 156 167 175 178 179 164 164 162 160 159 161 167 172 156 153 149 147 148 149 149 149 147 145 145 144 145 142 138 135 133 133 131 128 125 122 119 117 115 112 108 106 107 105 103 99 92 93 94 97 94 81 62 48 28 21 19 27 38 46 54 61 61 67 73 74 72 72 76 81 88 92 102 113 126 135 143 147 149 147 145 144 139 127 110 96 85 81 76 78 84 92 99 101 88 79 68 61 53 48 48 53 55 55 53 52 51 52 52 52 51 53 54 55 55 55 55 55 58 58 59 59 59 59 58 58 
47 47 46 45 43 41 39 37 37 37 37 38 38 38 38 39 39 38 38 38 39 40 41 41 43 45 47 46 45 43 43 44 42 50 48 42 44 45 61 87 114 156 179 183 187 189 176 166 161 157 151 145 144 148 154 158 155 162 168 167 161 160 164 169 140 126 112 110 124 149 173 189 187 186 184 180 179 180 183 184 194 194 193 191 190 191 194 197 197 197 198 197 196 195 196 195 194 194 194 195 194 193 192 192 199 198 198 197 196 195 194 194 196 196 196 196 195 194 192 191 193 193 192 192 192 192 192 192 189 190 191 192 189 183 175 168 149 128 113 115 120 118 121 130 150 155 161 165 167 168 170 173 171 175 179 182 183 185 188 190 189 189 7 20 192 193 196 198 198 198 198 197 196 196 196 197 193 193 195 195 193 192 190 190 189 184 177 172 169 169 171 171 165 163 159 154 148 142 137 135 128 123 117 118 124 126 122 118 96 90 83 82 87 98 108 115 127 127 125 119 112 106 102 102 101 107 116 126 135 142 147 149 168 173 180 187 191 191 188 186 191 197 199 197 195 198 198 196 199 200 202 203 203 202 200 199 196 193 186 180 174 170 168 168 156 152 147 145 145 147 149 150 163 168 173 174 173 170 169 169 164 163 161 158 155 155 158 160 156 153 148 146 146 147 147 147 146 144 143 143 145 144 141 138 132 131 129 127 124 120 117 115 113 110 105 103 104 102 100 97 91 91 91 92 88 76 57 42 27 23 24 32 42 50 57 62 67 74 82 85 84 86 91 96 104 109 117 126 135 142 147 149 152 147 141 135 127 114 96 84 82 81 81 84 91 97 99 97 82 74 66 62 57 53 52 55 58 57 56 54 53 54 54 54 55 56 57 58 58 58 58 57 61 61 62 62 62 62 61 61 
46 46 45 44 42 40 38 37 37 37 37 38 38 38 39 40 40 39 39 40 40 41 43 43 44 46 48 47 46 45 45 46 44 51 49 44 47 45 54 76 101 141 170 178 186 186 180 178 170 163 151 143 144 148 154 45 95 164 168 168 165 165 170 175 165 158 146 129 114 115 132 152 170 175 182 185 184 183 183 183 191 191 191 189 189 191 195 199 196 196 197 197 197 196 197 197 195 195 196 196 195 194 193 192 199 199 198 197 196 195 194 194 195 195 195 196 195 194 194 193 197 196 195 194 193 192 191 191 196 198 198 194 183 165 147 134 125 118 126 139 133 113 112 127 153 157 164 171 175 174 170 166 173 175 179 181 182 185 188 191 189 189 189 190 191 45 95 199 200 199 199 198 196 197 198 198 194 195 196 195 192 189 190 190 189 186 181 175 171 170 170 171 169 167 162 156 149 143 139 136 45 95 126 123 124 125 125 123 100 94 86 81 82 90 101 111 125 128 133 136 134 130 127 125 118 115 112 110 112 115 119 122 137 141 149 158 166 170 170 168 180 186 189 186 186 187 188 185 191 191 189 187 183 180 175 172 163 160 155 149 147 148 150 151 154 153 152 153 157 164 171 175 178 178 178 173 164 160 159 163 162 163 161 159 154 153 152 154 155 153 149 148 148 149 148 147 146 143 139 140 142 7 4 137 129 128 127 124 121 117 114 112 112 108 102 100 100 101 98 95 91 90 88 87 83 71 53 39 24 26 30 36 43 49 55 59 71 79 91 98 101 104 110 115 125 128 134 140 145 148 150 150 151 144 135 126 115 104 92 84 82 87 93 99 103 106 102 97 80 72 64 62 59 54 52 54 57 57 55 54 54 54 55 55 60 60 61 61 62 61 61 60 63 64 64 65 65 64 64 63 
45 45 45 44 42 40 38 37 37 38 38 38 39 39 40 41 41 40 40 40 41 42 43 44 43 45 47 47 46 45 45 47 48 53 50 49 53 49 52 66 86 119 147 164 179 182 179 184 173 164 151 143 143 148 153 41 55 162 161 165 171 173 170 166 174 175 176 169 151 129 119 120 144 151 163 172 177 181 184 187 193 192 190 187 185 187 190 193 194 194 196 197 197 198 199 199 195 196 197 198 198 198 197 197 200 200 199 198 196 195 194 194 193 193 194 195 195 195 195 194 196 195 194 194 191 190 189 190 194 188 177 167 155 143 132 125 134 133 135 136 121 107 115 134 156 160 165 171 174 174 170 168 175 176 178 179 180 183 187 191 191 191 190 191 193 41 55 201 204 202 201 200 198 199 200 200 200 201 201 196 191 189 188 188 188 187 184 179 174 170 168 167 170 166 162 156 6 30 142 140 41 55 137 133 129 126 126 127 100 93 84 79 83 93 106 115 119 122 127 131 135 141 147 152 147 144 139 133 129 126 125 125 129 128 129 133 139 144 146 146 151 158 161 160 159 161 161 159 165 165 164 161 160 158 156 154 145 145 145 147 151 156 160 163 178 177 175 175 173 175 178 180 170 169 166 164 161 161 162 164 159 159 159 157 154 152 153 155 152 151 149 150 152 152 151 150 147 141 135 133 135 136 133 130 125 124 123 120 117 113 110 108 112 107 101 99 98 100 97 94 92 90 86 85 79 67 50 37 27 32 37 40 40 42 47 50 63 74 89 100 107 112 119 125 132 134 137 140 142 143 143 143 137 131 121 111 103 98 95 94 90 101 110 112 112 109 102 92 79 69 62 59 58 55 54 56 58 57 56 55 56 57 58 59 62 62 63 63 63 63 62 62 64 65 66 66 66 66 65 64 
45 45 44 44 42 40 38 37 38 38 38 39 39 40 40 42 42 40 40 41 42 43 45 46 44 46 48 48 46 45 46 48 50 55 52 51 56 52 50 62 70 95 121 146 168 171 171 177 173 163 150 144 144 148 151 151 153 162 169 169 163 161 168 176 180 172 171 182 184 172 153 141 117 124 134 145 156 167 180 189 199 196 191 186 181 180 182 184 193 193 194 196 198 199 200 200 195 196 198 199 201 201 202 202 201 200 199 198 196 195 194 195 191 192 193 194 195 195 195 195 192 192 191 189 188 187 186 187 172 160 142 129 128 133 143 150 161 150 130 109 99 108 130 149 162 164 165 166 166 169 173 176 176 177 178 178 179 182 187 191 193 192 192 193 195 198 202 203 27 205 203 202 200 201 202 203 205 205 204 200 193 186 185 187 187 187 185 181 175 170 166 165 168 18 39 25 44 147 144 143 144 146 146 142 135 130 129 130 116 102 84 74 74 83 93 100 111 118 129 137 143 145 146 147 148 152 157 161 161 158 152 149 152 146 138 133 134 138 139 140 131 137 141 140 140 142 142 140 143 144 145 148 150 154 155 157 162 164 167 171 175 178 181 182 180 182 181 178 174 169 166 165 162 160 159 162 165 166 163 159 160 160 158 154 150 148 149 151 149 148 149 151 154 155 154 152 147 139 131 128 129 129 126 123 122 121 120 118 114 110 107 105 112 106 101 97 98 99 96 94 93 91 86 83 76 65 49 36 32 40 45 42 36 34 37 40 51 63 80 95 103 110 118 123 122 124 126 127 128 128 128 127 118 113 105 98 93 94 99 103 108 120 128 123 113 102 89 78 75 65 56 55 56 57 58 62 61 61 60 59 60 62 63 65 64 64 65 65 65 65 64 63 65 66 67 67 67 67 66 65 
45 44 42 40 39 39 39 40 40 39 39 39 39 40 41 43 43 44 45 45 44 44 46 48 48 48 48 49 49 49 50 50 55 54 54 53 53 53 53 53 67 83 109 132 149 158 163 166 162 160 154 147 143 145 150 154 158 159 17 163 166 168 169 170 169 168 168 172 177 179 177 174 158 151 141 134 133 139 146 153 168 176 185 190 189 188 189 193 193 194 194 196 197 197 197 197 194 195 196 197 198 199 200 201 202 201 200 201 202 201 199 197 193 195 196 196 195 193 192 191 197 196 193 188 179 168 158 152 145 139 134 138 148 157 159 158 142 133 117 103 101 115 140 158 166 167 168 168 170 171 173 173 172 173 174 177 181 185 189 191 195 195 195 196 197 200 203 204 204 75 203 204 203 203 200 196 198 197 196 193 190 188 185 184 185 183 180 179 177 49 63 166 170 33 71 7 4 152 151 151 151 150 148 145 141 137 132 130 121 111 95 81 74 79 91 102 112 115 121 128 135 140 141 141 147 147 148 150 153 156 160 162 163 160 158 162 167 169 164 159 167 168 169 171 173 174 176 176 178 179 180 181 184 186 189 189 192 189 187 187 189 188 179 172 176 174 171 167 164 162 162 162 160 160 160 159 158 157 155 155 154 153 152 150 148 147 147 147 151 152 153 153 150 147 144 142 137 135 132 131 130 17 126 123 122 119 117 115 113 111 107 104 102 102 101 98 97 94 92 91 89 88 86 84 77 66 51 41 41 42 43 41 36 32 33 34 39 49 63 74 82 89 96 102 101 98 96 96 100 101 100 98 98 96 94 96 102 107 112 114 123 121 118 114 107 97 86 79 66 64 62 60 60 63 64 65 68 67 65 63 63 63 64 65 65 65 64 64 64 64 65 65 69 69 69 69 69 70 71 72 
44 43 41 40 39 39 40 41 40 40 40 40 40 41 42 44 44 46 47 47 46 46 48 50 49 49 49 49 50 50 51 51 53 52 51 52 52 51 51 51 60 77 100 123 140 149 154 155 158 155 151 146 143 144 149 153 156 30 158 160 162 165 167 168 166 165 165 166 170 173 174 174 167 165 160 156 151 146 142 140 147 27 163 169 173 177 183 188 190 191 193 194 194 193 194 194 195 195 195 196 197 198 198 198 197 197 197 199 202 204 203 202 197 196 194 192 189 186 184 182 174 171 164 157 151 148 147 148 149 148 151 158 164 164 155 146 136 126 113 105 108 124 147 164 170 170 170 171 170 170 171 172 174 175 175 177 181 185 189 191 197 196 196 197 198 201 203 204 204 203 202 200 201 199 195 191 190 191 191 190 189 187 185 184 183 181 45 95 177 11 11 168 165 163 158 155 152 151 151 151 152 151 151 149 145 140 136 133 132 124 109 92 80 80 90 101 111 115 121 128 135 140 142 142 147 146 148 148 150 153 156 157 165 160 159 164 168 170 168 163 171 172 174 177 178 179 180 180 186 186 184 185 184 186 186 187 183 180 178 178 177 175 169 165 169 167 166 164 162 161 160 160 159 159 159 159 158 157 156 155 154 153 151 150 148 147 147 147 153 153 153 152 149 146 145 143 138 135 132 130 30 158 125 122 120 118 115 114 113 110 106 103 103 102 101 99 98 95 93 92 88 87 85 83 76 67 54 45 46 46 45 41 34 30 29 29 32 40 50 61 67 72 75 78 79 78 77 79 84 89 90 90 87 88 91 96 105 114 119 121 123 120 116 110 102 92 81 74 64 63 61 60 60 61 63 64 68 68 66 65 65 66 66 67 67 67 66 66 66 66 67 67 71 70 70 70 70 71 72 73 
43 42 41 39 39 40 41 42 42 41 41 41 41 42 43 45 46 48 50 49 48 48 49 51 50 50 50 51 51 51 52 52 51 50 50 51 50 50 51 51 55 70 92 115 132 142 147 150 154 152 149 147 144 145 148 151 154 154 154 156 158 162 165 167 165 165 165 164 165 168 173 176 173 175 177 178 175 169 163 159 146 150 75 158 160 164 170 176 182 183 183 185 186 188 187 187 191 191 192 192 192 192 192 193 195 193 191 191 191 189 186 184 179 179 176 173 169 167 165 165 152 150 148 148 151 156 161 166 166 164 166 168 166 156 140 127 129 121 112 111 120 139 157 169 174 173 173 172 172 170 170 169 174 173 173 174 176 181 185 188 195 194 194 195 196 197 199 199 200 199 196 45 95 192 188 185 183 183 183 182 181 179 177 17 174 173 41 55 171 170 168 165 157 45 95 149 147 147 147 148 148 149 150 149 146 142 137 134 139 136 126 107 88 81 87 96 110 115 122 129 136 141 143 144 149 150 149 151 152 152 154 155 159 157 156 160 164 166 163 161 167 169 172 175 176 176 175 175 180 180 178 177 177 177 177 178 172 172 170 169 167 165 163 161 164 164 164 164 163 162 161 160 158 158 159 159 159 158 157 157 155 154 152 151 149 148 148 147 151 150 149 148 145 143 142 141 136 133 130 127 126 124 120 118 114 112 110 109 109 106 103 100 100 99 99 97 94 93 91 89 85 85 83 81 76 69 59 53 53 52 48 42 33 28 26 25 27 31 39 45 50 53 53 53 59 59 59 62 69 75 81 83 79 82 90 99 111 118 122 123 121 117 109 102 93 84 75 70 67 67 64 63 63 64 66 67 70 70 69 69 69 70 71 71 70 70 70 70 70 70 70 70 73 72 72 72 72 73 74 75 
42 41 40 39 39 41 42 43 43 42 42 42 42 43 44 46 46 49 50 50 49 48 49 50 51 51 51 52 52 53 53 53 50 50 51 50 51 50 51 51 54 68 90 113 132 145 152 154 156 155 153 150 147 146 147 149 152 152 152 154 156 160 164 166 165 167 169 168 167 169 175 180 175 176 178 180 181 183 183 183 172 173 172 169 164 161 161 163 166 167 169 172 174 175 176 177 178 178 176 177 175 176 174 175 177 175 174 171 171 169 165 162 158 156 154 153 152 152 153 154 153 156 161 167 172 174 175 173 167 163 156 152 149 142 134 127 132 125 119 122 135 151 164 170 173 173 173 172 171 171 170 170 170 169 167 167 169 173 178 182 187 187 187 188 188 189 190 190 192 191 190 41 55 186 183 179 176 175 174 173 170 167 30 158 162 161 159 160 161 161 159 157 150 41 55 141 140 139 140 142 140 142 143 144 142 138 134 131 135 140 137 122 99 85 83 87 107 114 123 131 138 142 145 147 156 156 156 156 156 157 157 158 156 156 157 158 160 163 162 163 162 165 169 172 173 173 171 169 168 168 168 169 170 172 174 175 172 172 169 166 163 162 163 165 166 167 167 168 167 165 163 163 157 157 158 159 159 159 158 158 157 156 153 151 149 149 147 6 30 146 143 141 138 137 136 135 132 129 124 156 121 118 115 112 107 105 104 104 103 102 98 95 93 93 93 91 89 88 86 84 83 84 82 79 75 71 64 61 59 55 49 41 34 28 27 26 27 29 32 37 41 44 46 46 53 52 52 56 62 68 76 80 80 84 92 104 112 118 118 117 114 109 101 93 86 80 73 69 72 72 71 70 70 71 72 72 72 72 72 73 73 74 75 75 74 74 74 75 75 74 74 74 75 75 75 75 75 76 77 77 
42 41 40 39 39 41 42 43 43 43 42 42 43 44 45 46 44 47 48 48 47 45 45 46 50 50 51 51 52 52 52 52 51 52 52 51 53 53 53 54 56 67 87 110 132 149 158 163 163 163 160 155 149 146 145 146 151 151 152 154 49 160 164 166 162 166 170 171 170 171 174 177 176 175 175 174 175 176 178 7 21 188 187 183 177 172 168 166 163 164 165 166 166 166 166 165 162 162 162 160 161 159 159 159 160 159 160 162 164 165 164 163 157 156 155 155 155 157 159 160 165 167 170 169 167 162 156 153 147 142 138 136 139 143 146 147 143 137 133 137 149 161 167 168 170 170 169 169 169 169 169 169 168 166 163 162 163 166 171 174 177 179 179 180 180 180 180 180 180 179 179 179 180 178 49 18 39 166 165 158 160 157 154 152 153 152 150 150 152 152 151 150 146 143 140 136 133 133 132 134 133 135 136 138 136 134 132 129 128 136 141 132 113 95 85 83 102 110 122 131 138 143 148 150 160 159 161 161 161 161 161 161 161 163 164 165 165 165 167 170 167 169 173 176 177 176 174 173 169 169 169 171 173 175 177 178 173 174 172 169 166 166 167 169 170 170 170 170 167 165 162 160 157 158 159 160 160 160 159 159 159 158 155 153 151 149 148 44 144 143 140 137 135 133 132 131 130 127 156 190 119 116 113 111 105 104 102 102 100 100 96 93 89 89 89 88 86 84 81 81 82 82 81 79 76 72 69 68 65 59 49 39 33 30 29 29 30 32 34 37 41 44 48 50 53 53 54 56 60 66 72 77 83 89 96 105 112 114 112 108 104 99 92 86 82 79 76 73 76 75 75 75 75 75 75 76 75 75 76 77 77 78 78 78 77 78 78 79 79 78 78 77 78 78 78 77 78 79 80 80 
43 42 41 39 39 40 41 42 43 43 42 42 42 43 44 46 43 46 48 48 46 44 44 44 50 50 50 51 51 52 52 52 52 53 53 54 54 55 55 56 53 62 79 101 125 146 159 164 168 167 162 156 148 143 142 142 148 149 152 155 11 161 163 164 160 163 167 169 170 170 171 172 169 171 174 176 177 177 176 7 20 181 183 184 184 183 181 179 181 180 179 177 175 172 170 169 165 163 164 164 163 162 161 162 165 166 165 166 168 168 166 164 165 165 164 164 164 164 165 164 164 162 157 154 150 147 146 145 142 141 140 142 146 150 153 153 151 148 145 149 159 165 168 167 165 165 165 165 165 165 164 164 163 161 159 157 158 160 163 165 164 165 168 168 169 170 170 169 167 166 166 166 167 166 11 33 71 152 152 151 150 148 147 146 147 143 142 141 142 142 140 124 156 134 130 127 124 124 124 125 126 127 129 129 129 129 129 127 124 131 138 137 126 109 93 84 95 104 118 128 136 142 148 152 158 159 160 162 162 163 163 163 165 167 168 167 166 166 168 172 172 173 176 178 179 179 177 176 176 176 174 174 174 175 175 176 175 173 172 169 169 170 170 170 172 171 170 167 164 161 158 157 159 159 160 160 160 159 158 158 158 156 154 151 149 147 146 146 144 143 141 138 136 133 131 130 129 126 123 120 119 117 113 112 107 105 103 102 100 99 95 92 87 87 87 86 85 83 81 81 80 81 82 80 77 74 73 73 69 60 46 35 30 30 32 34 35 39 44 46 46 47 51 54 55 57 58 60 63 68 75 80 89 92 98 104 109 110 106 103 96 92 86 83 82 81 80 79 77 77 77 77 77 77 77 77 78 78 79 80 80 80 79 79 79 80 81 82 82 81 80 79 81 81 80 80 81 81 82 83 
44 43 41 40 39 39 40 41 42 42 41 41 42 43 44 45 43 46 48 48 46 44 43 43 49 50 50 50 51 51 51 51 52 53 53 54 54 56 56 56 51 57 69 90 115 137 154 160 168 166 161 152 144 139 138 138 145 147 151 156 160 162 162 162 162 162 162 164 168 170 171 171 168 170 174 177 180 181 181 181 176 176 176 178 181 183 184 184 189 189 187 185 183 180 177 176 171 171 171 171 170 170 170 170 176 174 172 170 169 166 162 159 163 163 163 163 163 162 161 160 161 158 153 150 150 154 158 161 157 157 158 159 159 157 154 153 155 153 153 157 163 168 169 168 163 164 163 161 160 159 159 158 155 154 153 150 151 151 152 153 149 151 153 155 157 157 157 157 157 156 155 154 27 152 150 147 139 4 139 138 136 135 134 133 132 129 125 124 123 123 123 156 190 117 114 112 110 111 112 113 119 119 119 120 121 122 124 123 124 126 131 134 132 120 101 87 86 97 111 125 132 139 146 151 156 156 159 162 164 165 165 166 167 171 172 170 166 165 170 174 174 175 176 177 178 178 178 178 180 179 177 175 174 173 173 173 177 174 171 171 173 174 172 169 172 171 168 165 162 161 158 158 160 160 160 160 159 158 157 156 155 153 151 148 145 144 142 142 141 18 39 139 136 132 129 127 124 122 119 117 116 114 111 110 105 103 101 99 97 96 91 88 84 85 84 84 82 81 78 78 78 81 82 82 78 76 75 76 72 60 43 31 26 28 32 34 40 50 60 62 57 51 51 54 59 64 67 72 75 80 87 93 97 98 100 103 105 103 99 96 91 88 84 82 82 83 83 82 79 79 80 80 80 80 79 79 80 81 82 82 82 81 79 79 80 82 83 85 85 83 82 80 83 83 82 82 83 83 84 85 
45 44 42 40 39 39 39 40 42 41 41 41 41 42 43 45 44 46 49 49 47 45 43 43 49 49 49 50 50 50 51 51 52 52 53 54 55 55 55 56 51 54 64 83 108 132 149 156 165 162 156 147 140 136 135 136 142 145 150 156 159 49 63 159 167 163 160 162 167 171 173 173 178 175 172 170 171 27 176 179 183 180 176 175 176 178 179 178 179 179 179 179 178 176 175 174 170 170 171 170 171 170 171 170 168 167 166 166 166 165 162 160 155 156 158 159 159 159 157 157 166 164 162 161 162 164 167 170 167 167 167 167 167 165 163 162 154 154 156 161 166 169 171 171 164 163 162 159 157 154 152 152 147 146 145 144 143 143 143 143 138 138 141 144 145 146 146 146 151 149 148 147 147 75 140 137 131 131 130 127 25 21 119 117 45 95 110 107 6 30 104 103 103 101 99 98 97 99 101 102 111 111 112 111 113 115 118 119 124 122 123 129 132 123 104 87 79 91 107 121 129 136 143 149 155 157 160 163 166 168 169 169 174 178 179 176 171 169 174 180 178 178 178 179 180 180 181 181 183 182 180 178 177 176 176 176 178 174 169 172 175 176 173 169 173 171 168 165 162 161 161 160 161 161 161 160 159 158 156 156 152 151 148 145 142 141 139 139 138 33 71 137 134 129 125 122 118 17 113 112 112 111 108 106 102 100 97 95 94 90 87 83 81 80 80 80 79 77 76 75 77 80 82 83 78 76 75 76 74 61 41 27 22 24 30 34 45 59 73 75 65 54 50 52 65 70 77 83 88 93 102 107 105 104 103 102 100 98 93 89 89 87 84 83 84 85 84 84 83 83 84 84 84 84 83 83 81 82 83 83 82 81 79 78 81 82 84 86 86 84 82 81 84 84 83 83 84 85 86 86 
40 40 39 39 39 40 41 41 44 43 43 42 42 43 43 45 44 46 48 49 47 47 48 49 50 51 51 50 50 48 47 46 49 51 54 56 56 55 53 52 56 52 56 72 95 119 139 154 162 161 157 148 143 140 133 126 138 139 145 155 160 11 11 156 156 157 159 162 165 167 169 170 173 173 173 174 175 177 75 179 177 173 169 169 174 180 186 188 183 183 181 180 177 176 174 174 173 172 172 175 178 178 174 171 171 171 167 166 162 161 159 159 156 160 163 164 164 164 165 167 173 174 173 170 168 170 176 181 179 179 179 179 177 173 170 167 159 159 162 166 169 169 166 164 162 161 159 159 158 154 145 139 138 136 133 129 126 125 126 128 128 127 126 126 127 130 133 135 25 21 137 137 136 134 128 125 119 117 115 114 7 4 105 103 41 55 87 87 44 91 87 84 84 82 81 82 84 87 89 88 94 95 96 98 100 106 113 119 127 125 120 118 125 127 114 94 81 90 104 119 131 142 151 156 157 157 161 164 167 168 167 166 176 174 174 177 179 181 180 178 171 169 169 173 178 182 182 181 182 181 181 180 178 176 174 174 171 171 171 172 171 172 171 170 172 170 168 166 163 161 159 159 157 156 156 156 157 156 153 150 147 146 145 145 145 143 139 136 132 134 135 135 131 125 120 116 30 158 111 112 111 109 107 105 103 99 94 90 87 85 81 80 77 76 75 75 76 78 80 83 81 81 81 80 79 79 76 76 64 51 30 15 15 26 43 54 72 73 73 66 50 35 32 37 47 56 72 91 106 113 114 112 111 108 101 95 90 88 87 87 85 85 85 85 85 86 87 88 85 85 85 85 86 87 88 89 86 85 84 83 83 83 83 83 84 84 84 85 85 85 85 85 86 86 86 85 84 84 83 83 
41 40 40 39 39 40 41 41 44 43 42 42 42 42 43 44 45 46 48 48 46 45 46 47 49 49 49 49 49 48 48 47 47 48 51 53 52 51 49 48 53 50 52 64 82 103 124 141 155 159 157 152 147 143 138 131 137 137 142 152 157 156 154 155 155 156 158 161 164 167 169 170 172 172 172 172 174 175 177 178 174 173 171 170 172 176 181 184 183 182 180 179 178 177 176 175 174 173 174 176 179 179 175 172 171 170 169 168 168 167 167 167 165 168 171 171 170 170 170 172 174 174 172 170 169 171 176 179 177 177 177 177 175 171 168 166 161 162 163 166 167 166 162 159 156 153 151 149 148 143 134 128 128 126 123 120 116 114 114 114 111 111 111 111 112 7 21 119 7 4 125 125 124 120 114 110 105 102 98 96 94 91 87 85 82 77 72 72 76 79 78 76 70 70 70 73 77 80 83 84 86 87 89 91 95 102 110 116 121 121 118 116 122 125 113 96 77 87 102 117 129 140 150 155 154 157 159 163 166 168 167 166 173 173 173 175 178 180 180 178 174 173 174 177 182 184 183 181 182 182 182 181 179 177 175 174 172 172 173 173 172 173 172 171 170 169 168 165 162 160 160 160 157 156 156 156 157 155 152 149 147 145 144 144 143 140 136 133 128 130 131 131 127 122 117 113 114 113 111 108 107 105 103 102 98 95 90 87 84 82 80 78 78 77 76 76 77 78 81 83 81 81 82 81 80 78 76 74 61 47 28 18 18 30 43 52 54 52 47 39 28 20 22 29 36 44 59 80 99 111 112 110 106 103 97 92 89 88 88 88 86 86 86 86 87 87 88 88 86 85 85 85 85 86 87 87 86 86 85 84 83 83 84 84 85 85 85 85 86 86 86 87 87 87 87 87 87 86 86 86 
42 42 41 41 41 41 42 42 44 44 43 42 42 43 44 43 44 46 48 47 46 44 45 46 48 48 48 48 49 49 49 49 49 50 50 51 52 49 48 47 52 49 50 57 68 84 108 126 144 153 158 157 152 147 142 137 136 135 139 147 153 153 152 6 30 155 157 160 163 165 168 169 169 169 169 170 171 173 174 175 173 175 176 174 172 172 176 180 181 181 179 179 178 177 177 176 175 175 176 178 180 180 176 174 172 173 173 174 175 176 177 177 177 180 181 180 178 177 177 177 177 174 171 171 172 174 176 176 174 174 174 173 170 167 166 164 165 164 165 166 165 162 157 154 148 144 140 137 134 130 123 117 113 111 108 104 100 97 95 94 89 88 89 90 91 7 20 96 107 108 108 109 108 104 97 92 87 83 77 74 71 69 66 64 64 59 54 53 56 60 61 61 58 60 62 65 69 71 73 75 74 76 78 80 85 94 104 110 111 115 114 112 115 119 111 98 74 84 99 113 125 135 145 152 151 154 157 161 164 166 167 167 172 171 172 173 177 179 179 178 178 179 180 183 186 186 184 182 182 182 183 182 180 178 176 175 174 174 174 174 174 174 172 172 168 167 166 164 161 160 160 160 158 156 156 156 156 154 151 148 146 145 143 142 141 138 134 130 125 125 126 125 123 118 27 112 118 115 110 106 101 99 98 98 94 90 86 83 82 81 79 77 79 79 78 77 78 79 82 83 81 82 83 83 81 77 73 71 56 41 25 18 23 34 41 45 36 27 19 13 6 5 13 21 23 29 43 68 92 106 109 107 98 96 92 89 88 87 87 88 87 87 88 89 89 89 88 88 87 86 85 85 84 84 85 85 87 86 85 84 84 84 85 85 86 86 86 87 87 88 88 88 87 87 87 87 87 88 88 88 
43 43 42 41 41 41 41 42 43 43 42 42 42 42 43 42 43 45 46 46 44 43 43 44 46 46 46 47 48 49 50 51 54 53 54 55 54 52 50 51 54 52 53 56 61 73 95 115 133 146 158 160 156 152 147 142 137 133 134 141 147 149 149 44 153 154 156 158 161 164 166 167 167 167 167 167 124 156 172 173 174 178 181 179 174 171 174 178 179 179 179 178 178 178 177 177 177 178 178 180 181 181 178 177 176 177 178 180 181 182 182 183 185 187 188 186 183 181 180 180 180 176 173 173 176 177 176 173 172 172 172 171 169 166 164 163 167 166 165 164 163 159 154 149 143 139 133 129 127 122 116 110 107 104 99 95 92 89 85 82 78 78 78 79 80 82 83 83 92 93 95 97 97 93 86 80 74 70 64 60 57 55 54 52 56 52 48 47 49 51 52 51 54 56 58 60 62 63 65 66 67 68 70 73 78 85 95 102 100 106 108 105 108 112 107 97 71 81 95 108 118 127 138 146 150 152 156 160 162 165 167 169 171 170 171 173 175 178 179 178 180 182 184 186 187 185 182 180 182 182 183 182 180 179 177 176 175 175 175 176 175 174 172 172 166 165 164 163 160 159 160 160 157 156 155 155 155 153 149 146 146 144 142 141 140 136 132 128 124 124 123 122 120 117 114 75 116 114 109 105 100 97 95 94 91 88 84 82 82 82 81 79 79 79 79 79 78 80 82 83 82 84 85 84 81 75 69 66 50 36 20 17 25 34 35 32 23 14 6 4 4 4 9 16 15 18 31 55 82 100 103 100 91 89 88 86 86 86 87 88 87 88 89 90 90 89 88 88 88 87 85 84 83 83 83 83 86 86 85 85 84 85 85 86 86 86 87 88 88 89 89 90 85 86 86 87 87 88 88 89 
44 44 43 42 41 41 41 42 42 42 41 41 41 41 42 41 41 43 44 44 42 41 42 43 45 45 45 45 46 48 50 52 55 55 56 56 55 54 52 53 53 54 56 56 58 65 84 102 122 139 157 163 162 160 154 149 139 132 130 136 142 145 146 148 151 152 154 157 160 162 164 165 165 165 165 165 156 190 170 171 172 177 181 179 173 169 171 174 177 177 177 178 178 178 179 179 178 179 180 181 180 180 181 181 181 182 183 184 184 184 183 183 187 188 189 187 183 181 180 180 181 178 175 176 178 179 176 173 171 172 171 169 168 167 164 164 168 164 162 160 158 155 151 147 141 136 130 126 122 118 111 104 103 99 93 88 86 82 78 75 73 73 74 74 76 79 80 81 85 86 88 89 90 87 81 78 68 64 59 55 53 51 50 49 54 53 52 51 51 50 47 45 47 50 53 54 55 57 61 64 65 66 69 71 76 81 89 94 89 97 100 98 100 104 102 94 69 79 93 103 111 120 131 139 150 152 157 159 161 163 167 170 172 170 170 172 174 177 178 178 179 181 184 185 184 182 179 177 181 181 182 181 180 179 176 176 174 175 175 175 174 173 172 171 165 164 163 161 159 159 159 159 155 155 154 153 152 150 146 143 145 143 141 140 138 135 131 127 124 123 123 121 120 117 114 112 109 108 107 105 101 98 94 92 90 87 84 83 83 83 82 82 77 78 78 79 79 81 83 84 84 86 87 86 80 72 62 57 43 29 16 15 23 29 25 19 12 6 3 6 9 6 5 8 10 12 24 45 69 87 91 88 83 83 84 84 84 85 86 86 88 88 88 89 88 88 87 87 87 86 85 83 82 82 81 81 85 85 84 84 84 85 86 86 86 86 87 88 89 90 90 91 88 88 88 89 89 90 90 91 
45 45 43 42 41 41 41 42 42 41 40 40 40 40 41 42 40 41 43 44 43 42 43 44 47 46 45 45 46 48 50 53 54 53 54 54 53 53 53 53 51 51 54 57 56 59 72 86 109 127 147 160 165 165 160 154 141 133 128 132 139 141 143 145 150 150 124 156 158 161 163 164 163 163 163 164 165 167 169 170 168 171 174 173 170 167 167 169 175 175 176 177 178 179 179 180 180 181 183 182 181 181 183 184 185 186 187 187 187 185 183 182 186 187 188 187 184 182 181 182 183 182 181 181 181 180 178 175 174 173 172 171 170 169 167 166 168 163 157 152 149 147 145 143 137 133 125 121 115 108 98 91 84 79 71 66 64 62 58 55 55 55 56 58 63 68 72 76 79 79 80 82 82 80 76 73 65 62 57 53 50 48 46 44 41 42 42 42 40 37 33 31 33 35 39 41 43 47 54 60 64 66 69 73 75 79 85 89 82 88 90 89 92 99 96 87 68 78 92 103 109 117 129 139 151 154 158 160 160 162 166 170 174 172 171 172 174 176 177 177 177 180 182 182 180 177 176 175 179 179 181 180 179 178 176 176 174 174 174 173 172 170 169 168 165 163 162 160 159 157 157 157 154 153 152 151 150 147 142 139 142 140 138 137 136 133 129 125 124 123 121 118 117 114 17 111 103 103 104 103 99 96 92 90 89 86 83 82 83 83 82 82 74 75 77 79 80 81 84 85 85 87 88 86 80 67 56 48 34 23 13 13 20 23 17 10 3 2 2 7 10 5 3 4 11 12 20 37 58 73 78 77 80 81 82 83 84 84 83 83 88 87 86 85 85 85 85 86 86 85 84 83 82 81 81 81 84 84 83 83 83 84 85 86 85 86 86 87 89 90 91 91 91 91 92 92 92 92 93 93 
46 45 44 43 42 41 41 41 41 41 40 39 39 40 41 41 39 40 43 44 43 43 45 46 49 48 47 46 47 48 51 53 53 53 52 52 53 53 54 54 51 52 56 58 57 55 60 69 88 106 128 147 159 164 160 153 145 134 126 128 136 140 141 143 149 149 156 190 157 160 162 163 164 164 45 95 165 166 168 169 167 168 169 169 169 168 167 167 173 174 175 176 178 179 180 181 181 183 185 184 182 182 184 187 188 189 190 190 189 187 184 183 184 186 188 187 185 184 184 185 183 185 187 186 183 180 179 178 176 176 175 173 171 171 171 170 168 162 152 144 140 137 135 134 129 124 117 110 102 92 79 71 60 52 43 37 36 36 33 30 31 30 33 37 45 54 63 69 77 76 74 73 73 71 67 64 60 57 53 48 45 41 35 32 24 24 24 22 21 18 17 16 15 19 21 23 25 30 38 46 55 59 65 68 71 74 78 80 76 81 83 82 87 94 91 82 66 78 93 104 110 119 133 144 152 156 160 161 159 161 166 170 177 174 173 172 173 176 177 177 176 178 180 179 176 174 174 175 179 179 179 179 177 176 176 175 172 172 171 171 169 168 166 165 165 164 162 160 157 156 155 154 152 151 150 148 147 144 139 136 137 135 134 133 133 130 126 124 122 121 118 115 111 30 158 106 100 99 98 96 94 92 90 89 86 83 80 79 80 79 80 79 71 73 75 78 79 82 83 84 86 88 89 86 78 64 50 40 26 18 11 12 18 20 14 8 1 1 2 6 7 4 5 10 16 18 25 39 54 67 73 74 79 80 82 83 83 82 81 80 87 86 83 81 80 81 83 85 85 84 83 82 81 81 81 81 82 82 82 82 82 83 84 85 84 85 86 87 88 89 90 91 91 91 91 91 91 90 90 90 
46 45 44 43 42 41 41 41 41 40 40 39 39 40 40 41 38 40 42 44 44 44 46 47 51 49 48 47 47 49 51 52 53 53 53 53 54 55 56 56 53 54 57 61 58 54 55 59 70 87 112 133 151 160 156 148 148 135 125 128 133 137 140 142 149 149 151 153 25 21 161 162 164 164 41 55 165 166 168 169 168 167 167 168 170 171 170 168 173 173 175 176 178 179 181 181 182 184 186 185 182 182 185 188 189 190 192 192 191 189 186 184 184 186 188 188 187 186 187 188 184 187 190 189 184 180 180 180 178 178 177 175 174 173 173 173 168 161 149 138 132 129 128 127 124 118 110 101 92 78 65 54 48 39 30 23 22 22 21 19 17 17 21 28 37 50 62 69 75 72 69 66 64 63 58 56 56 53 48 43 38 32 26 21 16 15 13 11 10 9 10 12 7 8 10 9 10 14 24 32 45 50 57 63 66 69 71 73 74 77 77 77 84 92 89 77 65 78 93 105 112 123 138 149 153 157 161 161 159 160 165 170 179 176 173 173 174 176 176 176 175 178 179 177 174 172 174 176 178 178 178 177 176 176 175 174 170 170 170 169 168 166 164 163 165 164 162 159 157 155 153 153 152 151 149 147 145 142 137 134 133 132 131 130 130 128 124 121 121 119 115 111 107 105 104 103 100 97 94 91 88 87 87 88 83 80 77 76 76 77 77 75 69 71 73 77 79 82 84 85 87 88 90 87 77 62 46 36 22 15 10 11 17 19 15 9 5 3 3 6 6 7 13 21 22 24 32 43 56 67 74 77 79 80 82 83 83 82 79 78 87 85 81 78 77 79 82 84 84 83 82 81 81 81 81 82 81 81 81 81 81 82 83 84 83 84 85 86 88 89 90 90 88 88 88 87 86 86 85 85 
45 46 46 46 46 45 44 43 43 43 43 43 43 43 43 42 42 43 44 46 47 48 48 48 51 51 51 52 52 52 53 53 52 53 54 56 57 59 60 61 55 56 59 59 60 58 56 55 66 73 90 113 131 141 146 150 142 135 129 128 131 134 139 143 149 148 149 150 7 4 160 162 162 162 162 162 163 164 165 166 171 170 169 169 170 172 174 175 180 179 178 177 177 179 180 181 182 183 184 184 185 186 187 187 190 191 191 191 191 190 189 188 188 188 188 188 188 188 188 188 187 186 185 184 182 181 180 179 176 178 180 181 182 180 178 178 173 168 156 139 124 117 118 121 119 106 101 92 72 55 46 37 26 26 24 20 19 20 21 19 20 18 21 28 40 55 66 72 82 73 63 58 57 56 52 48 46 43 39 37 35 30 22 15 14 12 12 12 11 11 10 11 11 8 7 12 14 13 17 21 34 40 48 55 60 63 65 68 72 65 66 78 87 82 71 64 66 76 93 108 121 130 140 146 157 159 160 161 162 165 169 171 179 177 174 173 172 173 176 178 178 180 180 180 178 176 174 173 178 177 176 175 173 172 171 170 169 167 165 165 165 165 163 161 164 162 158 157 156 155 153 152 148 148 149 148 144 138 132 128 131 130 128 126 124 122 121 120 118 116 124 156 105 103 102 102 98 95 91 88 86 86 85 83 80 79 78 76 75 74 74 73 70 72 74 79 82 85 87 88 93 90 88 87 76 57 39 31 21 13 8 9 16 22 21 18 9 5 3 8 18 28 33 32 34 34 38 47 60 70 74 73 76 76 77 78 79 80 80 81 82 81 80 79 79 80 81 82 79 79 80 80 81 81 81 81 81 81 81 81 81 81 81 81 81 81 82 82 82 83 83 83 83 84 84 85 85 84 84 83 
46 47 46 47 45 46 44 44 44 45 44 45 44 45 44 45 43 44 45 47 48 49 49 49 51 52 52 52 53 53 53 54 53 54 55 57 59 60 61 61 57 58 59 60 59 59 57 56 60 64 75 94 111 121 132 139 137 133 129 128 131 136 139 143 147 146 148 149 152 155 158 6 30 160 159 160 161 163 164 165 166 166 166 167 169 172 175 176 180 179 178 178 178 179 181 182 25 21 183 184 185 185 186 186 190 190 191 191 190 190 189 188 188 188 188 187 187 187 187 187 186 186 185 184 183 181 181 180 181 182 183 184 184 183 180 179 172 169 162 147 128 116 112 113 111 99 95 87 67 51 42 32 34 33 29 23 22 23 23 20 20 23 32 45 62 75 83 86 84 78 69 63 60 58 55 51 51 48 42 39 37 32 25 19 16 16 14 14 12 10 10 9 11 7 7 12 15 15 19 24 34 39 46 52 56 59 59 62 62 61 65 76 82 75 66 61 71 82 97 110 121 129 138 143 156 157 159 160 161 163 167 169 175 174 173 172 171 172 175 176 179 179 180 180 178 176 174 173 177 176 176 174 173 172 171 171 168 166 165 164 164 164 162 160 163 160 157 155 154 154 152 150 147 148 148 147 144 140 136 133 132 131 129 126 123 120 118 118 116 115 156 190 105 103 102 100 98 94 90 87 86 86 84 83 79 78 77 75 74 74 73 73 71 73 75 80 83 85 87 89 88 87 87 85 71 52 36 30 24 17 13 11 16 20 21 20 18 15 15 21 33 43 49 50 36 37 41 50 63 71 74 73 73 73 74 74 75 76 77 77 78 77 76 75 75 76 77 79 77 77 77 77 78 78 79 79 80 80 80 80 80 80 81 81 81 81 81 81 82 82 83 83 83 83 84 85 85 84 83 83 
48 48 48 47 47 47 46 46 47 47 47 47 47 47 47 46 44 45 47 48 50 50 51 51 53 53 54 54 54 55 55 55 56 57 57 59 60 61 62 63 60 60 60 60 59 59 59 60 57 57 61 72 85 97 111 121 128 129 129 129 131 135 139 140 142 144 146 148 151 153 154 44 156 156 7 21 160 162 163 164 162 162 164 166 168 172 175 177 180 180 179 179 180 181 182 183 7 4 183 184 185 185 186 186 189 190 190 190 190 189 188 187 188 188 187 187 186 186 185 186 185 185 184 185 183 184 182 183 183 182 184 185 183 182 180 179 174 175 173 160 140 122 109 105 104 92 88 83 64 51 44 37 40 38 32 28 28 31 30 26 28 36 52 71 85 93 94 93 90 86 80 74 68 63 61 59 57 53 46 42 39 35 29 26 23 22 21 19 16 13 12 10 10 8 9 14 18 20 24 30 39 43 49 52 55 55 57 58 56 59 65 71 70 62 58 57 80 89 102 114 123 129 137 142 154 156 157 158 159 161 166 169 172 171 171 171 171 172 173 174 178 178 179 178 177 175 174 173 175 175 174 174 173 173 173 172 169 167 165 164 164 164 162 160 161 158 155 153 153 152 150 148 147 147 146 145 143 141 138 137 133 132 129 126 122 118 117 115 115 114 111 107 105 102 100 100 96 93 88 86 85 85 83 82 77 76 75 74 73 73 73 74 72 74 77 81 85 87 88 89 85 86 88 84 66 45 33 29 27 24 19 16 16 18 22 24 23 22 22 28 39 48 52 53 41 42 47 56 66 73 74 72 70 70 70 71 72 73 73 73 74 73 73 72 73 74 74 75 73 73 74 74 74 75 75 75 77 77 77 78 78 79 79 80 80 80 80 80 81 81 81 82 82 82 83 83 83 83 82 82 
48 48 47 47 46 46 46 46 49 49 49 49 49 49 49 49 47 48 50 51 52 53 53 53 56 56 56 57 57 58 58 58 60 60 61 61 63 63 64 64 64 63 62 61 60 60 61 61 58 55 55 60 68 76 89 101 116 123 129 130 132 136 138 139 138 141 144 147 149 150 150 149 154 155 49 63 159 161 162 164 162 162 164 166 168 171 175 177 180 180 179 179 181 7 21 183 183 184 184 185 186 187 187 188 189 189 189 189 189 188 187 187 188 188 187 186 186 185 184 184 185 185 185 185 185 185 185 185 181 182 183 183 181 180 179 177 181 182 179 174 160 140 119 106 100 87 84 79 64 57 56 51 51 47 42 38 41 47 48 45 47 58 75 91 101 102 96 91 92 91 88 80 73 67 64 63 59 53 46 42 41 40 35 32 32 31 30 28 24 21 18 14 14 10 11 18 23 27 33 40 49 51 55 56 56 56 56 58 59 63 66 64 60 57 62 67 89 98 109 120 127 133 139 144 154 156 158 160 161 163 167 169 169 170 171 172 172 173 173 174 177 177 177 177 175 175 174 175 173 173 173 173 173 173 173 173 171 168 166 165 165 165 162 160 161 158 155 153 153 152 150 148 147 146 144 142 140 138 137 137 131 130 127 124 121 119 116 115 18 39 108 106 104 102 100 98 95 92 86 85 84 83 81 80 74 74 73 73 73 74 74 74 74 76 80 84 87 89 88 89 85 89 92 83 63 40 29 27 31 29 26 20 16 17 22 27 24 25 25 29 37 43 46 47 47 49 54 62 69 73 73 71 69 70 70 70 71 71 72 72 72 72 72 72 73 73 73 73 71 71 72 72 72 73 73 73 74 74 74 75 76 77 77 77 78 78 78 78 79 79 79 80 80 80 81 81 81 81 80 80 
51 50 49 48 47 47 48 49 51 51 51 51 51 51 51 51 51 52 53 55 56 57 57 57 60 60 60 61 61 61 62 62 64 64 64 65 65 66 66 66 66 66 64 63 62 62 62 63 60 57 57 58 60 62 71 80 103 115 127 132 133 137 139 137 136 138 142 145 147 148 147 146 154 154 11 11 158 161 163 164 166 165 166 166 167 170 173 174 178 179 179 180 182 7 20 183 185 185 186 186 187 188 189 189 188 188 189 189 188 187 186 186 186 186 185 185 184 184 184 183 183 184 184 184 184 185 185 185 182 182 182 182 183 181 180 179 186 182 178 178 175 159 135 115 100 87 80 74 63 61 66 65 69 66 60 56 59 65 69 66 66 78 93 108 114 113 107 103 99 98 94 88 78 68 62 59 57 52 46 43 43 43 42 39 44 44 42 39 36 31 27 24 19 17 18 23 29 33 39 45 54 55 57 56 55 54 55 56 56 60 59 55 53 61 76 89 100 107 118 127 133 138 145 149 156 159 161 163 164 165 169 171 171 171 172 173 173 174 175 175 177 176 176 175 174 174 175 175 172 172 172 173 173 173 173 174 172 170 168 167 167 166 164 162 161 159 155 154 153 152 150 149 147 145 142 139 136 134 133 133 127 127 125 123 121 119 117 115 33 71 106 104 102 101 99 96 92 89 86 83 82 81 80 78 73 73 72 73 72 74 75 76 75 78 82 86 89 90 88 88 86 89 92 82 59 35 24 24 29 29 26 20 15 15 20 25 26 27 29 34 40 45 47 48 53 55 60 65 70 72 71 69 71 71 71 71 71 72 72 72 72 72 72 72 72 72 72 72 70 71 71 71 72 72 72 73 71 71 72 72 73 73 74 74 75 75 75 75 76 76 77 77 77 77 78 79 79 78 77 77 
55 54 52 50 50 51 52 53 55 55 55 55 55 55 55 55 55 56 57 59 60 61 61 61 64 64 64 65 65 65 66 66 68 68 67 67 68 67 68 68 68 67 67 66 65 64 63 63 60 59 59 60 57 54 59 65 90 110 128 133 133 137 137 135 135 137 141 144 145 145 145 144 152 18 39 156 157 160 45 95 168 167 166 166 167 168 170 172 177 178 25 21 182 182 183 182 185 185 186 186 187 188 188 189 187 187 188 188 187 187 186 185 185 185 185 185 185 185 185 185 184 184 184 185 185 185 185 185 184 184 184 184 185 185 184 185 185 178 174 176 179 170 149 131 112 95 86 78 66 63 69 69 76 75 70 63 62 68 73 74 79 89 105 119 17 127 127 126 116 114 110 104 94 84 74 68 63 58 54 53 54 55 54 52 59 58 57 54 50 44 40 36 29 26 25 27 31 34 39 45 49 49 50 48 47 46 47 49 41 44 44 42 49 68 91 105 111 118 128 135 139 144 150 154 158 161 164 166 167 168 171 173 173 173 173 173 173 174 176 177 176 175 175 174 173 173 175 175 172 172 172 172 172 173 173 173 173 171 168 167 166 165 164 162 161 159 155 153 153 152 150 148 145 144 141 138 135 132 131 130 126 125 123 121 120 25 21 115 111 107 103 102 101 100 98 95 91 87 84 81 81 80 78 77 72 72 72 73 73 75 77 78 77 80 85 89 91 91 89 88 85 88 90 79 58 35 23 23 27 27 26 22 18 17 21 25 25 28 33 39 45 50 53 55 58 60 63 66 68 69 68 67 70 70 70 70 71 71 71 71 70 71 71 72 72 71 71 70 70 70 70 71 71 71 72 72 70 70 70 70 70 70 70 70 71 71 72 72 73 73 73 73 74 74 75 75 75 75 74 74 
60 59 57 55 55 55 57 58 59 59 59 59 59 59 59 59 58 59 61 63 64 65 65 65 67 68 68 68 69 69 69 69 71 70 70 69 70 68 69 69 68 69 69 69 67 66 64 63 60 60 61 62 57 53 55 61 81 105 128 134 134 138 138 134 136 137 140 142 143 144 144 144 149 33 71 153 156 159 41 55 166 166 166 165 166 167 169 170 175 176 7 4 182 182 182 181 183 183 184 184 185 186 187 187 186 187 187 187 187 186 185 184 184 184 185 185 186 187 187 187 185 185 185 185 185 185 184 184 184 184 184 184 186 187 187 187 183 178 174 174 174 171 162 153 139 120 108 95 77 69 70 67 69 71 67 59 56 61 69 73 85 96 110 30 158 133 134 135 127 125 122 120 115 108 96 89 83 78 74 73 75 76 74 71 71 71 70 68 63 57 51 48 40 34 30 31 30 29 34 38 40 40 39 38 37 37 39 41 35 38 40 45 61 86 107 115 123 129 137 142 144 147 152 157 158 161 165 167 168 169 172 173 176 174 173 172 171 173 175 177 175 175 174 173 173 174 175 176 173 173 172 172 172 172 172 172 171 170 167 166 165 164 161 159 160 157 154 152 151 151 149 147 142 142 140 138 136 134 132 131 127 125 123 121 119 7 4 113 110 106 100 99 100 100 97 93 90 86 83 80 79 79 77 76 72 72 72 74 75 77 80 80 79 82 86 90 92 92 89 88 86 87 89 80 62 40 29 29 32 32 31 30 28 28 30 31 32 36 42 48 53 57 60 61 61 63 65 65 65 65 64 66 67 67 67 67 67 67 67 67 66 67 68 69 69 68 67 66 68 68 69 69 70 70 70 70 70 69 69 68 67 67 66 66 68 68 69 69 70 70 70 70 71 71 72 72 72 72 71 71 
64 62 60 58 58 59 61 62 63 63 63 63 63 63 63 63 61 62 63 65 66 67 67 67 69 70 70 70 71 71 71 72 72 72 71 71 70 70 69 68 67 68 70 70 69 67 64 62 61 61 64 64 59 54 57 63 76 103 127 134 134 138 138 133 136 137 139 141 142 143 144 144 147 147 149 151 155 157 160 162 164 18 39 164 165 166 168 169 174 175 178 179 181 182 181 181 181 181 182 182 183 184 185 185 186 186 187 187 187 186 185 184 183 184 184 186 187 188 189 189 186 186 186 185 185 184 184 184 181 181 181 183 184 184 186 187 182 180 178 174 171 171 169 169 164 145 131 116 91 77 72 66 63 66 64 57 53 59 69 77 89 98 110 121 125 126 127 128 123 121 120 123 125 121 112 103 102 98 94 93 95 95 92 89 79 79 78 76 71 64 59 55 47 40 35 33 29 27 28 33 34 35 34 33 30 32 34 36 43 48 53 63 84 110 125 128 132 137 144 147 147 150 152 156 158 162 165 168 168 170 172 172 177 175 173 171 170 171 174 177 175 174 173 172 172 173 175 176 173 173 173 172 172 171 171 171 170 167 165 163 162 161 159 157 158 155 152 150 150 149 147 145 140 140 140 139 138 137 135 134 128 127 124 121 118 115 112 110 111 104 99 98 100 100 97 92 89 87 82 80 79 78 76 75 72 72 73 74 76 78 80 81 80 83 87 91 93 92 89 88 89 89 89 84 68 49 38 37 38 38 38 38 39 40 39 39 46 50 55 60 63 64 66 67 63 64 65 64 63 63 64 65 64 64 64 64 64 64 63 63 62 63 64 65 65 64 63 62 67 67 67 68 68 69 69 69 70 69 68 67 66 65 64 64 67 67 67 67 68 68 68 69 69 69 70 70 70 70 69 69 
61 63 65 67 68 68 67 66 67 67 66 66 66 66 67 67 69 68 68 68 69 70 72 74 72 72 71 71 70 70 70 70 71 72 74 75 75 74 72 71 74 72 70 70 70 70 68 66 60 61 58 57 57 57 57 57 77 98 124 138 137 133 135 139 134 134 135 137 140 144 147 150 150 150 150 151 154 157 160 160 163 33 71 165 165 165 167 49 63 175 175 176 177 178 178 180 181 181 181 182 182 183 183 183 187 189 189 187 183 181 183 186 183 183 184 184 184 183 182 182 180 182 184 186 187 187 187 186 187 185 183 182 184 185 184 183 178 179 180 179 176 174 172 171 174 164 148 131 114 99 83 74 69 67 66 66 66 67 75 83 98 109 119 119 117 119 124 125 112 114 122 131 132 124 117 116 115 108 100 100 105 104 97 89 86 81 76 74 75 73 69 63 57 50 43 36 33 31 31 31 35 36 37 37 38 41 44 48 60 72 89 101 111 121 132 142 152 152 153 153 154 155 156 156 157 160 164 166 168 169 171 172 175 175 175 174 173 174 176 179 172 172 172 172 172 173 175 176 175 174 172 172 172 171 169 166 165 164 164 163 161 159 157 156 155 154 154 151 149 147 145 144 142 142 142 141 138 135 130 128 128 125 18 39 117 113 109 107 107 105 102 101 100 98 94 92 83 82 81 82 82 80 77 74 71 72 73 74 76 78 81 81 82 86 91 92 90 88 89 90 90 92 90 84 74 64 56 52 52 51 51 51 52 52 53 54 57 57 58 59 61 64 66 66 64 63 63 62 62 63 63 64 62 62 63 63 63 64 64 64 64 64 63 64 64 66 67 67 64 64 64 65 66 66 66 67 65 64 64 63 63 64 64 65 63 64 64 65 65 64 64 63 68 68 68 69 70 70 71 71 
65 66 68 69 70 70 70 70 69 69 68 68 68 68 69 69 70 69 69 69 70 72 73 74 73 73 73 72 72 71 71 71 72 73 74 74 74 74 73 72 74 72 70 70 70 70 68 66 62 61 59 58 57 58 57 57 68 90 119 135 136 133 133 136 137 137 138 139 142 145 147 148 151 27 151 152 154 157 159 161 161 162 164 165 7 21 167 11 11 173 174 176 177 179 180 182 181 181 182 182 182 183 183 183 186 187 188 186 182 181 183 185 182 183 183 184 184 184 183 183 182 183 185 186 187 187 187 186 185 183 181 181 183 184 183 182 180 181 181 180 178 176 174 174 168 160 150 139 128 118 106 98 88 86 85 85 83 82 87 93 103 115 124 156 126 126 124 120 114 115 121 127 127 121 116 115 113 108 105 106 108 106 98 91 87 84 80 78 78 76 73 71 66 61 53 47 43 42 42 43 47 49 54 57 62 66 71 75 89 99 113 123 127 134 143 150 154 154 155 155 156 157 157 158 160 162 165 165 166 166 169 170 174 173 172 172 172 174 175 176 172 172 171 171 170 170 172 172 172 170 169 169 169 168 166 163 163 163 163 163 161 159 157 156 155 154 153 151 149 146 145 144 143 142 141 138 136 131 127 125 126 124 33 71 113 111 108 105 104 102 99 97 96 95 93 90 84 82 80 80 80 79 77 74 73 73 74 76 78 80 81 82 83 87 91 92 90 88 90 90 90 90 89 83 74 64 56 52 56 56 57 58 58 58 58 58 57 56 57 58 59 61 63 64 61 61 61 60 60 61 61 61 60 60 61 61 61 62 62 62 63 62 62 62 63 63 64 65 63 63 63 64 64 65 65 65 64 64 63 63 63 63 64 64 63 63 64 64 64 64 63 63 66 66 66 67 67 67 67 67 
70 71 72 73 74 74 74 74 73 72 71 71 71 71 72 73 72 72 71 72 72 74 75 76 75 75 75 74 74 74 73 73 73 73 74 74 74 74 73 73 74 72 70 70 70 70 68 66 64 64 62 60 58 58 56 56 62 84 116 134 138 136 134 135 139 140 140 141 144 146 147 147 149 149 75 150 152 155 157 159 158 160 162 163 7 20 168 170 170 171 173 175 177 179 181 183 182 182 182 182 183 183 184 184 184 185 185 184 181 181 183 184 182 182 182 183 184 184 185 185 185 186 187 187 187 187 186 186 184 182 181 181 183 184 183 182 181 181 181 180 179 178 176 175 164 158 151 146 143 137 131 126 114 110 107 105 101 98 100 104 111 120 156 190 137 134 126 118 118 117 119 122 121 114 110 110 107 107 108 109 109 107 101 97 95 93 90 86 85 83 82 82 76 72 65 59 55 54 55 57 66 70 78 84 90 95 100 104 111 120 129 135 138 141 148 153 156 156 157 157 158 159 160 160 164 165 165 164 163 164 167 169 174 171 169 170 172 174 173 171 173 172 171 169 167 167 168 168 168 166 165 165 165 164 161 159 161 162 162 162 160 158 156 155 154 153 153 150 148 145 144 143 143 141 138 135 131 126 125 45 95 119 116 113 109 107 105 103 101 99 96 94 94 92 90 88 86 83 80 78 77 77 76 75 75 75 76 77 79 82 83 84 85 88 91 92 90 89 89 90 90 90 88 81 72 63 56 53 58 59 61 62 62 62 62 60 58 57 57 57 58 59 60 61 61 60 60 60 60 60 60 61 58 58 58 59 59 59 60 60 61 61 60 60 61 61 62 63 61 62 62 62 62 63 63 63 64 63 62 62 62 62 63 64 62 62 63 64 64 63 62 62 64 64 64 63 63 63 63 63 
74 74 75 75 76 76 76 76 76 76 75 75 75 75 76 76 75 75 75 75 76 76 77 77 77 77 77 77 76 76 75 75 73 74 74 74 74 74 74 73 74 72 70 70 70 70 68 66 66 66 64 61 59 57 57 56 63 84 115 136 143 141 137 135 138 139 140 141 144 146 147 148 146 146 146 146 148 151 153 155 156 158 161 162 163 165 168 45 95 172 174 175 176 178 179 181 182 182 182 182 183 183 183 184 183 183 183 182 181 182 183 184 182 182 182 183 184 185 186 187 188 188 188 188 187 187 186 186 185 183 182 182 184 185 185 184 180 179 178 177 178 177 175 174 163 159 154 152 151 148 143 140 133 126 120 115 110 106 107 111 117 124 134 140 144 144 134 124 123 119 116 115 111 103 101 101 100 102 104 105 105 105 105 106 109 107 103 98 92 88 87 88 86 83 79 73 69 69 72 75 82 88 96 102 107 110 113 114 116 124 132 137 140 143 149 153 157 157 158 158 159 160 161 161 165 165 164 163 162 163 167 170 174 170 167 169 173 175 173 170 172 171 170 169 167 166 168 168 165 164 163 163 163 162 159 157 158 159 160 161 159 157 154 153 153 153 151 149 146 144 142 141 142 139 136 131 127 125 125 41 55 117 113 110 107 105 104 102 100 97 95 93 92 91 89 87 88 84 79 76 75 76 76 76 76 76 77 78 80 83 84 85 88 89 90 91 91 89 89 90 90 89 86 80 70 62 56 55 55 56 58 60 60 60 59 57 58 57 56 56 56 57 58 59 62 62 63 63 63 63 62 62 57 57 58 58 59 59 59 59 60 60 59 59 59 59 60 61 60 60 60 60 61 61 61 61 62 62 61 61 61 61 62 62 61 61 62 62 62 62 61 61 63 63 62 62 61 60 60 60 
76 76 76 76 77 77 78 78 80 79 78 78 78 78 79 80 77 78 78 79 79 79 79 79 79 79 79 78 78 77 77 77 75 74 74 74 74 74 74 75 74 72 70 70 70 70 68 66 67 66 18 39 60 59 58 58 64 84 113 135 144 143 139 135 134 135 137 140 142 145 147 148 49 63 146 146 148 150 152 154 156 157 160 162 163 165 169 41 55 174 175 175 175 176 176 177 181 181 181 182 182 182 183 183 182 182 181 181 182 184 184 184 183 182 182 183 184 185 187 188 189 189 188 187 186 186 186 186 187 185 184 184 186 188 188 187 179 177 174 174 176 176 174 170 166 162 158 156 156 154 150 146 145 135 126 120 115 112 113 118 121 126 132 138 146 150 144 135 127 121 115 110 103 96 93 95 97 97 100 99 101 104 111 114 118 116 113 105 97 91 89 88 95 94 90 85 82 83 87 92 93 98 105 110 114 115 116 117 123 129 135 141 144 148 152 156 157 157 158 159 160 160 161 161 164 164 164 163 162 164 168 171 174 170 168 170 175 177 174 169 170 169 169 168 167 168 169 170 165 164 162 162 163 6 30 156 156 157 159 159 158 155 151 150 151 150 148 146 144 141 140 139 138 136 133 128 125 125 127 127 120 116 112 108 106 105 104 102 100 97 94 93 93 92 90 88 88 84 79 76 75 76 77 77 77 77 78 80 81 84 85 86 91 90 90 91 91 90 89 89 90 88 84 77 68 61 57 55 53 54 56 57 57 57 57 55 58 57 56 56 56 56 57 58 61 61 62 63 63 62 61 61 58 58 59 59 60 60 60 60 59 59 58 57 57 58 58 59 60 59 59 59 59 59 59 59 61 61 60 60 60 60 61 61 60 60 61 61 61 61 60 60 62 62 61 61 60 60 59 59 
79 79 78 77 78 78 79 80 82 82 81 80 80 81 82 82 80 81 81 82 82 82 81 80 80 80 79 79 79 78 78 78 75 75 74 74 74 74 75 75 74 72 70 70 70 70 68 66 67 66 33 71 62 60 60 60 64 81 106 129 141 142 139 136 133 133 134 136 140 144 147 149 11 11 149 149 151 153 155 157 156 158 161 163 164 166 169 171 175 175 175 17 175 175 175 175 179 179 180 180 181 181 181 181 182 181 180 181 183 185 186 185 185 184 183 183 183 185 187 188 189 188 187 186 185 185 186 186 188 186 185 185 188 189 190 189 182 178 173 173 174 175 172 169 168 164 160 160 161 161 157 154 152 143 133 128 124 121 122 127 127 124 156 137 144 150 149 143 131 124 117 111 103 97 94 97 101 101 101 101 103 109 117 123 119 117 113 107 100 96 91 88 95 95 93 89 86 88 94 99 101 105 112 117 119 120 121 122 129 133 138 142 145 149 153 156 158 158 159 160 161 161 162 162 164 165 165 165 164 166 169 171 172 170 169 171 174 175 172 169 169 169 168 168 167 167 169 170 165 164 163 163 163 44 159 157 155 156 158 158 157 153 149 146 148 147 145 143 141 138 137 136 135 133 129 126 125 125 17 126 119 115 111 107 45 95 104 103 100 96 94 93 93 92 91 88 87 84 79 77 77 78 79 79 79 80 81 82 83 86 88 89 93 92 90 90 91 91 89 88 90 88 83 75 66 60 57 56 56 56 56 56 57 57 59 58 58 57 56 56 56 57 58 58 58 59 60 61 61 60 59 58 59 59 60 60 60 61 61 61 59 59 58 57 57 57 57 58 60 59 59 59 59 58 58 58 60 60 59 58 58 59 60 60 58 59 60 60 60 60 59 58 60 60 60 60 60 59 59 59 
82 81 80 79 79 80 81 82 83 83 82 82 82 82 83 83 82 83 84 85 84 84 82 82 80 80 80 79 79 78 78 78 76 75 74 74 74 74 75 76 74 72 70 70 70 70 68 66 67 66 65 63 63 62 62 62 63 77 100 122 137 143 143 139 135 135 134 134 137 142 146 149 152 151 151 151 152 154 156 158 158 160 163 164 165 166 169 171 174 174 30 158 175 175 175 176 178 178 178 179 179 179 180 180 182 180 178 180 184 186 186 186 187 185 184 183 183 184 186 187 187 187 185 184 184 185 186 186 187 185 184 185 187 189 190 189 187 182 176 175 176 176 173 170 169 166 162 162 164 164 161 157 154 146 140 140 138 135 133 134 135 139 140 140 143 148 148 144 135 128 121 116 110 103 102 105 111 110 109 109 113 119 124 126 115 112 110 109 109 106 100 95 96 97 96 93 90 92 99 106 111 115 120 123 124 124 125 126 128 131 135 140 145 149 153 155 159 160 160 161 162 162 163 163 165 167 168 167 165 165 166 168 166 167 168 170 170 170 169 168 169 168 167 166 164 164 165 166 165 164 162 162 163 162 159 157 155 156 158 158 155 151 146 143 145 145 143 140 138 136 134 133 132 130 128 125 123 30 158 122 118 114 109 105 41 55 103 102 98 95 93 92 92 91 90 88 86 83 80 79 80 81 82 81 82 82 84 85 87 90 91 94 96 93 90 90 91 91 89 86 89 88 82 74 65 59 57 57 59 58 57 56 56 58 60 62 58 57 56 56 57 58 59 60 57 58 60 61 61 60 58 57 59 59 59 60 60 60 61 61 60 59 58 57 57 57 57 57 60 60 60 59 59 58 58 58 59 59 58 58 58 58 59 59 58 58 59 59 59 59 58 58 58 58 58 58 58 59 59 59 
84 83 82 81 81 81 82 83 84 84 83 82 82 83 84 84 83 84 85 86 86 85 83 82 80 80 80 79 79 78 78 78 77 76 74 73 73 74 76 77 74 72 70 70 70 70 68 66 66 66 65 64 64 64 63 63 63 77 97 120 137 145 146 145 139 138 135 134 136 140 145 148 151 150 150 150 151 153 155 156 159 161 164 165 165 167 169 171 171 172 173 174 175 18 39 177 177 177 177 178 178 178 179 179 182 180 178 180 184 187 187 186 188 186 184 183 183 184 186 187 186 185 184 183 183 184 186 187 186 184 183 184 187 189 189 188 192 186 180 178 179 179 176 171 171 167 163 162 163 163 159 154 152 148 145 148 149 144 139 138 142 146 147 144 144 146 145 141 136 130 124 121 116 111 111 115 121 119 117 119 123 127 128 128 112 110 109 112 117 116 110 103 104 106 106 102 100 102 110 116 121 124 126 127 126 125 125 126 126 129 134 140 147 153 157 160 161 161 162 163 164 164 165 165 168 169 170 169 167 165 164 165 163 166 168 169 168 167 167 167 170 169 167 165 163 162 162 161 165 163 162 162 162 161 158 156 155 156 158 157 154 149 144 141 144 143 141 139 136 134 132 131 131 130 127 124 122 119 118 116 116 113 107 103 102 102 102 101 97 94 92 91 91 91 89 87 85 83 80 80 81 83 83 82 85 85 86 88 91 92 94 96 97 93 90 89 91 91 89 86 89 88 82 73 64 59 57 57 60 58 56 54 55 57 60 63 58 57 57 57 58 59 60 61 59 60 62 63 63 62 60 59 58 58 58 59 59 60 60 60 60 60 59 57 57 57 57 57 60 60 60 59 59 58 58 58 59 58 58 57 57 58 58 59 57 58 58 59 59 58 58 57 55 56 56 57 57 58 58 58 
83 83 83 82 82 81 81 81 81 81 81 81 81 81 82 82 81 81 82 81 80 78 75 74 75 75 75 76 76 77 77 78 72 72 73 74 74 73 73 72 74 73 72 71 69 68 67 66 65 64 63 63 64 65 62 60 65 73 90 115 139 152 151 145 144 142 137 133 134 138 144 6 30 149 149 149 150 152 154 155 155 156 159 161 163 164 165 165 171 171 172 172 172 33 71 173 173 124 156 179 178 178 180 181 181 182 183 182 181 181 183 184 186 184 182 180 180 181 184 186 192 189 186 186 187 188 188 188 186 184 182 182 183 184 183 182 190 185 180 178 178 177 175 172 168 166 164 164 165 164 161 160 158 156 152 148 145 144 143 144 27 142 141 146 149 146 146 149 141 137 133 128 120 113 115 121 126 127 129 132 134 134 133 131 123 115 110 111 120 123 120 113 113 111 109 109 109 110 113 115 121 122 125 127 128 128 126 125 131 133 139 145 149 152 156 161 164 163 164 166 168 169 169 167 170 169 168 168 169 169 167 165 163 164 165 166 166 166 166 166 169 168 166 164 162 161 161 161 164 164 163 163 161 160 158 157 154 154 153 152 151 149 146 145 145 144 143 141 138 134 132 130 134 130 124 119 116 116 118 120 117 113 107 104 104 104 101 98 95 94 93 91 88 86 86 87 84 84 84 84 85 86 87 88 90 91 93 93 94 93 95 98 95 94 94 93 92 89 89 87 86 87 82 73 63 57 60 63 63 61 60 60 59 60 61 62 60 58 58 58 58 59 60 61 62 62 62 61 61 60 60 60 58 58 58 59 59 60 60 60 62 61 59 58 58 59 61 62 62 61 60 59 58 57 57 57 56 57 59 60 60 59 57 56 58 58 58 58 58 58 58 58 57 57 57 57 57 57 57 57 
85 84 84 84 83 83 83 82 80 80 80 80 80 81 81 81 81 81 81 81 80 78 76 74 73 73 74 74 75 75 76 76 73 73 74 74 74 74 73 73 73 73 72 71 69 68 67 67 63 62 61 62 63 63 61 59 62 69 88 112 137 150 150 145 145 142 137 134 134 137 142 44 148 148 148 149 150 152 155 156 156 156 158 160 162 164 165 166 171 171 171 171 172 172 173 173 171 156 190 177 176 176 178 179 177 179 180 180 179 180 183 185 190 188 185 182 181 182 183 185 189 187 185 185 187 188 187 186 182 181 180 181 183 185 184 183 185 181 177 175 175 174 172 170 168 165 162 162 163 164 164 163 158 156 152 148 146 145 147 148 148 75 142 145 146 144 144 149 143 139 134 129 121 114 117 123 125 127 130 134 138 139 139 138 133 128 122 123 127 128 125 120 118 116 114 112 111 112 114 116 122 124 126 128 129 128 127 126 134 137 142 147 149 152 155 159 161 161 163 165 167 167 165 164 169 168 168 169 170 169 166 164 163 164 164 165 165 165 165 164 168 168 166 165 163 162 162 162 163 163 162 162 161 160 158 158 155 154 153 152 150 148 145 144 144 143 142 139 136 133 131 129 131 129 122 117 114 114 115 116 118 112 105 103 17 104 103 100 97 96 94 91 87 85 84 85 88 88 87 88 89 90 90 91 91 92 94 94 93 93 95 96 96 96 95 94 93 91 90 88 86 85 82 72 63 58 59 62 63 62 60 60 60 60 61 61 59 58 58 58 59 59 60 61 62 62 61 61 61 60 60 60 58 58 59 59 59 60 60 60 62 61 59 58 58 59 61 62 62 61 60 59 58 57 57 57 57 57 58 59 59 58 57 57 58 58 58 58 58 58 58 58 57 57 57 57 57 57 57 57 
83 83 83 82 82 81 81 81 79 79 79 79 79 79 79 79 80 81 80 80 79 77 76 75 72 72 73 73 73 73 74 74 74 74 75 75 75 75 74 73 73 72 71 70 69 68 67 67 62 61 60 61 62 62 60 58 59 65 82 109 133 147 149 145 146 142 137 134 134 136 140 142 147 146 146 147 149 152 155 156 157 156 157 158 160 162 165 167 170 170 170 171 171 171 172 172 170 172 174 175 174 175 176 178 174 175 177 178 178 179 182 185 190 189 186 183 182 181 181 182 185 185 184 185 187 187 186 184 179 178 178 179 182 184 184 183 181 178 175 173 173 172 171 169 167 165 161 160 162 164 166 167 163 160 155 149 146 146 148 150 150 147 146 146 143 140 142 146 142 137 134 129 121 116 120 126 129 131 135 139 142 143 143 143 144 141 138 136 134 133 131 128 128 126 123 120 118 117 117 117 124 126 129 132 134 135 135 135 139 142 146 148 150 152 154 156 155 158 161 164 166 165 162 161 166 166 167 168 170 169 165 162 163 163 164 164 164 163 162 161 164 165 164 163 162 161 160 160 162 161 161 160 160 159 159 158 155 154 153 151 148 146 144 142 142 141 140 138 135 132 129 127 127 124 121 117 113 111 110 110 114 109 104 30 158 105 104 102 97 96 94 91 86 83 83 84 90 89 89 90 90 92 92 93 92 94 95 95 93 93 94 95 97 97 96 95 94 92 89 89 85 84 81 71 63 58 59 61 62 62 61 61 59 59 61 61 58 59 59 59 60 60 60 61 62 61 61 61 60 60 60 60 58 59 59 59 60 60 60 60 62 61 59 58 58 59 61 62 61 61 59 58 57 57 57 58 57 57 58 58 58 58 57 57 58 58 58 58 58 58 58 58 57 57 57 57 57 57 57 57 
79 79 78 78 78 77 77 77 78 78 77 77 77 77 76 76 79 79 79 78 77 76 75 74 72 72 73 73 73 73 73 73 74 74 75 75 75 74 73 73 71 71 70 69 69 68 67 67 62 61 60 61 63 63 62 59 57 64 78 104 129 145 149 146 146 144 139 135 135 135 138 139 145 145 145 146 148 152 155 156 157 156 155 156 158 161 165 167 169 169 169 169 170 170 171 171 171 172 174 174 173 174 175 177 175 175 178 177 177 178 180 182 186 185 184 182 181 180 180 180 182 182 183 185 187 187 185 183 178 177 177 178 181 181 180 179 178 177 175 174 173 172 171 170 164 163 161 162 164 167 168 168 168 163 157 150 147 147 149 151 156 154 152 148 143 139 139 142 134 131 128 126 121 117 122 130 137 140 144 146 146 145 144 144 147 148 147 145 140 138 135 135 138 136 133 129 126 123 121 120 127 129 133 137 141 144 146 146 143 147 150 149 149 152 153 153 148 154 161 165 166 165 163 161 163 163 165 167 168 167 163 161 162 162 162 162 162 161 160 160 160 161 161 161 160 159 158 158 160 160 159 158 158 157 158 158 154 153 152 150 147 145 142 141 140 139 138 136 133 130 127 126 124 122 121 117 113 110 108 107 109 107 105 105 108 108 105 101 94 93 92 89 85 83 83 84 89 89 89 89 90 91 91 92 95 96 97 96 94 92 93 94 96 97 96 96 94 93 90 89 85 83 78 70 62 58 59 60 62 62 62 62 60 60 61 60 58 59 59 60 61 61 60 60 61 61 61 60 60 60 59 59 59 59 59 60 60 60 61 61 61 60 60 59 59 60 60 61 60 60 59 58 57 57 57 58 57 57 57 58 58 57 57 57 58 58 58 58 58 58 58 58 57 57 57 57 57 57 57 57 
77 77 76 76 76 75 75 75 76 76 76 75 75 74 74 74 77 77 76 75 74 74 74 74 74 74 73 73 73 73 73 73 73 73 74 74 73 72 71 70 69 69 68 68 67 66 66 66 63 62 61 63 64 65 64 61 59 63 76 97 123 142 149 149 147 145 141 138 137 136 137 138 143 143 143 145 147 150 153 155 156 155 155 155 157 160 164 166 167 167 168 168 169 169 169 169 172 173 174 173 173 173 176 178 178 179 179 178 176 176 178 180 182 182 183 183 182 182 181 181 179 179 180 183 185 186 184 182 179 178 177 178 179 178 175 173 174 174 173 172 170 168 167 168 161 161 163 165 167 168 167 166 165 160 154 150 148 150 153 156 0 162 159 152 145 141 137 135 123 121 121 121 120 119 124 132 141 145 149 150 149 148 148 148 148 150 151 150 147 143 142 141 144 143 141 137 133 129 126 124 131 133 135 138 142 144 146 147 144 150 152 149 148 152 153 150 145 151 159 165 167 165 164 164 160 160 161 163 165 164 161 159 160 160 160 160 159 158 157 158 158 160 161 161 161 160 159 158 159 158 156 155 154 154 155 155 153 153 151 149 147 144 142 140 139 138 137 135 132 128 127 124 124 122 120 117 114 110 108 106 105 104 106 109 111 110 104 97 89 90 90 88 85 84 85 87 90 90 90 90 91 92 93 94 96 97 98 97 94 94 94 95 96 97 96 96 94 93 90 89 85 81 76 68 62 59 59 59 62 62 63 62 61 61 60 60 58 59 60 61 62 61 61 60 61 61 60 60 60 59 59 59 59 59 60 60 60 61 61 61 61 60 60 59 59 60 60 61 59 59 58 57 57 57 57 58 57 57 57 56 56 57 57 57 59 59 59 59 59 59 59 59 58 58 58 58 58 58 58 58 
77 77 77 76 76 76 75 75 75 75 74 73 73 72 71 71 75 74 73 72 71 71 72 72 74 74 73 73 73 73 72 72 71 71 71 71 70 69 68 67 66 66 66 65 65 64 64 64 63 62 62 63 65 65 64 62 62 63 72 91 117 138 149 151 148 146 143 140 139 138 138 138 142 142 142 143 144 147 150 152 154 154 154 155 157 160 163 165 166 166 167 167 167 168 168 168 173 173 173 172 171 172 175 178 179 180 179 178 175 175 176 177 180 181 183 184 184 183 181 180 175 175 175 178 181 182 182 180 177 177 176 177 177 175 172 169 168 170 170 168 165 162 161 161 159 160 163 165 167 166 163 160 155 152 150 148 149 154 159 162 165 165 161 154 149 145 138 130 118 118 119 122 122 121 126 133 140 145 151 153 152 151 153 155 149 152 155 156 153 149 147 145 145 145 144 141 137 132 128 125 134 134 135 136 137 138 138 139 143 150 153 148 148 153 154 150 145 152 161 166 166 164 164 164 158 157 157 158 160 160 159 157 157 157 158 158 158 157 156 156 158 160 162 163 163 163 161 160 158 156 154 153 152 151 151 151 150 150 149 148 146 144 142 140 138 138 136 134 131 128 126 124 124 122 120 117 115 112 110 109 103 104 17 110 112 110 103 96 88 89 90 88 87 86 88 90 93 93 93 93 94 95 95 96 96 98 98 97 96 95 95 96 96 96 96 95 94 92 90 89 85 80 74 67 62 59 58 58 62 63 64 63 62 61 60 60 58 59 61 62 63 62 61 60 60 60 60 60 59 59 59 58 60 60 60 60 61 61 61 62 60 60 60 60 60 60 60 60 58 58 57 57 57 57 58 58 57 57 56 56 56 56 57 57 59 59 59 59 59 59 59 59 58 58 58 58 58 58 58 58 
76 76 75 75 75 74 74 74 74 74 73 72 71 70 70 69 72 71 70 69 69 69 70 71 73 73 72 72 71 71 70 70 68 68 68 68 67 66 64 63 64 64 63 63 63 63 62 62 61 61 60 62 64 65 63 61 64 62 68 85 109 133 147 151 148 147 145 143 142 140 139 139 141 141 140 141 142 144 147 148 152 153 154 156 158 160 162 163 165 165 166 166 167 167 167 167 172 172 172 170 169 170 173 176 176 177 177 176 174 174 175 177 177 178 180 181 180 178 175 174 171 169 169 171 174 177 178 177 174 174 174 175 176 175 172 169 166 169 170 167 163 159 158 158 159 159 159 160 162 161 158 155 151 149 148 148 150 6 30 160 162 163 158 154 153 151 139 126 118 119 123 127 126 123 127 133 141 146 152 153 152 151 153 156 151 154 155 157 155 151 145 142 142 142 142 140 137 132 128 125 131 131 131 132 134 135 137 137 141 149 152 148 148 154 155 150 148 155 163 165 163 159 159 161 157 155 153 153 155 157 157 157 154 155 156 156 157 156 156 155 155 158 160 162 162 161 160 159 157 155 153 150 148 148 148 148 148 148 148 147 146 144 142 141 138 138 136 134 131 128 126 124 123 121 119 117 114 113 112 112 106 105 105 108 111 109 104 98 93 92 92 91 90 89 91 92 93 93 93 93 94 95 95 96 96 99 98 98 97 96 96 97 95 95 95 94 93 91 90 89 84 79 72 66 62 60 58 58 62 63 63 64 63 62 60 59 58 59 61 63 63 62 61 60 60 60 60 59 59 59 58 58 60 60 60 61 61 61 62 62 59 60 60 61 61 60 60 59 58 57 57 56 56 57 58 58 57 57 56 55 55 56 57 57 59 59 59 59 59 59 59 59 58 58 58 58 58 58 58 58 
73 73 72 72 71 71 71 71 73 73 72 71 70 69 69 68 71 70 68 67 67 68 69 70 71 71 71 70 70 69 69 68 66 66 66 66 65 63 62 61 62 62 62 62 62 61 61 61 60 59 59 61 63 64 62 60 65 61 65 80 104 129 145 151 148 147 146 144 143 142 141 139 141 140 140 140 141 142 145 146 151 152 154 157 159 160 161 161 165 165 165 166 166 166 167 167 170 171 170 168 167 168 171 174 172 173 174 174 173 173 175 177 173 174 176 176 175 171 168 165 167 166 164 166 169 173 175 175 171 171 172 174 176 175 172 170 168 170 172 169 164 159 158 160 160 158 156 155 156 156 154 153 153 151 149 148 148 44 152 154 159 159 155 152 155 154 141 125 120 122 127 132 130 126 127 132 145 150 155 155 152 149 150 153 151 152 152 155 154 150 143 138 138 139 139 139 136 131 126 123 126 127 128 131 135 138 141 142 139 148 152 147 147 155 156 151 153 158 164 164 160 155 155 156 156 154 151 151 153 155 156 156 152 153 154 155 156 156 156 156 151 153 156 158 158 158 156 155 157 155 151 148 146 145 145 146 146 146 146 146 145 144 143 142 138 138 136 134 131 128 126 124 123 121 118 115 114 113 113 114 7 21 104 105 107 108 105 102 96 97 97 94 92 91 91 93 90 90 90 91 90 93 93 94 96 97 98 98 97 97 97 98 94 94 94 93 92 90 89 87 84 78 71 65 62 60 58 57 61 62 63 65 64 62 62 60 58 59 61 63 64 63 61 60 60 60 60 59 59 58 58 58 60 60 60 61 61 62 62 62 59 60 60 61 61 60 60 59 57 57 56 56 56 57 58 58 58 57 55 54 54 55 57 58 59 59 59 59 59 59 59 59 58 58 58 58 58 58 58 58 
70 69 69 68 67 66 65 65 68 68 68 68 67 67 66 66 66 66 66 66 66 66 66 66 66 66 67 67 67 68 68 68 66 66 66 65 65 64 64 64 62 62 62 62 62 62 62 62 59 60 61 62 63 63 63 62 60 62 67 79 98 120 140 152 149 147 146 145 145 144 142 141 137 137 137 138 139 141 144 145 147 149 152 153 153 154 157 159 158 161 164 165 164 164 164 165 170 170 170 169 169 168 168 168 172 172 174 175 175 176 175 175 170 170 169 169 168 168 167 167 162 162 163 163 164 167 172 175 171 173 175 177 177 175 172 170 165 169 172 172 169 166 167 168 170 164 156 148 146 147 150 153 154 153 152 17 157 158 157 155 156 153 151 152 153 150 141 134 127 132 137 135 131 130 136 143 151 154 156 154 151 148 149 150 152 151 154 156 156 151 142 136 135 136 138 139 138 134 126 120 123 123 125 131 139 143 143 142 137 143 146 142 140 146 154 157 149 154 159 160 157 154 152 152 146 147 150 154 157 157 154 152 147 147 147 150 153 154 153 152 147 148 150 151 152 153 153 153 152 151 149 146 142 142 143 147 140 142 143 143 141 139 138 137 133 134 134 133 130 126 123 120 121 119 116 113 112 112 114 114 7 20 108 105 104 103 103 103 100 99 98 98 96 96 96 97 95 92 89 89 88 90 93 95 95 96 97 99 100 99 98 96 96 94 92 91 91 90 89 87 81 78 72 67 62 61 59 58 59 59 59 60 60 61 61 61 58 61 63 65 66 65 63 62 64 63 63 62 62 61 61 60 59 59 59 59 59 59 59 59 64 63 62 61 60 60 60 60 59 59 59 59 59 59 59 59 59 59 59 58 58 57 57 57 58 58 58 58 58 58 58 58 58 58 58 58 58 58 58 58 
68 68 67 67 66 65 64 64 67 67 66 66 66 65 65 65 64 64 64 64 64 64 64 64 64 64 65 65 65 66 66 66 66 66 66 65 65 64 64 64 63 63 63 63 63 63 63 63 63 64 65 65 66 66 65 64 64 65 69 79 95 115 137 149 149 148 146 145 144 144 143 142 137 137 137 137 138 140 143 144 146 148 150 152 152 153 156 158 158 161 163 164 164 163 164 165 167 167 167 168 168 168 168 168 173 173 174 174 174 173 173 172 166 165 165 165 164 164 163 163 163 164 165 164 164 165 168 171 166 168 170 172 172 170 167 166 164 167 169 169 167 166 168 170 168 163 156 149 146 146 124 156 153 152 30 158 158 161 161 160 155 153 152 153 154 150 142 135 131 132 131 128 127 132 141 149 155 157 158 157 154 152 153 155 155 155 156 159 159 155 148 142 138 139 141 143 143 139 132 127 130 129 128 131 135 138 138 137 138 144 147 143 142 147 153 155 149 152 156 155 152 148 147 147 148 148 149 151 153 154 151 148 143 142 142 142 145 147 146 145 144 144 145 145 145 145 145 145 148 147 145 142 138 137 138 141 138 139 140 140 139 137 135 135 134 134 134 133 130 127 123 121 118 117 114 112 110 110 111 112 110 109 107 105 103 103 103 104 101 99 98 97 96 96 96 96 95 94 91 89 90 92 94 96 96 97 98 99 100 99 98 98 95 94 91 90 90 89 87 85 80 78 72 66 62 61 59 58 59 59 60 60 60 61 61 61 59 61 63 64 65 64 63 62 63 62 62 62 62 62 61 61 59 59 59 59 59 59 59 59 62 61 61 60 60 60 60 61 59 59 59 59 59 59 59 59 59 59 59 58 58 58 57 57 58 58 58 58 58 58 58 58 58 58 58 58 58 58 58 58 
66 66 65 65 64 63 63 62 65 65 64 64 63 63 63 63 64 64 64 64 64 64 64 64 62 62 62 63 63 63 64 64 66 66 65 65 65 65 64 64 65 65 65 65 65 65 65 65 68 69 69 69 69 69 67 67 69 69 69 77 90 109 131 144 149 148 146 145 144 143 143 143 138 138 137 137 137 139 141 142 144 146 149 150 151 152 155 157 158 160 162 163 162 162 163 164 165 165 166 166 167 168 168 169 173 173 173 172 171 170 169 169 163 163 162 161 160 159 159 158 161 163 165 165 163 163 163 165 160 161 164 165 165 164 162 160 163 164 165 49 63 164 167 169 6 161 156 6 30 148 156 190 147 147 148 151 155 159 160 160 156 155 154 154 154 151 144 138 138 133 125 121 125 135 147 156 158 159 160 159 157 157 158 160 159 159 159 161 161 158 153 149 146 147 148 150 150 147 141 137 141 138 134 133 133 135 135 134 138 145 148 145 144 147 150 151 148 149 150 148 144 143 141 141 145 144 143 144 145 144 142 140 140 139 137 138 140 142 143 142 145 144 143 142 142 142 142 142 143 142 140 136 133 131 133 135 135 136 137 137 136 134 132 131 133 133 132 131 129 126 123 121 116 114 112 110 109 27 109 109 108 108 106 104 103 103 104 104 102 100 98 97 96 96 97 97 96 95 92 91 91 93 96 97 97 97 98 98 99 98 97 97 93 92 89 88 89 88 85 83 79 77 71 66 62 60 59 59 59 60 60 60 61 61 61 61 59 60 62 63 63 63 62 61 61 61 61 61 62 62 62 62 59 59 59 59 59 59 59 59 60 59 59 59 59 60 60 61 59 59 59 59 59 59 59 59 59 59 59 59 58 58 58 57 58 58 58 58 58 58 58 58 58 58 58 58 58 58 58 58 
64 64 63 63 62 62 61 61 63 63 63 62 62 61 61 61 64 64 64 64 64 64 64 64 61 61 62 62 63 63 63 63 65 65 65 65 65 65 65 65 67 67 67 67 67 67 67 67 71 71 72 71 71 70 69 69 69 69 70 73 82 101 124 140 147 147 147 145 143 143 144 145 139 139 138 137 136 137 138 139 143 146 148 150 151 152 155 157 157 159 161 161 161 161 162 164 166 166 166 166 166 167 167 167 170 169 169 168 167 167 167 167 164 163 162 160 157 155 154 153 156 159 162 163 161 160 159 159 157 157 159 161 161 160 159 158 161 161 160 11 11 159 161 163 160 158 155 44 150 150 151 152 146 146 148 150 154 157 159 160 159 158 157 157 157 154 148 143 147 138 127 123 128 140 151 158 161 161 160 160 160 161 162 164 163 164 164 164 164 162 159 157 156 156 155 156 155 152 147 143 147 143 139 136 135 137 139 140 139 145 148 144 144 145 147 145 143 142 142 140 138 138 138 138 136 135 133 133 134 134 133 132 135 133 130 130 133 137 139 140 140 139 138 137 137 138 139 139 140 139 138 134 130 129 131 133 134 134 134 134 134 133 131 128 129 129 129 127 125 122 120 119 115 113 112 110 109 108 75 108 108 106 105 103 102 103 104 105 100 100 98 97 96 96 97 97 95 94 92 91 92 94 96 97 96 96 96 95 95 95 94 93 92 89 87 86 86 86 83 81 77 74 69 65 61 59 59 59 60 60 60 61 61 61 62 62 59 60 61 62 62 61 61 60 60 60 60 61 62 62 63 63 60 60 60 60 60 60 60 60 58 58 58 58 58 59 61 61 60 60 60 60 60 60 60 60 60 60 59 59 59 58 58 58 59 59 58 58 58 58 57 57 59 59 59 59 59 59 59 59 
62 62 62 61 61 61 61 60 63 62 62 62 61 61 61 60 62 62 62 62 62 62 62 62 62 62 63 63 64 64 64 64 65 65 65 65 65 65 65 65 68 68 68 68 68 68 68 68 71 71 71 71 71 70 69 69 68 69 69 70 76 94 117 136 141 145 147 146 145 144 145 147 142 141 140 138 136 136 137 138 142 145 148 149 151 152 155 158 156 158 159 159 159 159 161 163 169 168 167 167 165 165 164 163 164 164 163 163 163 164 166 166 166 165 163 159 156 153 150 149 153 156 160 162 161 159 158 158 155 155 157 158 159 158 158 157 159 157 155 155 155 155 155 156 156 156 154 153 154 155 157 159 154 155 157 159 161 162 163 165 163 163 163 162 161 158 153 150 155 146 136 133 139 147 154 157 162 161 161 162 163 165 166 166 168 169 170 170 168 166 165 164 163 161 159 157 155 151 146 142 145 144 140 138 138 140 145 148 139 143 145 143 142 142 141 138 135 134 133 133 133 134 135 135 126 125 125 126 128 130 129 128 124 122 120 120 124 129 132 134 128 128 128 128 130 131 132 132 138 138 136 133 130 129 131 133 133 132 131 132 134 133 129 126 126 126 124 122 120 118 116 116 115 114 45 95 110 109 108 108 107 106 104 102 102 102 103 104 100 100 99 97 96 96 95 95 91 91 91 91 92 93 95 96 94 94 93 91 91 91 90 90 89 86 85 84 84 82 81 79 75 72 68 65 61 59 59 59 60 60 61 61 61 62 62 62 61 61 61 61 61 61 60 60 59 59 60 60 61 62 62 62 60 60 60 60 60 60 60 60 58 58 58 58 58 59 61 61 60 60 60 60 60 60 60 60 60 60 60 59 59 59 58 58 59 59 59 58 58 57 57 57 59 59 59 59 59 59 59 59 
61 61 61 61 61 61 61 61 64 63 63 63 62 62 62 61 59 59 59 59 59 59 59 59 63 63 64 64 64 65 65 65 64 64 65 65 65 65 66 66 68 68 68 68 68 68 68 68 69 70 70 70 70 69 69 68 67 69 70 69 70 84 107 125 136 141 147 149 147 145 146 148 145 143 142 139 137 136 136 136 141 143 146 148 149 151 154 157 156 157 158 158 157 158 161 162 168 168 167 165 164 162 161 160 159 158 158 157 158 160 162 163 164 162 160 157 153 150 148 147 151 155 158 160 159 157 157 157 153 154 155 155 156 156 156 156 155 154 152 152 153 154 153 152 154 154 152 152 153 156 159 161 158 160 162 163 163 163 165 167 168 168 168 167 165 163 160 158 161 156 150 148 151 156 159 159 163 163 163 166 169 171 170 169 174 176 178 177 174 171 170 170 166 163 160 157 154 150 146 142 144 144 142 141 140 144 149 153 139 142 142 139 137 138 135 131 128 127 125 126 129 130 130 130 120 120 121 123 127 129 128 127 121 119 117 118 122 126 129 131 122 123 125 127 129 130 130 130 132 132 132 129 126 126 129 132 132 130 129 130 132 131 127 124 123 122 120 118 118 116 114 114 114 115 41 55 112 110 108 108 107 106 104 102 101 101 101 101 98 98 97 96 95 95 94 94 90 90 90 91 92 94 95 96 93 92 91 90 88 87 87 87 86 85 82 81 81 81 78 77 73 72 67 64 61 59 59 60 61 61 61 61 62 62 62 63 62 62 62 62 61 61 61 61 60 60 60 60 61 61 61 61 61 61 61 61 61 61 61 61 60 59 59 59 59 60 60 61 61 61 61 61 61 61 61 61 61 60 60 60 59 59 59 59 60 60 59 58 58 57 56 56 60 60 60 60 60 60 60 60 
61 61 61 61 61 61 61 61 65 65 65 64 64 63 63 63 60 60 60 60 60 60 60 60 63 63 63 64 64 64 65 65 64 64 64 65 65 66 66 66 68 68 68 68 68 68 68 68 68 69 69 70 70 70 71 69 68 73 72 67 64 74 96 115 129 138 147 151 149 147 148 149 148 146 143 141 138 136 136 136 138 140 142 145 146 148 151 154 155 156 157 156 156 157 160 162 164 164 163 162 161 160 159 159 157 156 155 153 154 155 157 158 155 154 153 151 150 148 147 146 148 150 152 152 150 149 148 149 149 149 150 151 152 152 152 152 151 149 149 151 154 155 154 152 154 153 151 149 150 152 156 158 160 162 164 165 164 165 168 170 173 173 173 172 169 166 165 164 166 163 162 161 162 163 165 165 166 166 169 173 178 179 177 174 181 184 186 185 181 177 175 175 172 168 164 161 159 156 152 149 149 150 149 147 146 147 152 156 138 140 138 134 132 133 130 125 123 121 120 121 124 125 123 121 117 117 119 123 125 126 124 122 122 121 119 119 122 125 126 127 122 124 126 129 129 128 127 126 124 124 123 121 119 120 123 126 129 126 125 127 129 129 125 120 122 121 119 117 116 115 113 114 113 17 114 113 111 109 108 108 108 106 104 101 100 99 100 99 97 97 95 93 93 92 92 92 91 91 92 93 94 95 97 97 94 93 90 89 87 86 86 86 84 83 80 80 80 78 77 74 72 70 66 62 60 59 59 60 61 61 61 62 62 62 63 63 64 64 63 62 62 62 62 62 61 61 60 60 60 60 60 59 61 61 61 61 61 61 61 61 62 61 61 60 60 60 60 61 61 61 61 61 61 61 61 61 61 61 60 60 60 59 59 59 60 60 59 58 58 57 56 56 60 60 60 60 60 60 60 60 
61 61 61 61 61 61 61 61 66 66 66 65 65 65 64 64 64 64 64 64 64 64 64 64 62 62 62 63 63 64 64 64 64 64 64 65 65 66 66 66 68 68 68 68 68 68 68 68 67 68 69 70 71 71 72 72 70 74 74 67 61 69 89 107 127 136 146 152 151 149 149 150 150 148 144 141 138 137 136 136 135 137 141 142 143 146 149 152 155 156 156 156 155 156 160 162 159 159 159 159 159 158 158 158 158 156 153 151 152 152 153 154 147 147 147 147 146 146 146 146 144 145 146 144 141 139 138 139 145 146 146 147 148 149 150 150 147 147 148 152 156 158 157 154 156 153 149 147 146 149 152 154 163 167 170 171 171 172 175 178 176 177 177 175 172 169 168 168 168 168 167 166 166 168 170 172 169 170 173 179 184 185 182 178 185 189 192 191 186 181 178 178 178 175 171 168 166 164 161 159 157 158 158 155 152 152 155 159 138 139 136 131 129 130 127 122 121 119 117 118 120 121 117 115 113 114 117 120 122 122 120 117 121 119 117 116 118 119 119 119 118 121 124 126 125 123 120 118 116 116 116 114 113 115 118 121 127 124 123 125 127 127 123 118 122 121 119 117 116 115 114 114 30 158 113 112 110 109 108 107 108 107 104 101 99 99 99 98 97 96 94 92 92 91 91 92 92 92 93 94 96 97 98 99 95 94 91 88 86 86 85 85 84 81 79 78 78 78 75 74 71 69 66 62 59 59 59 60 62 61 61 63 62 63 63 63 65 65 64 63 62 62 62 62 62 61 61 60 60 59 59 58 61 61 61 61 61 61 61 61 64 63 62 61 60 60 60 60 61 61 61 61 61 61 61 61 61 61 61 60 60 59 59 59 60 60 59 58 58 57 56 56 60 60 60 60 60 60 60 60 
59 61 63 63 62 61 61 63 67 67 67 66 66 65 65 65 62 62 64 65 65 65 65 65 66 66 66 65 65 64 64 64 62 63 64 64 65 66 67 67 68 68 68 68 68 68 68 68 66 68 69 70 72 71 69 70 70 69 71 70 65 67 80 96 117 130 145 152 148 146 148 152 150 150 149 147 144 140 136 134 135 136 137 140 142 145 148 149 155 155 156 157 157 157 157 157 156 155 155 155 155 155 155 155 152 151 151 149 148 146 144 143 141 141 142 143 145 144 141 138 138 138 138 138 138 138 138 138 145 147 149 150 148 147 148 149 150 149 147 148 151 154 155 155 164 162 160 158 159 161 163 165 169 170 173 175 178 179 180 181 187 187 187 186 179 171 172 178 176 175 174 174 174 173 171 170 171 171 174 179 184 186 186 185 190 189 188 187 186 186 186 186 183 178 173 171 172 172 169 165 164 161 157 155 156 156 154 152 143 142 141 139 136 133 130 129 123 125 127 126 120 115 112 112 110 112 114 116 117 118 118 118 122 118 115 112 107 103 106 113 112 118 123 124 120 115 108 104 100 105 109 109 107 107 111 115 119 119 121 121 121 120 119 119 116 117 117 117 117 7 21 111 117 117 115 114 112 111 110 110 108 106 103 101 99 98 98 97 93 93 93 93 93 93 92 92 94 94 93 93 93 94 95 96 93 92 90 88 85 84 83 83 82 81 78 77 77 74 70 68 67 63 63 67 66 62 59 59 63 63 63 64 63 63 64 64 64 64 64 63 63 62 62 62 66 65 63 62 62 63 65 66 62 62 62 62 62 62 62 62 64 63 61 60 59 60 61 61 58 59 61 62 62 61 59 58 62 62 62 62 62 62 62 62 61 61 61 60 59 58 56 55 59 59 60 61 61 60 59 59 
61 62 64 64 63 62 62 63 67 67 67 66 66 65 65 65 62 63 64 65 65 65 65 64 66 66 65 65 65 64 64 64 63 63 64 65 66 66 67 67 67 67 67 67 67 67 67 67 66 67 69 70 71 71 69 68 68 68 68 68 65 66 76 88 108 120 137 146 146 144 146 149 150 150 150 148 145 142 138 136 136 137 138 139 141 144 147 149 152 153 154 155 155 155 156 155 153 153 154 154 153 152 151 150 148 149 148 147 145 143 140 138 136 136 137 139 140 138 133 130 126 128 129 133 136 140 143 144 146 149 152 153 152 150 149 150 153 153 154 154 155 158 160 162 163 163 161 162 163 167 171 174 178 179 180 182 183 184 184 184 185 185 187 187 182 177 179 185 186 185 184 182 180 178 175 173 170 172 175 181 187 190 190 189 191 190 189 188 186 184 182 182 184 181 178 178 179 178 174 171 166 162 158 156 156 156 154 152 145 146 144 142 139 137 135 134 132 133 133 129 122 117 116 116 109 109 109 110 111 113 115 116 120 115 112 109 103 98 101 107 107 112 116 117 113 106 100 97 95 99 102 102 102 104 108 114 117 116 118 119 119 119 119 118 117 117 116 116 116 7 20 112 115 115 114 113 111 110 110 109 104 103 100 98 97 96 96 97 93 93 93 93 93 93 93 92 93 93 93 94 94 94 94 94 92 91 89 87 84 84 83 82 80 78 77 76 75 73 70 68 65 61 62 65 66 62 59 61 63 64 64 64 64 64 64 64 63 64 64 63 63 62 62 62 65 64 63 62 62 63 64 65 61 61 61 61 61 61 61 61 63 62 61 60 60 60 60 60 59 60 60 61 61 60 60 59 63 63 63 63 63 63 63 63 61 61 61 61 60 59 58 57 60 61 61 62 62 61 61 60 
63 65 66 66 64 63 64 65 67 67 67 66 66 66 65 65 63 63 64 65 65 65 65 64 65 65 65 65 64 64 63 63 64 64 64 65 66 66 67 67 67 67 67 67 67 67 67 67 66 67 68 69 70 70 70 68 69 65 66 66 66 66 71 78 96 109 125 138 142 143 145 147 150 150 150 149 147 144 141 140 138 138 138 139 141 143 146 148 150 150 152 152 153 153 154 153 150 151 152 152 151 150 147 145 145 145 146 145 142 138 134 131 129 129 130 132 132 130 125 121 114 117 121 127 133 139 143 145 144 148 151 153 152 151 149 150 154 157 159 159 158 159 163 167 170 168 168 167 171 174 180 182 180 180 182 183 185 185 186 185 193 193 194 195 191 187 190 196 194 193 191 188 183 179 176 174 168 170 175 181 188 191 191 189 195 195 195 193 190 185 181 178 171 169 167 169 172 173 170 166 162 160 158 156 157 157 155 154 153 152 149 147 144 142 141 140 139 137 134 127 120 116 116 117 109 107 104 103 104 107 111 114 114 109 104 101 96 90 90 95 99 102 105 105 100 94 89 87 86 89 92 93 94 98 104 110 112 113 115 117 118 119 119 119 119 118 25 21 115 115 114 114 113 113 112 111 110 110 109 109 101 99 97 95 94 94 95 96 94 94 93 93 92 92 92 91 91 92 93 94 94 93 91 90 90 89 87 85 83 81 81 80 77 76 76 75 75 72 67 64 62 58 60 64 66 63 61 63 64 63 64 65 64 65 65 65 63 64 64 63 63 62 62 62 64 64 63 62 62 63 64 64 60 60 60 60 60 60 60 60 61 61 61 61 61 60 60 59 61 61 60 60 60 60 61 61 63 63 63 63 63 63 63 63 61 61 62 62 62 61 61 60 62 63 63 64 64 63 63 62 
66 67 69 69 67 65 66 66 68 68 68 67 67 66 66 66 64 64 65 66 66 66 65 64 65 65 65 65 64 64 64 63 64 65 65 66 66 67 67 67 66 66 66 66 66 66 66 66 66 66 67 68 69 69 69 69 69 66 63 67 68 66 67 70 87 99 117 131 140 145 147 149 149 150 150 150 148 146 144 143 139 139 138 138 140 142 144 146 149 150 151 152 153 153 154 153 149 151 152 152 151 147 143 141 143 144 145 143 140 135 129 125 124 123 122 122 122 121 119 116 112 114 118 124 129 134 138 141 142 144 146 146 146 146 148 150 152 156 161 161 158 158 163 168 173 172 171 170 172 174 177 180 176 177 179 181 183 185 187 188 186 184 184 185 182 179 181 186 195 195 193 189 183 178 175 174 169 172 177 184 190 192 190 188 182 182 180 176 170 162 156 152 147 144 142 145 150 154 154 153 150 150 151 153 155 157 158 159 158 155 151 146 142 140 138 137 140 136 129 122 116 113 113 114 110 106 101 99 99 102 107 110 105 99 94 92 86 80 79 82 91 93 95 95 90 85 81 80 81 82 84 85 87 92 99 105 109 111 113 116 118 120 121 121 120 118 7 4 114 114 114 115 113 112 112 111 110 110 109 109 99 98 96 94 94 94 95 96 94 94 94 93 92 92 91 91 90 91 93 94 93 91 89 87 88 86 84 82 81 79 79 79 76 76 74 75 73 69 64 60 59 56 57 64 65 63 63 64 63 63 65 65 65 65 65 65 63 64 64 63 63 62 62 62 63 63 62 62 62 62 63 63 59 59 59 59 59 59 59 59 59 60 61 62 62 61 59 58 63 62 60 59 59 60 62 63 64 64 64 64 64 64 64 64 61 62 63 63 64 63 63 62 63 64 65 65 65 65 64 63 
69 70 72 71 69 67 68 68 70 70 69 69 68 68 68 68 66 67 67 68 67 67 66 66 66 66 66 65 65 65 64 64 65 66 66 66 66 67 67 67 66 66 66 66 66 66 66 66 66 66 66 66 67 68 69 69 70 65 64 67 69 67 66 67 82 92 108 124 137 146 148 150 146 147 148 149 149 147 146 145 141 140 138 138 138 141 143 145 149 150 151 153 154 154 155 155 151 152 153 154 152 148 144 141 142 143 144 143 139 132 127 123 122 118 114 112 112 113 113 113 111 113 117 122 127 132 135 137 137 138 138 137 138 142 148 152 150 155 160 161 158 158 163 168 173 172 171 171 171 172 172 173 175 174 173 173 174 176 178 179 177 175 175 177 177 176 179 185 192 194 193 190 185 180 179 179 181 183 187 193 196 194 189 185 178 175 168 160 149 137 128 122 117 113 110 112 118 125 128 129 128 131 136 141 146 151 155 157 155 154 150 145 140 135 132 130 138 133 126 120 116 114 114 114 110 106 100 95 94 96 100 103 98 92 86 83 79 73 71 73 83 84 86 84 81 77 76 76 78 79 79 81 84 89 95 100 108 109 112 115 118 121 45 95 120 118 115 114 114 114 114 115 113 112 112 111 110 109 109 108 99 98 96 95 94 95 96 95 94 94 93 92 91 90 90 89 89 90 92 92 91 89 86 84 84 83 82 80 78 77 77 77 77 76 74 72 71 67 62 58 59 56 57 64 65 63 63 64 63 63 64 65 64 65 65 65 63 64 64 63 63 62 62 62 61 61 62 62 62 62 61 61 59 59 59 59 59 59 59 59 58 59 60 61 62 61 59 58 63 62 60 59 59 60 62 63 64 64 64 64 64 64 64 64 62 63 64 64 64 64 64 63 63 64 65 65 65 65 64 63 
71 73 74 74 71 69 69 70 72 72 71 71 71 70 70 70 69 69 70 70 70 69 68 67 68 68 67 67 66 66 66 66 66 66 66 67 67 67 67 67 67 67 67 67 67 67 67 67 66 65 65 65 66 67 68 69 70 66 65 68 69 66 65 66 76 83 97 113 130 141 146 147 143 144 145 147 147 147 146 145 142 141 139 137 137 139 141 143 149 150 152 153 155 155 156 156 153 154 154 154 153 149 146 144 143 143 143 140 136 130 124 121 119 114 109 106 105 105 104 104 104 106 109 115 121 126 130 132 133 134 134 135 136 141 148 154 149 153 158 160 159 160 163 166 171 172 171 172 170 167 165 163 156 152 147 142 139 140 141 143 149 145 147 153 157 160 166 172 176 180 182 182 177 177 177 180 187 188 190 192 190 184 176 169 163 156 145 132 118 106 97 92 83 78 75 77 83 89 92 92 98 103 110 117 122 127 133 135 143 143 141 140 137 134 131 129 130 127 121 118 117 116 115 113 106 103 97 92 89 89 90 91 90 83 77 76 73 68 65 66 71 72 73 72 70 69 70 71 75 75 76 79 83 88 93 96 106 108 111 115 118 120 41 55 119 118 116 115 115 115 114 114 113 112 111 110 108 107 106 105 101 99 97 95 94 94 95 95 93 93 92 92 90 89 88 87 90 90 90 90 88 86 84 82 82 81 79 77 76 75 75 75 76 74 72 70 69 67 64 61 62 58 60 64 66 63 62 63 62 62 63 64 63 64 64 64 63 64 64 63 63 62 62 62 60 60 61 62 62 61 60 60 59 59 59 59 59 59 59 59 58 58 59 60 60 60 60 60 62 62 61 61 61 61 62 62 63 63 63 63 63 63 63 63 63 64 64 65 64 64 63 62 62 63 63 64 64 63 63 62 
74 75 76 75 73 71 71 71 74 74 74 73 73 72 72 72 71 72 72 72 72 71 70 69 69 69 69 68 68 68 67 67 67 67 67 67 67 67 67 67 67 67 67 67 67 67 67 67 66 65 64 64 65 66 68 69 69 66 65 68 67 63 64 68 68 73 84 101 119 132 138 139 139 140 142 144 145 145 145 144 143 141 139 136 136 138 140 142 149 150 151 153 154 155 156 156 154 154 154 153 152 151 149 147 144 143 141 137 133 127 122 119 114 110 106 102 98 94 90 87 90 91 94 99 105 110 112 114 122 125 129 132 135 140 145 150 146 148 152 155 157 158 159 160 161 161 161 158 151 142 134 130 117 111 103 94 91 90 92 95 93 90 92 98 106 110 117 123 142 146 153 154 155 155 159 164 170 171 171 169 163 153 140 131 116 108 97 84 73 66 62 60 58 55 54 55 58 60 59 56 64 69 75 81 85 89 93 96 110 112 116 119 121 121 120 119 114 112 110 110 111 111 108 105 98 96 93 88 84 81 78 77 77 70 65 65 64 60 58 58 56 57 59 58 58 59 62 65 70 70 73 77 83 89 93 95 105 106 109 6 30 119 120 121 117 117 116 116 116 115 113 112 111 110 110 107 105 103 101 100 101 100 97 95 94 93 93 93 92 92 92 90 88 87 86 85 91 90 89 87 86 84 83 82 79 79 78 76 75 74 74 74 73 70 68 68 68 69 69 68 66 61 62 65 66 62 60 60 61 61 62 62 62 63 63 63 63 64 64 63 63 62 62 62 59 60 61 62 62 61 60 59 60 60 60 60 60 60 60 60 59 58 58 58 59 60 60 61 61 62 62 63 63 62 62 61 63 63 63 63 63 63 63 63 64 64 65 64 64 63 62 61 60 61 61 62 62 61 61 60 
75 76 77 76 74 72 72 72 75 75 75 75 74 74 73 73 73 73 73 73 73 72 71 70 70 70 70 69 69 69 68 68 67 67 67 67 67 67 67 67 68 68 68 68 68 68 68 68 65 66 64 64 65 66 67 69 67 65 65 67 64 61 63 68 62 65 75 92 110 124 131 132 136 138 140 143 144 144 144 144 144 142 138 135 136 137 140 142 148 149 151 152 154 154 155 156 154 154 153 152 152 150 150 149 145 143 140 135 130 124 121 118 111 108 104 100 95 87 79 73 79 79 82 85 89 91 95 96 112 117 124 130 135 137 141 143 142 144 146 150 154 156 156 153 144 144 141 134 123 109 96 88 86 80 70 62 58 59 63 66 68 65 66 72 79 83 89 94 109 115 123 127 128 131 138 142 148 147 146 141 132 120 104 95 90 84 73 64 58 55 58 58 52 50 49 50 52 50 45 39 41 45 50 54 55 56 60 63 72 76 83 91 97 99 99 99 96 95 96 99 102 101 98 94 92 91 88 84 79 74 69 67 65 58 55 56 56 52 50 50 46 47 48 48 50 52 56 59 65 67 71 77 84 90 94 124 156 105 108 44 114 117 118 119 116 17 117 117 116 116 114 111 110 110 108 105 102 99 98 95 100 99 97 94 92 92 92 91 91 91 90 88 87 86 85 84 92 90 88 86 84 83 82 82 78 78 77 75 74 73 73 73 70 68 65 65 68 71 73 74 68 63 64 66 66 63 59 59 61 60 61 62 61 62 62 63 64 63 64 62 63 62 62 62 58 59 61 62 62 61 59 58 60 60 60 60 60 60 60 60 59 58 57 57 58 59 61 62 60 61 63 64 64 63 61 60 62 62 62 62 62 62 62 62 65 65 65 64 63 62 60 59 59 59 60 61 61 60 59 59 
76 77 77 77 76 75 74 73 80 80 79 79 79 78 78 78 76 76 75 75 74 74 74 74 74 74 73 72 71 71 70 70 70 70 70 69 69 68 68 68 68 68 68 68 67 66 65 64 65 64 65 63 63 64 64 65 65 65 64 63 63 62 61 61 56 58 65 75 91 110 126 136 135 135 136 139 141 144 144 144 139 139 138 136 135 135 137 141 144 146 149 152 152 152 151 150 151 152 155 155 153 151 151 151 148 142 135 131 130 126 120 114 109 103 96 90 84 78 72 66 71 68 66 67 71 76 79 81 99 106 116 122 125 128 135 139 144 141 138 138 139 137 129 122 114 108 99 90 80 69 60 54 52 52 50 48 45 46 50 54 56 56 58 61 63 65 66 66 79 83 87 88 87 90 97 104 104 105 103 96 87 79 71 64 59 58 54 51 49 47 46 46 52 50 47 46 45 43 40 38 39 40 40 40 38 36 35 36 45 46 49 53 58 63 66 69 64 66 72 77 80 82 82 81 80 75 69 65 63 60 55 51 43 44 43 41 38 35 33 31 31 34 37 41 45 52 59 64 70 72 77 83 89 93 93 156 190 103 107 111 114 115 115 115 30 158 118 117 116 113 110 108 110 109 106 104 100 97 94 93 98 97 94 92 89 88 88 87 89 88 87 87 86 86 87 87 87 86 84 82 80 78 77 77 74 72 71 72 74 73 71 68 69 67 65 70 77 81 79 76 71 63 59 63 67 67 62 59 65 65 62 63 62 62 63 63 60 60 59 60 59 59 59 59 57 57 58 60 59 59 59 59 57 57 57 57 57 57 57 57 58 57 57 57 57 58 59 60 58 59 60 61 61 61 61 60 63 61 59 59 61 62 62 61 60 61 62 63 63 63 63 62 61 61 61 60 60 59 59 58 
77 77 78 78 78 77 76 76 81 81 80 80 79 79 79 79 77 77 77 76 76 76 75 75 75 75 74 73 72 72 71 71 70 70 69 69 69 69 69 69 69 69 69 69 68 67 65 66 66 64 64 63 63 64 65 66 65 65 64 63 62 62 61 61 58 59 65 73 86 103 121 133 130 131 132 134 137 141 142 142 139 139 139 136 135 135 137 139 143 145 148 150 152 151 150 150 151 153 155 154 152 151 149 150 150 144 136 132 130 25 21 113 18 39 94 88 27 77 71 66 124 156 55 51 53 17 58 124 156 74 85 7 21 116 129 27 133 130 25 21 122 45 95 156 80 124 156 21 55 48 25 21 40 6 30 39 38 27 45 48 55 124 156 53 45 95 58 58 6 30 63 64 67 69 72 74 73 74 72 67 63 58 51 46 41 42 42 43 46 48 50 52 43 42 39 38 38 37 35 32 33 34 34 34 32 31 30 29 35 34 34 34 36 39 41 42 50 52 55 59 61 63 63 63 64 60 56 53 51 47 41 36 32 31 30 27 26 23 23 23 29 31 36 41 45 53 60 65 74 76 81 87 18 39 99 98 100 103 107 111 113 114 114 114 115 116 117 116 115 112 109 107 107 106 104 101 98 95 93 92 93 92 90 88 87 87 87 88 87 86 86 85 85 85 85 85 85 83 81 79 77 75 75 74 73 72 70 71 73 72 69 66 66 65 68 74 82 85 83 79 74 64 59 63 67 65 61 59 63 63 63 62 62 62 62 62 60 60 60 60 60 60 59 59 58 58 59 60 59 59 58 58 57 57 57 57 57 57 57 57 58 58 57 57 58 58 59 60 58 59 60 60 61 61 61 61 64 62 60 60 61 62 61 60 60 61 62 63 63 63 63 62 62 61 61 61 60 60 59 59 
78 78 79 80 80 80 79 79 82 82 81 81 81 80 80 80 79 79 79 79 78 78 77 77 76 76 75 75 74 73 73 72 69 69 69 69 69 70 70 70 69 69 70 69 68 67 66 66 65 64 63 63 64 64 65 65 64 64 63 63 62 61 60 60 58 61 65 69 77 92 112 127 125 126 128 130 134 136 138 139 139 140 139 137 136 135 136 137 142 143 146 149 150 150 150 150 151 152 154 154 151 7 21 148 150 145 17 134 131 7 4 116 33 71 99 94 90 75 80 76 156 190 52 46 30 158 47 156 190 53 60 7 20 86 99 107 75 93 7 4 83 41 55 190 51 156 190 4 39 17 7 4 33 44 33 33 33 36 75 43 44 156 190 41 41 55 45 43 44 40 39 41 18 39 49 46 18 39 46 25 21 44 39 49 63 30 31 18 39 35 36 17 35 34 32 32 32 32 32 30 31 31 31 30 29 28 27 26 28 27 25 23 23 24 24 25 28 29 29 30 32 33 32 34 33 31 29 27 26 23 19 16 22 21 20 19 20 20 22 24 32 36 41 46 52 59 66 71 79 81 85 92 33 71 103 103 102 104 108 111 113 114 113 113 114 114 115 114 112 110 107 106 104 103 102 99 97 94 93 92 90 89 86 84 85 86 87 88 85 84 84 84 83 83 82 82 81 79 77 75 74 72 72 71 71 70 69 70 70 68 65 62 63 65 71 80 88 91 88 84 78 67 62 63 65 63 58 56 59 60 62 62 63 62 61 60 60 60 60 60 60 60 59 59 59 59 60 60 59 58 57 57 57 57 57 57 57 57 57 57 58 58 57 57 58 59 60 60 59 59 59 60 60 61 61 61 64 62 60 60 61 61 60 59 61 61 62 63 63 63 63 63 62 62 62 61 61 61 61 60 
79 80 81 82 82 83 82 82 83 83 83 82 82 81 81 81 81 81 81 80 80 79 79 79 78 77 77 76 75 75 74 74 69 69 69 70 70 70 70 71 70 70 70 70 69 68 66 66 64 64 63 62 63 64 65 65 63 63 63 62 61 60 60 59 58 62 64 64 68 80 100 115 120 123 126 129 130 132 135 137 138 139 139 138 136 134 134 135 141 142 145 147 149 150 151 150 151 152 45 95 151 7 20 147 150 30 158 138 135 132 127 124 121 119 115 112 108 104 100 98 88 81 71 64 60 61 64 65 69 68 67 64 60 59 60 63 65 64 60 58 56 52 46 42 37 35 34 34 30 158 38 37 6 30 40 39 25 21 42 43 41 42 44 47 49 47 43 39 43 42 41 44 48 49 47 44 33 71 36 7 4 38 35 11 11 33 34 33 71 33 30 158 30 29 6 30 30 31 45 95 32 31 31 31 31 31 30 28 26 26 27 27 27 25 25 24 27 25 24 24 24 25 26 26 23 22 21 20 21 22 24 24 26 27 29 32 34 37 40 41 47 51 57 62 69 74 80 84 87 39 90 94 100 103 104 103 105 107 110 113 114 115 114 113 112 112 112 111 110 107 105 104 103 102 101 99 97 95 94 92 90 88 85 83 83 85 86 87 83 83 83 83 82 81 80 80 77 76 75 73 71 69 68 67 66 66 66 66 66 65 62 60 59 63 72 84 93 95 92 89 80 72 65 65 64 59 56 55 56 58 61 62 62 62 60 58 59 59 59 59 59 59 58 58 60 60 60 60 59 57 56 56 57 57 57 57 57 57 57 57 59 58 58 58 58 59 60 61 59 59 59 59 60 60 61 62 65 63 60 60 61 61 60 59 61 62 63 63 64 64 63 63 63 63 63 62 62 62 62 62 
81 81 82 83 84 84 84 84 83 83 83 83 82 82 81 81 82 81 81 81 80 80 80 79 79 78 78 77 76 75 75 74 70 70 70 70 70 70 70 70 69 69 69 69 68 67 66 66 64 64 62 62 62 62 63 64 63 62 62 61 60 59 59 59 60 61 62 60 60 69 86 99 114 119 124 128 129 129 131 132 134 136 139 137 136 133 132 133 140 141 18 39 147 148 45 95 149 151 41 55 150 147 146 147 149 147 144 142 141 139 136 135 136 135 134 130 128 125 123 123 117 111 103 97 96 98 100 102 111 107 101 89 77 65 56 52 50 48 44 42 42 42 42 41 40 40 40 42 46 48 50 50 44 57 57 58 7 4 62 45 95 66 73 6 30 75 62 53 44 44 46 47 45 43 40 37 37 32 30 34 35 33 31 33 28 30 32 34 36 37 37 37 36 35 44 35 37 39 41 55 43 41 45 95 42 25 21 38 34 36 17 40 39 36 33 31 27 25 23 22 22 23 24 24 24 23 23 24 26 32 39 43 50 52 56 60 64 66 66 67 71 76 82 87 91 95 98 102 98 71 98 101 104 106 106 105 108 110 113 115 116 115 114 113 110 110 109 108 106 105 103 102 103 101 100 98 97 96 94 93 91 89 85 84 83 83 83 84 82 82 82 82 81 80 78 77 75 73 71 69 68 66 66 65 64 64 64 63 62 60 59 59 57 62 73 85 93 96 94 92 85 76 69 68 66 60 56 56 56 57 60 62 62 61 59 57 59 59 59 59 59 59 58 58 60 60 60 60 59 57 56 56 57 57 57 57 57 57 57 57 59 59 58 58 59 59 60 61 60 60 59 59 59 60 61 62 64 62 60 60 61 61 61 59 61 62 63 64 64 64 64 63 63 63 63 64 64 64 64 64 
82 83 84 85 85 85 84 84 83 83 83 82 82 81 81 81 81 80 80 80 79 79 79 78 79 78 78 77 76 75 75 75 72 72 71 71 70 70 70 69 68 68 68 68 67 66 65 65 63 64 62 62 62 62 63 63 62 62 61 60 59 59 58 58 58 60 60 58 57 62 72 81 102 109 119 125 126 126 127 128 129 132 136 136 17 132 131 49 63 137 33 71 143 145 147 148 146 149 151 151 149 147 147 147 149 148 147 146 145 144 143 142 144 146 146 144 141 139 139 140 138 135 131 129 130 132 133 133 141 139 135 126 113 100 88 81 73 69 64 61 59 60 64 65 69 69 70 74 77 80 80 80 79 79 81 85 89 91 92 41 55 98 105 44 115 106 88 44 0 61 27 60 55 49 44 17 41 36 36 41 42 39 41 46 51 53 55 56 58 60 61 61 64 62 61 62 66 68 70 70 70 68 41 55 70 7 4 65 57 30 158 61 58 49 63 45 18 39 36 35 27 35 36 37 7 21 41 43 49 63 63 25 21 82 85 18 39 90 90 90 96 100 106 110 111 112 113 114 110 109 108 109 111 112 111 110 110 112 114 116 116 115 113 111 109 108 107 105 104 102 101 100 101 99 98 96 95 92 91 90 88 86 85 84 83 81 81 80 79 79 80 80 79 77 74 73 71 49 63 67 64 63 62 62 61 61 60 57 56 56 58 60 58 64 74 84 91 95 95 96 89 83 77 77 73 65 60 60 59 59 60 62 61 60 58 57 58 58 58 58 58 58 57 57 59 59 60 60 59 58 57 57 57 57 57 57 57 57 57 57 59 59 59 59 59 60 61 61 61 60 59 58 58 60 62 63 63 61 59 59 61 62 62 61 62 62 63 64 65 65 64 64 64 64 64 65 65 65 65 66 
84 84 85 85 85 84 83 83 82 82 82 82 81 81 81 80 79 79 79 78 78 77 77 77 78 78 77 77 76 75 75 74 74 73 73 71 70 69 68 68 67 67 67 67 66 65 64 64 63 62 62 61 61 62 62 63 61 61 60 60 59 58 57 57 57 59 58 57 56 58 62 65 84 95 109 119 45 95 123 124 158 128 133 30 158 132 130 11 11 133 134 135 138 141 143 144 144 146 149 150 148 147 147 147 149 150 149 148 146 145 145 145 146 149 150 150 148 147 149 151 152 151 150 151 152 153 152 150 151 151 150 147 141 132 122 116 119 117 112 107 105 105 108 111 104 105 107 111 113 115 113 110 102 103 104 109 114 118 116 115 115 115 119 127 130 125 111 101 100 99 98 75 95 88 30 158 56 53 25 21 66 18 39 82 101 101 17 101 102 7 21 105 98 124 156 96 99 103 105 106 100 96 95 97 100 101 98 95 83 84 83 81 77 11 11 67 33 71 68 68 69 75 71 71 7 20 79 82 11 11 94 7 4 97 96 33 71 103 105 108 114 117 121 123 122 120 118 119 115 114 112 113 114 115 115 114 110 111 113 114 114 112 110 109 107 106 105 103 101 100 99 99 95 95 93 91 88 87 85 85 82 81 82 82 82 81 79 78 76 76 76 76 75 73 70 68 67 11 11 63 61 59 58 58 58 57 56 54 51 53 58 63 64 68 76 83 89 94 98 99 95 91 88 87 82 74 67 67 62 63 61 61 60 59 58 58 58 58 58 58 58 58 57 57 58 58 59 60 59 59 58 58 57 57 57 57 57 57 57 57 60 59 59 59 59 60 61 62 61 60 59 58 58 60 62 63 61 59 58 59 61 63 63 63 62 63 64 64 65 65 64 64 64 65 65 65 66 66 67 67 
85 85 85 85 85 83 82 82 82 82 81 81 81 80 80 80 78 78 77 77 77 76 76 76 78 78 77 76 76 75 74 74 75 74 73 72 70 69 68 67 66 66 66 66 65 64 63 62 63 62 62 61 61 62 62 63 61 61 60 59 59 58 57 57 57 58 57 58 6 30 56 56 17 55 101 113 41 55 120 122 122 127 131 134 133 131 129 129 128 129 130 132 134 137 139 141 142 145 148 149 148 147 147 147 150 151 151 149 146 144 144 144 147 150 153 152 151 150 153 156 160 160 161 163 164 163 160 156 153 153 153 151 148 142 135 130 124 124 121 119 116 116 118 120 119 120 122 125 127 126 122 119 120 119 121 124 129 130 128 125 122 120 120 126 133 134 128 120 112 108 106 109 113 108 95 83 70 69 7 4 88 33 71 113 109 30 158 111 112 7 20 121 116 156 190 114 117 121 123 124 112 109 107 109 113 114 111 107 96 94 91 88 84 82 81 81 78 78 79 80 81 82 83 84 82 86 90 91 91 91 94 96 98 96 94 95 99 107 114 120 121 125 128 127 126 121 119 117 115 113 112 113 114 116 116 116 109 110 112 113 112 110 108 106 107 106 104 102 100 99 99 98 92 91 89 87 84 82 80 79 76 78 79 81 81 80 79 77 72 73 74 74 72 70 67 66 66 64 62 60 58 56 55 55 57 57 55 50 48 52 58 63 68 72 77 83 88 93 99 102 99 96 94 94 89 79 72 70 65 65 63 61 59 58 58 58 58 58 58 58 58 58 57 57 57 57 58 60 59 59 59 59 57 57 57 57 57 57 57 57 60 59 59 59 59 60 61 62 61 60 58 57 58 60 62 63 60 58 58 59 62 64 64 64 62 63 64 65 65 65 65 64 65 65 65 66 66 67 67 68 
84 84 85 86 86 84 83 81 80 80 81 81 81 80 79 78 77 77 78 78 78 78 79 79 78 77 75 74 73 72 72 72 72 73 73 72 71 70 69 68 65 66 67 67 66 64 63 61 64 64 64 63 63 64 64 64 61 61 60 60 59 58 57 57 58 18 39 7 21 57 56 30 158 73 81 96 111 121 123 122 119 123 126 126 129 134 132 127 129 128 130 132 135 138 138 138 140 142 145 146 145 144 145 145 148 149 149 148 147 147 150 153 152 154 155 156 156 159 163 165 165 165 166 167 169 169 169 166 163 160 158 156 152 149 143 139 138 137 135 133 134 136 139 141 139 136 137 141 140 135 135 135 135 137 139 140 139 138 139 140 141 135 132 131 131 128 130 133 131 126 123 129 136 134 121 108 94 94 105 123 129 124 121 126 128 126 124 124 126 132 139 143 134 131 127 129 133 134 131 128 133 130 125 121 118 118 118 119 111 108 102 98 97 98 99 99 102 100 96 93 94 95 95 95 95 98 101 99 95 92 91 91 97 98 100 102 105 110 117 121 124 127 130 129 126 122 120 121 116 116 117 118 117 116 116 116 113 112 111 112 112 112 110 107 104 103 101 98 96 93 91 89 87 85 81 78 77 78 79 80 80 79 78 79 80 79 76 73 70 70 69 69 67 65 63 61 57 57 56 6 30 54 52 51 55 53 50 49 52 57 64 67 71 69 69 74 83 91 93 93 95 95 96 96 94 90 81 75 72 67 62 60 58 57 56 55 58 57 56 57 59 60 58 57 58 58 58 59 58 59 59 59 60 59 59 59 59 59 59 59 62 62 62 62 62 62 62 62 58 58 59 59 60 61 62 62 61 61 61 61 61 62 64 64 64 64 64 65 65 66 66 66 64 64 65 66 67 67 67 67 
82 83 84 84 84 83 81 80 79 80 80 80 80 79 78 77 78 78 78 77 77 76 76 75 76 76 75 74 74 74 74 75 72 72 72 72 71 70 69 68 65 66 67 67 66 64 63 61 64 64 63 63 63 64 63 64 62 62 61 61 60 59 58 58 57 33 71 7 20 57 56 56 62 63 69 81 97 111 119 121 118 122 124 125 126 131 130 126 129 127 128 130 134 136 137 136 138 140 143 144 144 143 143 144 146 147 148 148 147 148 151 153 158 159 161 161 162 164 167 171 171 170 170 171 173 173 171 170 164 162 159 156 154 149 144 140 140 141 141 142 143 144 145 146 147 144 144 145 143 137 134 135 139 140 141 141 140 140 142 143 143 139 137 137 135 133 136 141 148 139 131 133 140 143 135 127 113 113 122 138 144 138 136 140 138 137 135 134 134 136 139 141 137 133 131 132 135 137 136 133 130 128 123 120 118 118 120 121 119 115 111 109 108 109 110 110 109 106 101 99 99 100 98 98 102 102 101 98 93 90 91 92 101 104 107 109 111 115 121 125 127 129 130 129 126 122 121 120 120 120 121 121 121 120 119 119 118 116 114 113 112 110 106 103 102 101 99 97 94 92 90 88 87 85 82 80 79 79 79 80 79 78 76 77 77 76 73 71 66 66 66 65 63 61 59 58 56 56 56 44 55 54 53 52 53 52 50 51 54 61 67 71 72 69 69 73 83 90 93 94 93 94 96 99 99 94 88 83 76 73 66 61 60 59 58 56 57 56 55 57 59 60 58 57 58 58 58 59 58 59 59 59 59 59 59 59 59 58 58 58 62 62 62 62 62 62 62 62 60 60 61 61 62 63 64 64 64 63 63 62 63 63 64 65 64 64 65 65 65 66 66 66 65 65 66 67 67 67 66 66 
80 81 82 83 82 81 79 78 79 79 80 80 79 78 77 77 79 78 77 76 75 74 73 72 73 72 72 72 72 73 74 75 71 72 72 71 71 69 68 67 65 66 67 67 66 64 63 61 64 64 63 62 61 62 62 63 63 62 62 61 60 60 59 59 58 57 58 58 58 57 56 56 55 54 57 65 80 97 111 118 115 120 121 120 123 126 128 125 126 126 126 129 131 134 134 133 135 138 141 142 141 141 141 142 145 146 148 148 148 149 152 155 161 163 165 165 166 166 170 172 174 173 172 173 174 174 172 170 166 163 160 158 156 151 146 141 142 144 146 149 150 150 150 149 152 149 148 149 146 140 136 138 140 141 140 139 136 137 139 141 139 138 139 140 139 137 142 150 159 148 135 133 139 144 144 141 127 127 134 146 150 145 143 147 149 149 148 146 145 143 141 141 140 135 131 130 133 135 134 132 129 127 124 122 121 122 125 126 122 118 116 115 115 115 115 114 114 111 106 103 101 101 100 99 104 102 99 95 92 93 96 100 105 108 112 116 117 120 124 127 128 130 131 129 126 122 120 120 121 122 121 122 123 122 120 120 122 119 116 113 110 106 101 98 98 98 96 94 92 90 88 86 85 85 84 82 81 80 79 79 76 75 73 73 73 72 69 66 60 60 60 59 58 57 56 56 55 55 54 53 52 51 51 51 49 49 50 53 58 64 72 75 73 70 69 73 82 89 93 94 90 92 95 99 101 101 97 94 85 80 71 67 64 62 60 59 56 55 55 56 59 60 59 58 58 58 58 59 58 59 59 59 58 58 58 58 58 58 58 58 61 61 61 61 61 61 61 61 62 62 63 64 65 65 66 66 66 66 65 64 64 64 64 65 64 65 65 65 66 66 66 66 66 67 67 67 67 66 66 65 
79 80 81 82 81 80 78 77 79 79 80 80 79 78 77 77 78 77 77 76 75 74 73 73 71 71 70 70 70 70 71 72 71 71 71 71 70 69 67 67 65 66 67 67 66 64 63 61 64 63 63 62 60 61 61 61 61 61 61 60 60 59 59 60 56 58 59 58 58 57 56 56 54 53 54 58 68 83 98 108 108 114 117 117 118 124 126 125 123 122 122 124 129 130 130 129 132 135 139 140 140 139 140 140 144 146 148 149 150 152 154 157 160 162 163 165 164 166 168 171 172 170 170 170 171 171 168 166 165 163 160 158 156 151 146 142 142 143 144 146 147 148 148 148 148 146 146 150 149 144 143 144 143 141 140 137 134 133 135 137 135 134 137 139 137 136 142 150 155 145 135 133 137 142 143 141 134 133 138 145 147 143 141 144 149 150 151 152 150 146 142 140 139 134 129 127 126 127 127 126 128 126 124 123 122 124 127 128 122 119 117 115 115 114 114 112 111 107 103 100 99 99 98 97 95 95 94 95 97 101 105 110 109 112 116 119 121 123 125 128 128 130 130 129 124 121 120 120 119 119 120 120 120 119 117 117 120 118 114 110 107 103 98 95 95 94 93 91 89 87 86 85 83 83 84 83 82 80 78 76 74 72 70 69 69 67 66 63 57 57 58 58 57 57 56 55 56 54 53 51 50 49 48 48 46 47 50 55 62 68 75 78 74 71 69 73 82 90 94 95 90 90 93 97 102 102 99 97 92 88 80 73 69 67 64 62 56 55 54 56 59 60 59 58 58 58 58 59 58 59 59 59 57 57 57 58 58 58 58 58 61 61 61 61 61 61 61 61 63 63 63 64 65 66 66 67 67 66 65 64 63 63 63 64 65 65 65 66 66 66 67 67 68 68 68 68 67 66 65 64 
78 79 80 80 80 79 77 76 78 78 79 79 79 78 77 76 75 75 75 75 75 75 75 75 74 73 72 71 70 70 70 70 70 70 70 70 69 68 66 66 65 66 67 67 66 64 63 61 63 62 61 60 60 59 61 61 60 60 60 59 58 58 57 58 57 57 58 59 59 58 57 56 55 55 56 56 59 69 81 91 99 106 112 112 115 120 124 125 119 119 119 121 124 126 126 125 130 133 136 138 138 137 138 139 143 146 149 150 151 153 155 157 158 160 163 163 164 163 165 167 169 167 166 167 168 167 165 163 162 160 158 157 155 151 146 143 140 139 137 136 137 139 141 142 140 139 142 148 150 149 149 152 151 150 147 144 139 139 139 141 138 138 138 139 135 131 133 139 141 136 132 132 135 137 135 133 135 134 136 139 140 137 138 140 139 141 143 145 145 143 141 139 135 131 127 124 124 125 127 127 127 125 122 120 120 121 124 125 121 119 116 113 112 111 108 106 100 96 92 90 90 90 90 90 88 89 93 98 103 109 112 113 114 117 120 124 123 125 127 129 127 128 128 126 123 120 119 120 117 118 118 118 117 117 114 115 115 112 109 106 104 100 96 93 92 92 90 89 87 85 84 83 80 81 82 82 81 78 75 73 71 70 66 65 66 65 62 60 58 58 59 59 59 58 57 55 56 55 52 49 48 46 46 45 45 47 52 58 65 71 75 78 73 71 70 74 83 92 95 97 88 90 91 94 98 99 98 96 99 94 87 82 77 73 69 66 57 56 56 57 60 61 60 58 58 58 58 59 58 59 59 59 57 57 57 58 58 59 59 59 61 61 61 61 61 61 61 61 62 62 62 63 64 65 65 66 66 65 64 63 62 62 63 63 65 65 66 66 66 67 67 67 68 68 68 68 68 67 66 65 
76 76 77 78 78 76 75 73 75 76 76 76 76 75 74 73 72 72 73 73 74 74 74 74 77 76 75 73 72 71 71 71 69 69 69 69 68 67 66 65 65 66 67 67 66 64 63 61 62 62 61 59 59 58 60 60 58 58 58 58 57 57 57 58 56 57 58 59 59 59 58 57 53 55 56 55 53 56 67 75 92 101 109 110 113 117 121 121 117 116 115 118 120 122 122 121 126 129 133 135 135 134 135 136 141 144 148 150 150 151 153 155 157 159 162 163 163 163 164 165 167 165 165 166 167 167 165 164 159 159 157 157 155 153 148 145 141 138 136 133 131 132 134 136 134 132 137 143 146 145 146 149 155 154 153 151 148 147 148 150 147 142 139 138 133 128 126 127 122 122 123 125 127 126 122 119 130 128 127 126 126 126 126 127 124 126 129 132 133 133 132 132 128 127 125 124 125 126 129 130 129 126 122 118 116 116 118 119 111 106 102 99 97 96 94 92 84 82 80 79 81 84 85 85 88 91 95 102 108 111 111 111 117 120 123 124 124 124 127 129 125 125 125 123 121 119 119 120 118 118 119 118 118 116 114 115 110 108 105 103 101 98 95 92 92 91 89 87 85 83 81 80 78 78 78 78 77 75 72 70 70 67 64 63 63 63 60 59 59 59 60 59 58 57 55 54 55 53 50 48 46 45 44 44 47 51 56 63 69 73 75 76 72 70 71 77 87 95 98 99 90 91 91 93 97 99 98 97 104 100 95 90 85 80 73 69 60 59 58 59 61 62 60 58 58 58 58 59 58 59 59 59 57 58 58 59 59 60 61 61 62 62 62 62 62 62 62 62 61 61 62 62 63 64 65 65 65 64 63 63 62 63 63 64 66 66 66 66 67 67 67 68 67 68 68 69 68 68 67 66 
72 73 74 74 74 73 71 70 71 71 72 72 71 71 70 69 71 71 71 70 70 70 70 70 74 73 72 71 70 70 71 71 25 21 69 68 68 66 65 64 65 66 67 67 66 64 63 61 62 61 60 59 59 59 59 59 59 59 59 59 58 58 58 59 56 57 58 59 59 59 59 57 50 54 55 52 48 52 63 72 89 99 109 110 110 114 115 115 114 113 113 115 117 119 119 118 123 125 128 130 130 130 131 133 138 141 145 147 147 147 149 150 155 157 161 161 161 160 161 162 163 162 162 163 165 166 164 162 159 158 157 157 157 155 152 149 144 142 140 137 134 132 131 131 129 127 129 133 134 130 130 131 139 141 143 143 143 143 145 147 147 139 133 133 133 128 123 121 113 114 116 117 117 116 114 113 120 118 115 112 111 113 114 114 115 115 116 117 118 120 121 121 119 118 118 118 117 116 117 119 119 115 110 105 102 99 100 100 89 86 80 77 76 76 76 75 73 71 72 73 78 82 85 86 92 93 96 103 109 112 111 110 116 117 118 118 118 120 122 125 123 122 123 122 119 118 119 121 118 118 118 118 117 116 113 114 109 106 104 102 101 98 95 92 92 91 89 87 84 81 80 78 75 75 75 74 73 71 70 69 67 65 62 61 60 61 60 59 58 58 58 57 55 53 51 50 52 50 48 46 45 45 46 47 53 56 62 68 72 75 75 75 69 69 73 80 91 99 100 100 93 93 93 95 99 101 102 101 106 104 100 97 92 85 77 72 63 62 60 61 62 62 60 58 58 58 58 59 58 59 59 59 58 58 59 60 61 62 62 63 63 63 63 63 63 63 63 63 61 61 62 63 64 64 65 65 65 64 64 64 64 65 66 66 66 66 66 67 67 67 68 68 66 67 68 69 69 69 68 68 
69 70 71 71 71 70 68 67 68 68 68 69 68 67 66 66 71 70 69 68 67 66 65 65 68 67 67 67 67 68 69 69 7 4 68 68 67 66 65 64 65 66 67 67 66 64 63 61 63 61 61 60 59 58 58 58 60 60 60 60 59 59 59 60 56 56 58 59 58 58 59 58 50 54 55 51 47 51 64 75 88 100 109 111 109 110 110 109 113 112 112 113 116 118 117 116 118 122 125 127 127 127 128 130 136 139 142 144 144 144 145 146 152 154 157 158 158 157 158 159 159 158 159 160 162 163 162 161 159 158 158 158 159 158 155 152 147 147 145 142 138 134 131 128 126 123 122 124 121 115 111 112 119 122 126 129 131 132 134 136 140 130 126 129 132 130 124 122 116 116 115 114 114 115 117 118 117 115 111 106 105 107 110 110 111 110 109 108 108 110 111 112 113 112 112 109 105 102 100 100 100 97 91 84 79 76 75 76 77 73 68 64 64 64 65 65 68 67 68 70 77 82 86 88 93 93 95 102 109 113 114 113 112 112 112 111 111 113 117 120 119 120 120 120 118 117 119 121 116 116 116 116 115 114 112 111 110 107 105 102 101 98 94 90 92 91 88 85 83 80 78 77 74 73 72 71 69 69 68 68 65 64 61 59 60 61 60 60 56 56 55 54 52 50 48 47 48 48 46 44 44 46 48 50 57 61 67 72 75 76 76 75 68 69 73 83 93 102 102 102 96 96 95 97 102 105 106 106 107 105 103 101 96 88 79 73 65 63 61 62 63 62 61 59 58 58 57 58 58 59 59 59 58 59 60 61 62 63 63 64 64 64 64 64 64 64 64 64 62 62 63 64 64 65 66 66 65 65 65 65 66 67 68 68 66 66 66 67 67 68 68 68 66 66 67 69 69 69 69 69 
66 66 67 68 68 68 67 67 68 67 66 65 64 64 64 64 66 66 67 67 67 66 65 65 67 67 67 67 67 124 156 67 63 63 64 65 66 67 67 68 66 66 65 65 64 63 62 62 62 61 60 59 59 58 58 57 59 58 57 56 56 57 57 57 56 55 55 56 57 57 55 53 56 54 50 48 51 62 79 91 107 112 114 111 107 107 109 111 116 111 110 113 115 114 112 112 114 116 120 122 123 125 128 130 137 139 143 144 144 143 144 145 149 150 153 155 157 157 157 156 159 160 160 162 162 161 160 160 157 157 157 157 158 156 153 150 147 147 145 143 139 134 130 129 126 124 121 119 116 112 106 102 103 100 97 96 98 101 103 103 99 99 102 106 106 103 98 93 95 93 90 87 84 83 83 82 81 80 78 75 73 73 75 78 80 81 83 85 85 83 82 79 76 77 78 78 75 71 70 68 65 64 63 61 61 61 61 61 62 64 65 66 65 65 66 68 73 73 73 76 80 87 92 96 99 98 98 99 102 104 105 105 110 110 111 112 113 115 117 118 117 117 117 115 113 114 116 119 117 116 115 113 112 111 111 111 106 103 99 96 96 95 93 91 87 85 83 82 82 80 77 74 72 71 70 69 66 65 65 65 64 62 60 59 59 57 57 57 56 56 55 53 51 48 46 45 45 45 44 45 46 50 52 54 60 62 66 69 74 75 76 76 73 72 74 83 95 103 105 104 98 99 100 104 109 112 109 108 109 108 107 103 97 91 84 81 74 69 63 59 58 60 59 59 62 61 61 60 60 59 59 58 59 60 60 61 61 62 63 63 65 65 65 65 65 65 65 65 66 66 66 67 67 68 68 68 67 67 67 67 67 67 67 67 69 70 70 71 71 70 70 69 66 67 69 71 72 72 71 70 
66 66 67 67 67 66 66 65 68 68 66 65 64 64 64 63 65 66 66 66 66 65 64 63 64 64 64 64 64 156 190 64 61 62 62 63 64 65 66 66 65 65 64 63 63 62 61 61 60 60 60 59 59 59 59 59 56 56 55 55 55 56 57 57 56 55 54 55 57 57 55 53 58 55 50 49 56 72 92 103 117 120 119 113 107 104 107 109 112 111 110 113 115 114 113 112 113 115 118 120 122 124 128 131 136 138 141 143 142 142 143 144 148 149 152 154 156 156 155 155 157 158 160 161 162 161 161 160 157 156 157 158 157 157 153 150 148 147 146 143 140 136 132 131 128 125 120 116 114 112 108 105 96 92 88 84 83 82 80 80 79 78 75 74 72 68 63 60 54 53 52 50 48 47 46 46 44 45 44 43 41 41 43 45 45 46 48 51 54 54 55 54 56 56 58 58 56 53 52 51 53 54 54 55 57 59 61 62 60 63 66 68 69 69 71 71 74 74 76 79 83 88 94 97 99 101 102 102 102 102 103 103 108 110 113 115 116 116 114 113 113 114 115 114 113 114 116 118 117 116 114 111 109 107 106 106 103 102 100 99 98 96 92 88 83 82 80 80 80 78 75 73 71 70 69 67 66 66 65 64 63 62 60 59 58 57 58 57 55 55 54 52 50 48 46 44 45 45 45 45 47 49 53 55 60 62 65 69 73 74 76 76 75 75 77 85 95 102 103 101 97 98 99 103 108 111 110 107 110 109 108 104 99 92 87 83 78 72 66 62 61 60 59 59 61 61 60 60 60 60 60 60 60 60 61 61 61 62 63 63 65 65 65 65 65 65 65 65 66 66 66 67 67 68 68 68 67 67 67 67 67 67 67 67 69 70 70 71 71 70 70 69 67 68 70 71 72 72 72 71 
64 64 64 63 62 62 61 61 66 65 64 63 62 61 62 62 64 64 64 64 64 63 62 61 61 61 61 61 61 61 61 61 58 59 59 60 61 61 62 62 63 62 62 61 61 60 59 59 59 59 59 59 59 60 60 60 55 55 55 55 56 57 58 59 54 54 53 54 56 57 56 54 59 54 50 53 66 87 107 118 126 127 122 113 102 95 95 99 105 109 110 114 115 115 115 113 114 115 117 118 120 122 127 130 133 136 139 140 139 140 141 142 146 148 150 153 154 155 154 154 156 156 158 159 160 159 159 159 7 21 155 157 157 156 152 149 148 147 146 143 140 138 134 132 131 126 121 116 113 110 108 107 99 94 88 84 79 76 71 69 69 64 58 52 47 43 40 37 33 32 32 31 30 29 28 28 27 28 29 29 28 29 31 32 32 33 35 38 40 42 44 44 45 45 47 48 50 49 48 47 51 52 54 56 59 62 65 66 59 63 67 71 73 74 75 76 76 77 80 83 87 91 95 97 98 101 104 104 101 99 100 102 105 108 113 115 116 114 111 108 109 111 113 114 114 114 114 116 115 113 112 108 105 103 102 101 100 99 99 99 99 95 89 85 81 78 77 76 77 75 72 70 70 69 68 67 67 66 64 63 63 62 61 59 58 57 57 57 54 53 52 50 48 46 45 44 46 45 45 46 48 51 54 55 61 63 65 68 71 73 75 77 78 78 81 89 97 102 101 99 96 97 99 102 106 108 108 106 110 110 108 106 101 96 90 87 83 78 72 68 65 63 60 58 61 61 60 60 60 61 62 62 61 61 61 62 62 62 64 64 65 65 65 65 65 65 65 65 66 66 66 66 67 67 67 67 67 67 67 67 67 67 67 67 69 70 70 71 71 70 70 69 68 69 70 72 72 73 72 72 
64 64 63 61 60 60 59 59 64 63 62 61 60 60 60 60 61 62 62 62 61 60 59 58 57 57 57 57 57 57 57 57 57 57 57 58 58 59 59 60 60 60 59 59 58 58 58 57 57 57 58 58 59 60 60 60 55 55 55 56 57 58 60 61 54 53 52 54 56 57 56 54 55 52 52 62 80 101 118 126 125 123 117 106 88 75 73 77 92 100 109 112 113 117 118 117 117 118 118 118 118 120 123 127 130 133 135 136 136 137 139 140 143 145 148 151 153 153 153 152 154 154 156 156 157 157 157 157 7 20 154 156 157 155 152 149 146 145 144 142 139 137 135 133 132 127 122 116 112 109 105 102 100 97 91 88 83 79 74 71 67 61 54 47 43 38 35 32 32 33 34 35 34 33 32 31 34 35 37 38 37 38 40 41 44 44 44 44 45 46 47 48 47 48 49 50 54 55 54 53 57 57 57 58 61 62 64 65 60 65 69 73 74 75 75 76 77 78 81 84 88 90 93 94 94 99 105 105 100 97 99 102 104 107 110 112 112 110 107 105 109 112 115 116 114 114 114 114 113 111 110 107 104 102 100 100 98 97 96 95 94 91 87 83 80 78 76 75 74 73 69 66 69 67 67 67 66 64 63 63 63 62 61 59 57 56 56 56 52 51 49 47 46 44 43 43 46 46 47 48 49 52 55 56 62 63 65 67 70 72 75 76 77 80 85 93 101 104 103 101 95 97 98 100 103 104 105 104 109 109 108 106 103 98 94 91 88 84 79 75 71 67 62 59 61 61 60 60 61 62 63 64 62 62 62 63 63 63 64 64 65 65 65 65 65 65 65 65 66 66 66 66 66 66 66 66 66 66 67 67 67 67 68 68 69 70 70 71 71 70 70 69 69 69 70 71 72 73 73 73 
64 63 62 60 59 59 59 59 62 61 60 59 58 57 58 58 59 59 59 59 58 57 55 54 54 54 54 54 54 54 54 54 57 57 57 57 58 58 58 58 58 58 57 57 57 57 56 56 56 56 57 57 58 58 59 59 53 53 53 54 55 56 58 58 54 53 52 54 56 56 55 53 49 52 60 76 94 110 121 123 117 114 105 91 69 49 45 50 78 92 104 109 112 117 120 120 121 121 121 119 118 118 120 122 127 129 131 132 132 133 136 138 141 143 146 149 151 152 151 151 152 152 153 153 154 154 155 155 152 152 152 49 63 154 151 148 145 144 142 139 136 134 133 132 127 124 120 115 111 104 97 92 91 88 83 79 76 71 67 63 58 54 50 46 43 40 37 34 33 34 35 37 37 37 37 36 39 42 45 46 46 46 47 48 51 50 49 48 48 48 48 49 50 50 50 53 57 58 58 57 56 56 56 57 58 59 61 61 65 68 72 75 75 74 75 75 78 79 81 84 87 89 91 92 91 96 103 104 100 98 100 104 105 105 105 105 105 105 106 106 113 114 116 116 114 113 111 111 111 111 108 106 104 102 102 101 97 94 91 90 89 87 84 82 82 80 77 75 74 71 67 64 66 67 67 66 65 64 63 63 63 62 60 58 56 55 54 54 50 49 47 45 43 42 42 42 46 46 48 50 51 54 56 58 62 63 65 68 69 72 74 75 74 79 88 97 105 108 107 105 96 97 98 98 99 100 101 101 106 106 107 106 104 100 96 94 92 89 87 82 78 73 66 62 63 62 61 60 61 63 65 66 64 64 64 63 63 63 64 64 65 65 65 65 65 65 65 65 66 66 66 66 66 66 66 66 66 66 66 67 67 68 68 68 69 70 70 71 71 70 70 69 69 69 70 70 71 72 73 73 
63 61 60 58 57 58 59 59 60 59 58 57 56 56 56 56 57 57 57 56 55 54 52 51 54 54 54 54 54 54 54 54 57 57 57 57 57 57 57 57 56 56 56 56 56 56 56 56 55 55 55 56 56 56 56 56 51 50 50 50 51 52 53 54 55 54 52 53 55 55 53 51 49 58 74 92 108 117 120 118 113 105 93 76 48 26 23 31 64 83 100 105 108 114 119 119 121 123 123 122 120 118 118 119 124 126 127 128 129 130 134 136 138 140 143 146 149 150 149 149 150 150 151 150 151 152 153 153 150 150 151 11 11 154 150 147 146 144 141 138 135 132 131 130 123 121 117 114 109 103 95 90 89 84 78 73 69 65 61 58 55 53 51 50 50 47 44 41 42 43 45 45 46 47 47 47 51 54 58 59 58 56 56 56 57 57 57 58 58 58 58 59 58 55 55 58 61 64 63 61 58 58 60 61 63 65 67 69 74 75 77 78 77 77 78 79 82 82 83 85 87 89 91 93 93 97 102 103 102 102 103 106 106 104 101 100 100 103 106 108 115 116 117 116 114 111 111 111 111 110 108 106 104 102 102 101 96 93 90 86 85 85 83 82 82 80 77 75 72 71 67 63 65 66 66 64 64 63 63 63 62 60 58 56 54 53 52 52 48 47 44 42 41 40 42 42 46 47 27 50 53 56 58 59 60 62 66 69 71 72 72 72 69 76 88 99 107 109 108 107 97 98 98 97 95 95 96 98 102 103 104 104 103 100 97 95 95 94 91 90 85 79 72 66 65 64 62 61 61 63 65 66 65 65 65 64 64 64 64 64 65 65 65 65 65 65 65 65 66 66 66 66 65 65 65 65 65 65 66 67 67 68 69 69 69 70 70 71 71 70 70 69 69 68 68 69 69 71 72 73 
59 58 56 55 55 56 57 59 58 58 56 55 54 54 54 54 55 55 55 54 53 51 50 49 54 54 54 54 54 54 54 54 55 55 55 55 55 55 55 55 56 56 56 56 56 56 56 56 55 54 54 54 54 54 53 53 52 52 51 51 51 52 53 53 56 55 53 54 54 54 51 49 56 69 90 108 118 120 119 115 117 103 85 62 34 12 12 27 57 78 98 102 103 110 115 114 119 121 124 124 123 121 120 120 122 123 125 125 126 128 132 135 137 138 142 145 148 149 148 148 149 148 149 148 149 150 151 152 149 149 150 152 154 153 25 21 148 146 142 138 135 132 131 130 125 122 118 116 113 109 104 101 98 93 87 81 77 74 71 68 68 65 64 63 63 63 61 58 62 62 62 63 64 66 67 68 71 73 77 78 76 73 71 71 71 72 74 76 77 77 76 76 70 68 66 68 72 74 73 70 70 70 71 73 75 77 80 81 83 84 84 84 83 84 85 89 88 88 87 88 89 92 95 97 102 102 103 104 105 106 107 107 105 103 101 99 100 104 108 110 115 115 115 114 112 111 112 114 112 110 108 105 102 100 99 98 95 93 90 89 88 86 83 80 78 76 74 72 73 71 68 64 65 64 64 63 63 63 63 62 60 59 57 54 53 50 50 49 47 45 42 40 39 39 41 42 46 47 50 75 55 57 59 60 58 61 66 70 72 72 71 69 65 73 86 99 105 107 105 104 99 99 99 96 92 91 92 95 97 98 101 102 101 99 97 95 94 94 95 94 91 85 77 71 67 66 63 61 61 62 64 66 66 66 65 65 65 64 65 65 65 65 65 65 65 65 65 65 66 66 66 65 65 64 64 64 65 65 66 67 67 68 69 69 69 70 70 71 71 70 70 69 68 67 67 67 68 69 71 72 
57 55 53 52 52 54 56 58 58 57 56 54 54 53 53 54 54 54 54 53 52 50 48 47 54 54 54 54 54 54 54 54 54 54 54 54 54 54 54 54 56 56 56 56 56 56 56 56 54 54 54 53 52 52 51 51 56 56 55 54 54 54 55 55 57 56 54 54 54 53 50 48 63 79 100 117 124 122 119 116 124 105 82 57 26 5 10 28 52 77 96 100 100 107 111 109 115 119 124 126 125 123 122 122 120 122 123 124 124 127 131 134 136 137 141 144 147 148 148 148 148 148 148 147 147 149 150 151 148 148 149 151 153 153 7 4 150 148 144 139 135 133 131 131 131 127 122 119 118 117 115 114 108 102 97 90 88 86 86 84 82 79 75 74 73 74 74 73 74 74 73 73 73 75 77 79 80 83 87 88 85 82 79 77 81 82 85 86 88 86 84 83 81 77 73 75 79 81 79 76 78 78 79 80 81 83 85 86 89 90 90 89 88 90 93 97 94 92 92 91 92 95 99 102 109 107 106 106 107 108 108 107 104 103 102 101 103 106 109 111 112 113 112 111 110 110 113 115 113 111 108 104 100 97 95 94 93 93 92 92 91 88 83 79 73 72 71 71 72 72 69 66 65 63 63 63 63 63 62 62 59 58 56 53 51 49 48 48 46 44 41 39 39 39 40 41 46 47 50 52 55 58 59 60 57 61 67 71 73 72 70 68 62 72 85 97 103 104 102 100 100 100 100 96 91 89 90 93 94 96 99 100 100 99 97 95 95 95 95 96 94 88 80 74 69 67 64 61 61 62 64 66 67 66 66 65 65 64 65 65 65 65 65 65 65 65 65 65 66 66 66 65 65 64 64 64 65 65 66 67 67 68 69 69 69 70 70 71 71 70 70 69 67 67 66 66 67 68 70 71 
55 54 54 53 53 52 52 52 53 53 52 51 51 52 53 53 48 49 50 51 50 47 45 43 49 49 49 49 49 49 49 49 50 51 51 52 52 53 53 53 49 50 52 54 55 55 54 54 53 54 54 55 55 54 54 53 53 54 55 56 55 54 53 52 58 57 58 60 58 52 52 55 74 96 117 123 123 125 124 117 116 94 62 34 15 5 9 16 50 76 100 106 107 108 103 95 111 120 128 129 125 121 124 128 121 121 121 121 123 125 131 135 138 140 143 144 144 143 143 144 142 143 146 148 149 150 149 149 152 152 152 151 151 150 150 149 146 147 17 148 147 145 143 142 137 137 136 134 131 129 124 123 118 117 119 117 116 112 108 106 109 105 101 97 95 97 99 101 107 106 106 108 111 113 112 111 116 118 120 117 112 107 107 107 107 105 102 100 99 100 102 102 101 101 100 99 98 97 97 97 101 101 101 101 102 102 102 102 100 99 98 97 97 98 99 100 100 100 100 100 102 103 105 106 110 111 111 112 112 111 110 109 108 108 108 108 108 108 109 109 110 111 112 112 111 109 108 106 108 107 104 100 95 93 94 96 94 93 91 88 85 83 81 80 78 76 73 73 73 72 69 66 72 70 68 66 65 62 58 55 50 50 50 50 50 48 44 41 37 37 38 38 38 39 42 45 46 49 17 54 54 53 54 55 60 63 65 67 73 77 74 68 59 66 82 97 107 108 103 99 94 98 101 100 95 91 89 91 93 94 96 96 96 95 93 92 92 92 94 97 96 94 89 85 83 73 62 58 62 65 63 60 65 66 67 68 68 67 67 66 66 65 65 64 64 63 63 62 61 62 63 64 65 65 65 65 68 69 69 70 70 69 69 68 69 69 69 69 69 69 70 70 72 72 71 71 71 71 71 71 
52 52 52 51 51 50 50 50 52 52 51 51 51 51 52 52 49 50 51 51 50 48 46 44 50 50 50 50 50 50 50 50 52 52 52 52 53 53 53 53 49 51 52 54 55 55 54 54 53 54 54 55 55 54 54 53 53 54 55 55 55 55 53 53 54 55 58 59 54 51 56 65 84 103 120 122 121 124 125 120 105 82 50 25 11 4 7 15 43 70 95 106 109 111 108 100 110 113 119 124 127 128 128 128 127 127 127 126 125 126 129 132 136 138 141 142 142 141 141 142 141 142 145 147 149 150 150 150 153 152 152 152 151 151 150 150 148 30 158 149 148 146 144 143 140 141 141 139 137 133 131 129 125 125 126 126 125 123 121 119 119 118 115 114 116 121 125 128 133 131 129 129 131 132 131 130 133 133 134 130 124 120 119 119 122 120 116 113 111 111 112 112 113 112 111 110 109 108 108 108 110 109 108 108 108 108 108 108 105 104 103 102 102 103 104 105 108 107 107 107 108 109 111 111 111 112 113 114 114 114 113 112 114 114 114 114 114 114 114 114 115 115 115 114 113 111 108 107 108 107 105 100 96 94 95 97 95 94 92 88 86 84 82 79 76 74 72 71 72 72 69 67 70 67 63 61 60 58 55 54 50 48 47 47 47 45 42 39 35 36 36 36 37 38 41 43 47 30 158 53 53 54 55 56 61 64 66 68 73 77 74 67 59 66 81 96 106 108 104 100 95 99 101 100 94 89 89 89 91 92 93 93 92 91 89 88 87 88 90 94 97 96 93 89 85 75 64 60 62 65 63 60 64 65 66 67 67 66 66 65 65 65 64 64 64 64 63 63 63 64 64 65 65 65 65 64 67 68 69 70 70 70 69 69 69 69 69 69 69 69 68 68 71 71 70 70 70 70 70 70 
50 50 49 49 49 48 48 48 51 50 50 49 49 50 50 51 50 51 52 52 51 50 48 46 51 51 51 51 51 51 51 51 54 54 54 54 53 53 53 53 50 51 52 54 54 54 54 54 53 54 54 55 55 54 54 53 53 54 55 55 55 55 54 54 50 54 59 57 50 48 62 79 105 119 128 123 118 120 123 119 91 65 34 15 6 5 7 11 34 61 88 104 112 117 115 108 109 107 107 114 124 131 130 127 127 128 129 129 128 128 129 131 134 136 139 139 139 138 139 140 140 141 143 146 148 150 151 151 153 153 153 152 152 152 152 151 152 152 153 152 151 7 21 145 145 146 146 145 144 142 140 25 21 136 136 136 137 137 138 138 137 136 135 137 140 146 152 154 159 156 152 150 150 150 149 149 148 149 147 144 140 137 137 138 140 138 136 133 130 129 129 129 129 128 127 126 126 124 123 123 120 119 118 116 115 114 114 115 113 112 112 111 111 112 112 124 156 116 116 115 115 116 117 117 114 116 116 118 118 118 118 118 120 120 120 120 120 120 120 120 120 119 118 116 114 111 109 108 108 107 105 101 98 96 97 98 96 95 92 90 87 84 82 81 73 73 72 72 72 72 70 68 68 65 60 56 55 54 53 52 50 47 44 44 44 42 40 38 33 34 35 34 35 36 49 63 47 50 52 53 53 54 55 57 62 64 67 69 74 77 73 65 59 65 80 94 105 108 105 102 98 101 103 101 95 89 88 88 89 89 90 89 87 85 83 82 80 82 86 92 98 100 98 97 89 80 69 63 64 65 63 61 62 63 65 66 66 65 64 63 63 63 64 64 64 64 65 65 65 66 66 66 66 65 65 64 66 67 68 69 70 70 70 69 70 70 69 69 68 67 67 66 69 69 69 69 69 69 69 69 
49 49 49 48 48 48 48 48 50 49 49 48 48 49 49 50 51 52 52 52 52 51 49 48 52 52 52 52 52 52 52 52 56 55 55 54 54 53 53 53 51 52 52 53 54 54 54 54 53 54 54 55 55 54 54 53 54 54 54 55 55 55 55 55 49 56 60 56 47 48 70 93 128 135 135 123 115 117 119 115 79 53 23 8 4 5 7 8 26 49 77 100 113 121 120 116 114 108 103 106 115 123 125 123 122 125 128 130 131 131 132 134 133 135 137 137 136 136 138 139 139 141 143 145 148 150 152 153 154 154 154 153 153 153 153 153 155 156 156 156 155 7 20 149 149 151 151 151 151 150 150 7 4 149 147 147 147 149 151 153 152 152 152 153 156 159 162 165 169 166 162 159 159 159 158 157 156 154 153 151 151 152 153 155 153 152 150 148 146 145 144 144 144 143 142 141 139 138 138 137 131 130 127 125 123 123 123 123 122 122 122 121 121 122 122 156 190 123 122 121 121 121 121 122 119 120 121 122 123 123 124 124 122 122 122 121 121 121 121 121 120 119 118 115 113 111 110 109 108 108 106 103 99 97 98 98 97 95 93 91 88 84 81 81 74 74 73 74 75 75 72 70 68 64 57 53 52 52 52 52 50 46 43 40 40 40 40 39 33 34 35 34 35 37 11 11 47 50 52 53 53 54 57 59 64 67 69 71 75 77 72 63 58 64 78 93 104 108 105 103 101 104 106 102 97 91 90 90 89 88 88 86 83 81 79 78 75 77 83 90 99 104 105 104 95 86 75 68 66 65 64 61 61 62 64 65 65 64 63 62 62 63 63 64 64 65 65 66 67 67 67 67 67 66 64 64 66 66 67 69 69 70 69 69 70 70 69 68 67 66 65 65 67 67 68 68 68 68 69 69 
49 49 49 49 49 49 50 50 49 49 48 48 48 48 49 49 52 52 52 52 52 51 51 50 52 52 52 52 52 52 52 52 56 55 55 54 54 53 53 53 53 52 52 53 53 53 54 54 53 54 54 55 55 54 54 53 54 54 54 55 55 56 56 57 53 58 60 56 48 54 79 104 139 140 133 120 115 118 118 111 71 46 19 7 7 7 7 6 19 39 65 90 109 121 124 121 122 116 109 105 106 110 116 118 122 126 130 133 134 134 135 137 134 135 137 137 136 136 138 140 141 142 143 146 148 151 153 154 154 154 154 155 155 155 155 155 157 158 159 159 158 157 156 153 27 154 155 155 156 158 159 159 160 159 156 155 155 156 158 160 163 163 162 162 164 7 21 167 169 167 164 163 164 165 165 164 162 160 158 157 159 160 161 162 158 158 158 158 157 156 155 154 153 152 151 149 148 146 145 144 140 140 137 134 133 132 133 134 130 130 130 130 49 63 130 130 130 130 128 127 126 126 126 127 124 124 125 126 127 128 129 129 124 124 123 123 122 122 122 121 117 116 114 113 111 110 110 109 108 108 107 105 100 98 98 98 97 95 93 91 86 83 81 81 78 77 76 77 78 76 72 69 65 60 53 48 47 47 48 48 47 44 41 37 38 39 39 39 35 36 37 27 37 38 42 44 48 50 51 53 53 55 58 60 66 69 71 73 76 77 70 61 55 63 78 92 104 108 106 102 101 106 108 105 100 94 93 94 91 90 89 86 83 80 78 77 75 77 83 92 100 107 109 110 101 92 81 72 68 66 64 62 61 62 63 64 64 63 63 62 62 63 63 64 64 65 65 66 67 67 67 67 67 66 64 64 66 66 67 68 69 69 69 68 69 69 68 67 66 65 64 64 66 67 67 67 68 68 69 69 
49 49 50 50 50 51 51 51 50 49 49 48 48 49 49 50 51 51 51 51 51 51 51 51 52 52 52 52 52 52 52 52 54 54 54 54 53 53 53 53 54 53 53 52 52 53 54 54 53 54 54 55 55 54 54 53 55 54 54 54 55 56 58 58 57 58 57 55 54 64 91 116 137 134 124 114 115 121 116 103 63 41 18 9 9 8 6 5 16 29 51 78 102 116 123 124 129 126 120 111 105 104 108 112 126 129 133 135 135 135 136 137 137 138 139 139 138 139 141 143 144 144 145 147 149 152 154 155 155 155 155 156 156 156 156 157 159 160 162 163 163 162 161 160 158 75 158 159 161 163 165 166 168 166 164 162 161 162 164 165 166 167 17 168 169 7 20 170 170 168 168 169 172 173 172 171 170 167 165 163 163 163 162 161 159 160 161 162 162 161 159 158 156 155 154 152 150 148 147 146 148 146 142 141 141 142 143 145 136 137 137 138 11 11 137 136 136 136 134 133 133 133 133 133 129 129 129 129 129 131 132 133 129 129 128 127 127 126 125 125 117 115 114 112 110 110 110 110 110 110 109 107 102 98 98 97 97 95 94 90 86 82 81 79 79 78 77 77 76 73 68 64 58 54 47 43 42 43 42 42 43 40 36 35 36 37 38 38 37 38 38 38 75 39 42 45 48 50 51 52 53 55 59 62 68 72 74 74 77 77 69 59 52 61 77 93 106 109 106 101 99 104 107 105 102 97 97 98 96 94 92 89 86 84 82 82 79 82 87 95 103 109 112 112 106 98 86 76 70 66 64 63 61 62 64 65 65 64 63 62 63 63 64 64 64 64 65 65 65 66 66 66 66 65 65 64 67 67 68 68 68 68 67 66 68 67 67 66 65 65 64 64 66 66 67 68 68 69 70 70 
49 49 49 50 50 51 51 51 50 50 49 49 49 49 50 50 51 50 50 50 50 50 51 51 51 51 51 51 51 51 51 51 52 52 52 52 53 53 53 53 55 54 53 52 52 52 53 54 53 54 54 55 55 54 54 53 55 55 54 54 55 57 58 59 59 55 53 55 62 78 103 126 135 127 114 107 113 118 107 87 52 34 16 9 9 8 4 4 15 23 41 66 92 110 120 124 131 131 127 121 113 108 106 106 123 126 129 131 132 134 136 138 140 141 142 141 141 142 144 147 147 147 147 148 150 152 155 156 155 156 156 156 157 157 158 158 160 161 163 165 167 167 166 165 163 163 163 45 95 168 18 39 173 172 170 169 169 169 7 21 171 30 158 173 171 170 169 168 169 170 171 174 177 177 175 173 170 168 167 167 167 166 162 158 160 161 164 165 164 162 160 158 156 155 154 152 150 148 146 145 145 144 142 142 142 145 147 149 140 27 142 143 143 142 141 140 137 137 136 135 135 135 136 136 133 132 131 131 131 132 133 134 133 133 132 131 131 130 129 129 122 120 117 114 112 110 110 110 112 112 111 108 103 98 97 96 96 95 93 89 85 81 79 78 77 75 74 73 70 65 59 54 55 50 45 42 40 40 39 39 35 34 31 32 34 35 35 36 37 38 39 38 39 39 43 46 49 50 51 52 53 56 60 63 70 73 75 76 77 76 68 58 49 59 77 95 108 110 105 100 95 100 104 104 101 97 99 100 101 100 97 93 91 89 88 88 86 88 92 99 105 112 113 113 110 103 90 79 71 66 64 63 62 63 64 65 65 64 64 63 65 65 64 64 64 64 63 63 63 64 64 65 65 65 65 64 68 68 69 68 68 66 65 64 66 66 65 65 65 65 65 65 66 67 67 68 69 70 71 71 
48 48 48 49 49 50 50 51 51 50 50 49 49 50 50 51 50 50 49 49 49 50 51 51 51 51 51 51 51 51 51 51 50 51 51 52 52 53 53 53 55 54 53 51 51 52 53 54 54 54 54 55 55 54 54 54 55 55 54 54 55 57 59 61 59 53 49 54 67 87 112 132 136 125 110 103 110 113 96 71 44 29 14 9 9 7 3 4 14 21 35 59 86 105 118 123 131 131 131 128 124 115 108 102 114 117 121 125 128 132 136 140 143 144 144 143 143 144 147 148 148 148 148 148 150 152 155 156 156 156 156 157 157 157 157 158 161 162 164 166 168 168 168 167 167 167 167 41 55 171 33 71 175 174 124 156 173 174 7 20 176 176 174 173 172 169 165 163 168 169 171 174 177 177 174 171 165 164 163 165 168 167 164 160 163 165 166 167 165 162 159 156 155 154 153 151 149 147 145 144 141 140 139 138 140 143 146 149 142 143 75 145 145 144 143 142 135 134 134 133 133 134 135 135 135 134 133 132 132 132 133 134 135 134 134 133 132 131 130 130 127 125 121 118 115 112 111 110 113 114 113 109 103 99 97 96 96 95 92 88 84 81 79 76 74 73 71 68 65 59 52 47 55 51 46 43 42 41 40 39 31 30 29 30 32 34 34 33 36 37 38 39 38 40 42 45 49 50 51 52 53 56 60 63 72 74 76 76 78 76 67 57 48 58 77 97 109 111 105 99 91 97 102 102 99 97 99 101 105 102 99 96 94 92 92 92 91 92 95 101 107 111 113 113 113 105 93 81 72 67 64 63 62 63 66 67 67 65 63 62 65 64 65 64 64 63 63 62 61 62 63 64 65 65 65 65 69 69 69 68 67 66 64 63 64 64 65 65 65 65 65 65 67 67 68 69 70 71 71 72 
49 49 51 52 52 52 52 52 54 54 53 53 54 55 56 56 54 53 52 51 50 49 50 50 51 50 51 53 55 56 55 54 50 49 48 50 52 53 53 52 55 55 55 54 54 53 53 53 52 53 55 56 57 57 55 54 53 53 54 55 58 60 58 56 53 53 51 58 80 110 127 132 134 115 100 99 105 98 73 48 19 13 9 8 5 2 4 10 8 17 32 52 74 93 108 117 122 122 123 127 130 126 116 108 101 103 108 117 125 133 136 136 142 143 147 150 149 145 147 153 153 152 151 150 150 153 154 156 153 154 157 159 160 162 161 161 165 166 166 166 168 170 172 174 170 170 170 171 172 173 25 27 177 176 156 190 176 178 180 182 181 179 176 172 169 166 165 165 168 170 174 177 178 177 175 174 169 167 165 163 161 162 162 162 167 168 168 167 166 164 161 160 159 158 155 152 149 146 145 144 142 142 142 143 144 148 25 21 149 149 149 149 147 147 144 144 143 142 141 141 140 141 141 142 138 138 138 138 137 136 134 133 139 138 137 135 133 131 130 129 122 121 118 116 115 115 114 114 110 111 111 109 105 100 98 97 95 91 88 84 83 82 80 79 74 68 63 60 59 56 49 43 43 41 40 37 34 33 33 33 29 29 30 30 32 34 36 37 36 37 39 39 38 38 40 43 47 47 48 50 54 58 62 64 76 76 78 79 79 75 66 60 51 61 79 99 112 114 108 101 95 96 99 101 100 97 95 95 98 102 103 102 103 105 102 96 96 98 101 105 110 113 112 111 114 108 96 83 72 67 64 65 62 61 61 62 62 63 64 64 65 64 63 63 62 62 62 62 59 60 62 63 64 64 63 62 64 64 64 64 64 64 64 64 63 63 64 65 65 66 67 67 67 67 67 68 68 69 69 70 
49 50 50 51 51 51 51 50 53 52 52 52 52 53 54 55 54 53 52 51 50 49 50 50 52 51 50 51 54 55 54 53 51 50 49 51 53 54 54 53 55 55 55 54 54 54 53 53 51 52 55 56 56 56 55 54 53 53 54 56 59 59 56 54 51 50 51 65 93 123 136 137 120 111 106 109 111 95 64 36 18 12 7 6 3 1 2 7 6 15 29 46 67 87 103 113 122 123 127 130 132 129 122 118 109 108 107 109 115 123 131 136 139 141 146 152 152 148 149 153 152 151 149 148 149 151 153 154 155 156 158 160 161 161 161 161 164 164 165 166 167 169 171 173 171 171 171 171 172 173 7 4 75 179 177 177 178 180 181 184 181 179 177 174 172 170 168 168 172 174 176 177 176 174 171 170 169 169 167 164 163 163 163 164 166 167 167 167 167 165 164 163 160 158 156 153 150 149 148 147 147 146 146 146 147 149 7 4 150 150 150 150 149 147 146 145 146 146 145 144 144 144 144 145 143 143 143 142 141 139 137 137 139 138 136 135 133 131 129 129 124 124 121 118 116 116 115 115 108 107 106 104 100 96 92 90 91 86 82 81 81 81 77 74 63 60 54 53 53 51 45 41 41 40 37 35 33 33 33 33 31 31 32 33 34 36 38 39 37 38 39 39 38 38 41 43 48 49 51 53 57 61 65 66 74 75 77 78 77 72 63 56 55 65 83 100 113 115 110 105 99 100 100 99 99 98 96 96 101 104 105 104 106 108 105 99 99 99 101 105 110 115 117 117 112 106 96 85 74 67 65 65 63 63 62 62 60 60 60 60 64 63 62 62 62 62 63 64 59 60 61 63 63 63 62 61 63 63 63 63 63 63 63 63 63 63 64 65 65 66 67 67 67 67 67 68 68 68 69 69 
49 50 50 50 50 49 49 48 50 50 50 50 50 51 52 52 54 53 52 51 50 49 50 50 54 52 50 50 51 53 53 53 53 52 51 53 55 56 56 55 55 55 55 55 54 54 54 53 51 52 55 55 56 56 55 54 53 53 53 56 58 58 55 53 52 51 55 78 112 139 144 136 110 111 114 118 112 89 56 30 16 10 6 5 3 1 2 4 5 11 23 38 58 79 96 106 119 123 129 130 131 129 127 126 121 116 110 105 105 112 122 131 140 140 143 148 149 148 150 155 153 152 151 150 150 152 153 155 158 159 160 161 161 161 161 161 163 163 164 165 166 168 170 171 172 171 171 171 172 173 175 175 181 27 180 180 180 182 183 185 180 179 179 178 176 175 173 172 173 174 176 176 175 173 170 169 170 170 168 165 164 164 164 165 165 165 166 166 166 166 165 165 159 158 156 154 152 151 151 151 152 151 45 95 150 152 154 155 152 152 152 152 151 150 149 148 149 148 147 146 146 146 146 146 147 147 146 145 143 141 139 137 138 137 136 135 133 132 131 130 127 126 124 121 119 117 116 116 114 111 107 105 104 100 94 89 82 76 71 72 75 75 69 64 53 50 47 46 47 46 42 38 37 36 35 33 33 32 33 33 34 34 34 34 35 37 38 39 37 38 39 39 38 39 41 43 48 50 53 57 62 65 68 69 72 73 76 78 75 69 59 52 59 69 89 104 115 115 112 107 103 104 103 101 99 98 97 99 102 106 107 107 109 112 109 103 101 100 100 102 108 115 121 123 116 110 101 91 80 74 68 67 66 65 63 61 60 59 58 58 62 62 61 61 61 63 64 65 59 60 61 62 62 62 61 61 63 63 63 63 63 63 63 63 63 63 64 65 65 66 67 67 66 66 67 67 67 68 68 68 
50 50 50 50 49 48 47 46 49 48 48 48 48 49 50 51 54 53 52 51 50 49 50 50 56 53 50 48 50 52 53 52 55 53 53 54 57 58 58 56 56 56 55 55 55 54 54 54 51 52 54 54 55 55 55 54 53 52 53 55 57 57 54 52 56 55 63 93 130 150 143 128 109 114 120 118 104 78 50 31 16 11 7 6 4 1 2 3 6 10 18 31 48 70 89 100 112 119 125 127 126 124 126 129 129 126 118 109 105 107 113 118 137 135 136 141 144 146 151 158 157 156 156 155 156 157 158 159 159 159 160 160 160 160 160 160 162 163 163 164 165 167 168 169 172 172 171 171 172 173 174 175 181 181 75 180 181 49 63 183 178 179 180 180 180 178 177 175 171 172 173 174 174 173 171 171 169 169 167 164 163 163 163 164 164 164 164 164 164 163 163 162 157 156 155 154 153 153 153 153 155 154 41 55 154 155 156 157 153 154 154 154 153 152 151 151 150 149 147 147 146 146 146 146 148 148 147 145 142 139 137 135 135 135 135 135 135 135 135 135 130 128 126 124 120 117 116 115 116 111 107 106 107 105 97 91 72 65 60 62 67 67 60 51 48 46 43 44 44 43 39 36 34 34 34 33 33 34 34 34 35 35 34 34 35 36 37 38 37 38 39 39 39 40 42 45 48 50 54 60 64 68 70 70 71 73 76 77 73 66 56 50 59 74 95 110 117 115 109 104 103 106 108 107 104 100 98 99 103 106 108 108 110 114 111 106 102 100 97 99 104 114 121 126 125 119 112 101 92 82 75 70 68 67 65 62 60 60 60 60 60 59 58 59 60 62 64 66 60 60 61 61 61 61 61 61 62 62 62 62 62 62 62 62 64 64 64 65 65 66 66 66 66 66 66 66 66 67 67 67 
50 50 50 50 49 48 47 46 48 48 48 47 48 49 50 50 54 53 52 51 50 49 50 50 56 53 50 49 50 52 53 53 56 55 54 56 58 59 59 58 56 56 56 55 55 55 54 54 51 52 53 53 54 55 54 54 52 52 52 54 56 56 53 51 56 57 72 107 143 155 140 121 104 114 123 118 96 66 40 25 18 13 9 8 6 2 2 4 8 9 14 25 42 62 81 92 108 116 123 126 124 122 125 129 133 131 127 120 115 110 107 107 117 120 126 138 146 148 151 154 157 157 157 157 158 159 160 161 158 158 158 158 158 158 159 159 163 163 163 163 164 166 167 168 172 171 171 171 171 172 173 173 178 178 178 178 178 11 11 179 176 177 179 180 180 179 178 177 172 173 173 173 172 171 169 168 168 166 164 162 161 160 161 161 164 163 162 161 160 158 158 157 156 155 154 153 153 153 153 45 95 154 154 155 156 157 159 159 154 154 154 155 154 154 153 152 151 151 149 148 148 148 148 148 148 148 146 144 142 138 136 134 133 133 134 135 136 137 138 138 130 129 126 123 120 116 113 112 108 103 99 99 100 98 91 85 69 62 56 57 62 61 52 43 45 44 41 41 39 37 34 32 33 33 34 34 35 35 35 35 34 34 33 33 34 35 36 37 38 39 40 40 41 42 45 47 47 50 54 59 64 68 70 70 71 74 77 76 71 63 54 49 58 77 101 117 119 112 104 98 101 108 113 114 110 104 99 98 103 106 108 108 110 113 111 106 101 97 94 96 101 110 118 123 128 124 117 109 100 91 79 73 67 65 62 61 59 59 60 61 59 58 56 57 58 61 64 66 62 61 61 61 61 61 61 61 62 62 62 62 62 62 62 62 64 64 65 65 65 65 66 66 66 66 66 66 66 65 65 65 
49 50 50 50 50 49 49 48 49 49 49 48 49 50 51 51 54 53 52 51 50 49 50 50 55 53 51 51 52 54 54 54 56 55 55 56 58 60 59 58 57 56 56 56 55 55 55 55 51 52 53 52 53 54 54 55 52 52 52 54 55 55 52 49 52 59 82 120 151 155 135 117 98 111 123 117 90 55 28 14 19 14 11 11 8 3 1 4 7 8 12 20 36 55 74 86 103 111 121 126 125 126 129 132 134 133 131 129 125 118 109 103 95 100 116 135 147 149 147 147 151 152 153 155 157 158 159 160 157 157 157 157 157 158 159 160 163 163 163 164 165 166 167 168 171 170 170 169 170 170 171 171 175 175 175 176 176 175 175 175 124 156 176 177 177 177 177 177 178 177 175 173 170 167 164 163 165 164 162 159 158 158 159 159 164 162 160 158 157 156 155 155 156 155 154 153 25 21 154 41 55 153 154 155 156 157 157 158 153 153 154 154 154 153 153 152 153 152 151 149 149 148 148 148 148 147 146 144 141 139 136 134 132 132 133 134 134 135 136 136 128 127 125 121 117 113 109 107 101 98 95 94 93 90 84 79 70 64 57 56 57 55 46 39 40 39 39 36 34 32 30 28 31 33 34 35 35 35 35 34 33 33 33 33 34 35 37 38 40 40 42 43 43 44 47 50 49 51 54 59 63 67 69 70 72 75 76 75 67 59 52 48 63 82 106 120 118 108 99 94 100 109 117 119 115 107 102 101 104 107 108 108 110 113 110 105 100 97 94 94 99 107 113 116 124 119 114 111 104 94 82 73 66 64 61 58 58 57 59 60 61 60 58 57 59 61 65 67 64 63 62 61 61 61 62 62 63 63 63 63 63 63 63 63 65 65 65 65 65 65 65 65 66 66 65 65 65 64 64 64 
49 50 50 51 51 51 51 50 51 51 50 50 50 51 52 53 54 53 52 51 50 49 50 50 54 53 52 53 55 57 56 55 56 55 55 56 58 60 59 58 57 57 56 56 56 55 55 55 52 51 52 51 52 53 54 55 52 51 52 53 55 54 51 48 54 66 94 132 154 149 127 111 103 114 122 111 82 49 26 15 20 14 12 11 9 3 1 4 5 5 7 16 31 49 67 79 97 104 115 124 128 131 133 135 134 130 128 130 132 128 118 110 94 95 105 121 134 138 139 141 145 147 149 151 154 156 157 158 157 157 157 157 158 160 162 163 165 164 164 164 165 166 168 168 170 169 169 168 168 168 169 169 173 174 174 175 174 174 172 173 156 190 173 173 173 174 175 175 179 177 175 172 169 165 163 161 164 163 161 159 157 157 158 158 162 161 159 157 156 156 157 157 158 157 156 155 7 4 155 155 153 153 153 154 154 153 153 153 151 151 152 153 153 152 152 152 151 150 148 147 145 145 144 144 144 143 142 141 138 136 134 132 132 132 132 131 130 130 129 129 125 124 122 119 114 109 104 101 100 99 96 93 88 82 77 74 71 65 57 53 51 47 40 35 36 36 35 34 32 29 27 27 30 31 33 34 34 33 33 124 156 33 33 34 36 37 39 40 40 43 45 45 45 47 50 52 53 54 55 58 62 66 69 71 73 74 75 70 64 55 49 47 70 89 110 120 115 104 96 94 101 110 119 120 115 109 105 106 106 109 110 109 111 113 110 104 100 98 96 97 100 105 108 109 115 111 110 109 107 100 88 78 71 69 64 61 58 58 59 60 66 64 61 59 61 63 67 69 67 66 64 63 63 63 64 64 64 64 64 64 64 64 64 64 65 65 65 65 65 65 65 65 65 65 65 64 64 64 63 63 
49 49 51 52 52 52 52 52 52 52 51 51 52 52 53 54 54 53 52 51 50 49 50 50 53 52 53 55 57 58 57 56 56 55 54 56 58 60 59 58 57 57 57 56 56 55 55 55 52 51 52 51 51 53 54 55 52 51 51 53 54 54 50 48 59 74 104 139 155 143 119 104 116 122 121 104 74 45 31 26 19 15 12 11 8 3 1 3 3 4 5 14 28 45 62 73 89 97 110 121 129 133 136 136 133 128 124 127 133 134 126 117 108 102 99 106 115 124 134 141 143 145 148 151 154 156 158 159 158 158 157 158 159 161 164 165 165 165 165 165 166 167 168 169 169 168 168 167 167 167 168 168 172 173 174 174 174 173 172 171 173 172 170 170 17 171 173 174 175 175 173 171 169 167 165 164 165 163 161 159 158 157 158 158 161 160 158 157 157 158 159 160 124 156 158 157 156 156 156 156 154 154 154 153 152 151 149 148 150 150 151 152 152 151 152 151 146 145 143 141 140 139 139 139 139 138 138 136 134 132 130 129 133 132 131 129 126 124 123 122 124 122 119 117 112 106 101 98 98 98 96 89 82 74 69 67 69 64 57 50 44 39 34 31 34 34 35 35 33 30 29 29 29 30 31 32 33 32 30 156 190 33 34 35 37 39 41 42 42 44 46 46 47 48 51 54 56 56 56 59 62 66 70 73 71 74 73 68 59 51 47 46 77 94 112 119 112 101 97 97 103 112 119 119 114 109 108 110 108 111 111 110 112 114 110 104 101 99 98 99 102 104 105 105 108 107 107 110 110 103 92 82 78 75 70 65 63 61 61 62 69 67 64 62 63 66 69 71 68 67 65 64 63 64 65 65 65 65 65 65 65 65 65 65 65 65 65 65 65 65 65 65 65 65 65 64 64 63 63 62 
51 51 51 51 51 51 51 51 51 51 51 51 51 51 51 51 56 55 53 51 50 51 53 54 55 55 55 55 55 55 55 55 55 55 55 55 55 55 55 55 56 56 56 56 56 56 56 56 49 50 51 51 53 55 56 56 53 56 53 54 59 52 45 52 60 91 127 144 140 127 116 111 125 123 109 81 53 36 23 13 16 17 16 12 6 2 1 2 8 5 5 13 26 42 56 65 86 95 106 116 122 127 134 138 134 133 131 129 129 129 130 131 124 118 110 104 105 113 126 136 139 149 154 150 149 155 160 160 160 157 155 155 158 162 166 168 167 164 162 162 165 167 167 167 168 167 165 164 163 164 165 166 171 171 170 171 172 171 169 166 177 174 172 30 158 174 173 7 21 168 168 124 156 163 161 160 163 164 164 163 160 158 158 159 156 157 158 159 160 45 95 156 156 190 158 159 159 159 158 157 154 153 152 151 149 148 147 146 147 146 145 144 143 143 145 145 141 141 141 140 138 137 136 137 134 133 132 132 133 132 130 127 130 131 132 128 121 115 112 112 119 121 120 116 109 102 97 94 88 86 83 80 75 69 60 56 50 48 44 41 39 38 35 33 32 32 32 31 31 31 31 33 32 32 32 32 32 32 31 31 34 35 36 37 39 40 41 41 45 47 48 48 49 49 51 53 57 58 59 63 68 70 70 68 70 69 67 60 48 40 44 53 86 100 116 118 107 96 91 93 97 106 114 117 113 109 109 111 112 113 113 113 111 109 107 105 100 99 97 97 99 102 105 108 104 104 106 108 108 106 101 97 86 83 77 72 68 67 64 62 65 63 61 62 66 69 69 69 67 65 65 64 64 65 65 66 64 64 64 64 64 65 67 67 67 67 67 66 66 65 65 65 65 65 66 66 66 65 64 64 
51 51 51 51 51 51 51 51 52 52 52 52 52 52 52 52 56 55 53 51 51 52 53 54 55 55 55 55 55 55 55 55 55 55 55 55 55 55 55 55 56 56 56 56 56 56 56 56 50 50 52 51 52 54 54 55 52 53 47 48 55 51 46 54 70 103 136 146 135 121 115 115 129 119 96 64 38 24 14 6 12 14 14 11 6 3 2 3 6 5 5 10 21 34 49 59 81 89 102 110 116 121 127 132 135 135 133 132 130 130 129 129 132 127 118 110 106 108 114 119 129 139 148 149 150 155 158 158 158 157 156 156 159 161 163 164 164 163 163 162 163 163 164 163 165 164 162 161 162 163 164 165 168 167 165 166 167 166 165 163 171 169 169 170 172 173 172 7 20 166 166 156 190 161 159 6 159 160 6 30 157 156 25 21 154 155 17 158 158 41 55 156 156 157 157 158 157 157 156 155 152 152 151 150 148 146 145 144 145 145 144 143 141 140 139 139 138 138 137 137 135 135 134 133 134 132 131 131 131 130 127 125 127 128 128 124 118 113 112 111 117 116 114 111 104 97 91 88 81 77 71 65 60 56 52 49 48 44 42 40 39 37 35 32 32 32 31 31 30 30 31 32 31 32 32 32 45 95 32 33 34 35 36 38 39 41 42 41 45 47 48 49 49 49 51 53 58 58 59 62 66 68 67 65 68 67 64 57 44 40 47 57 90 104 117 119 108 96 91 93 96 106 114 116 113 108 107 109 110 110 110 110 108 106 104 103 99 98 97 97 98 101 103 105 105 105 106 108 109 108 104 101 96 91 83 79 74 71 67 65 64 62 61 62 66 68 68 67 65 65 64 64 64 64 65 65 65 64 64 64 64 65 66 67 67 67 67 66 66 65 65 65 64 65 65 66 66 65 65 64 
52 52 52 52 52 52 52 52 53 53 53 53 53 53 53 53 56 55 53 51 51 52 53 54 54 54 54 54 54 54 54 54 54 54 54 54 54 54 54 54 56 56 56 56 56 56 56 56 51 51 52 51 51 52 52 52 50 50 43 42 51 49 47 57 85 118 147 147 127 114 116 123 130 110 77 43 22 14 10 5 9 10 11 10 7 4 4 3 3 4 4 6 13 25 40 51 74 83 94 103 109 115 120 123 135 135 135 134 133 131 130 129 136 133 127 118 110 106 106 106 117 128 140 144 147 151 152 152 154 154 154 154 155 157 158 159 161 162 163 162 160 159 158 159 160 159 158 158 159 161 162 164 165 163 161 161 162 163 162 161 164 164 165 167 170 171 170 168 163 163 163 162 160 158 156 155 155 157 44 157 155 153 7 4 153 30 158 157 158 157 156 156 156 156 156 156 156 154 153 153 150 150 149 148 146 144 142 141 142 142 142 141 139 136 134 132 132 132 132 132 131 130 129 128 132 130 129 128 127 126 122 120 122 122 121 117 113 110 110 110 111 110 107 101 96 89 83 79 73 66 57 50 46 45 44 43 42 40 38 37 37 36 33 32 31 31 30 30 29 29 30 31 30 31 31 32 41 55 34 34 35 36 37 38 40 42 43 43 45 47 49 49 49 50 52 53 59 58 59 61 65 66 66 63 66 63 57 49 41 40 50 65 96 107 119 119 108 97 92 93 98 107 114 116 112 107 105 106 106 107 106 106 105 103 102 101 99 98 98 98 99 101 103 104 107 107 107 108 110 110 108 106 104 99 91 86 80 74 69 66 64 62 62 63 66 67 65 64 64 64 63 63 63 63 64 64 65 65 64 64 64 65 66 67 67 67 67 66 66 65 65 65 64 64 65 66 66 65 65 64 
53 53 53 53 53 53 53 53 54 54 54 54 54 54 54 54 55 54 53 52 52 52 53 53 53 53 53 53 53 53 53 53 53 53 53 53 53 53 53 53 56 56 56 56 56 56 56 56 52 52 52 51 50 51 50 50 50 50 43 43 50 49 49 61 100 132 154 145 121 111 118 129 126 100 61 29 16 13 13 11 8 9 10 10 9 7 6 6 2 3 4 5 7 18 33 45 69 78 89 98 105 110 114 119 131 132 134 135 135 133 132 131 133 133 132 127 120 112 108 106 110 118 127 134 139 142 146 147 151 151 151 150 150 151 153 156 158 160 162 162 158 156 155 155 156 155 155 155 157 159 161 163 163 160 158 157 159 160 160 160 160 160 162 165 168 168 166 163 161 161 160 159 158 156 154 153 152 154 156 156 155 153 153 154 154 155 157 158 159 158 157 157 156 156 156 155 154 152 150 149 147 147 147 146 144 142 139 138 136 137 137 137 136 133 130 128 126 127 128 128 127 126 125 124 129 127 125 123 122 120 116 114 116 114 112 109 106 105 105 106 105 101 97 92 86 79 73 69 65 59 50 43 40 40 40 40 39 36 35 35 36 35 33 32 31 30 30 29 28 29 29 31 30 31 18 39 33 34 35 35 35 36 38 39 41 43 44 44 46 48 50 50 50 50 52 54 59 58 58 61 64 66 67 66 67 59 51 42 36 40 56 74 103 112 120 118 108 96 92 93 100 108 113 115 112 107 104 105 105 105 105 104 103 102 101 101 101 101 101 101 101 102 103 104 106 105 104 106 107 109 109 109 107 102 97 90 84 77 71 66 65 63 63 63 65 66 64 63 64 63 63 62 62 63 63 64 66 65 64 64 64 65 66 66 67 67 67 66 66 65 65 65 63 64 65 66 66 66 65 65 
53 53 53 53 53 53 53 53 54 54 54 54 54 54 54 54 55 54 53 53 52 52 52 52 53 53 53 53 53 53 53 53 53 53 53 53 53 53 53 53 55 55 55 55 55 55 55 55 51 51 52 50 49 50 49 49 49 53 49 47 53 51 54 70 112 140 156 142 120 115 123 131 116 87 49 22 14 12 12 11 8 9 11 12 13 13 11 10 5 5 5 5 6 16 29 41 65 74 86 95 102 107 113 118 126 127 130 132 134 135 134 133 131 134 136 134 128 121 115 112 108 109 113 120 126 133 141 146 151 150 148 145 144 146 152 157 155 157 158 158 157 155 154 153 152 152 152 152 154 156 159 160 161 159 156 156 158 159 160 159 158 158 159 162 164 163 161 158 158 158 157 156 155 153 151 150 150 153 156 157 155 154 153 154 156 157 158 159 159 158 157 156 155 155 154 153 151 149 147 145 144 145 145 144 142 138 135 133 129 130 132 133 132 130 127 125 122 123 125 125 125 124 122 121 124 122 119 118 116 114 110 107 107 105 102 100 99 99 99 98 97 93 86 80 75 70 64 60 54 50 46 42 40 39 38 37 36 35 34 35 36 36 33 32 31 30 30 29 29 30 30 31 30 31 33 71 34 35 35 36 36 37 39 41 43 44 45 46 47 49 51 52 52 52 54 56 58 58 58 60 64 67 68 68 67 56 44 35 33 41 63 82 109 114 118 113 104 94 91 94 101 107 110 111 110 107 106 106 106 106 105 104 104 103 103 103 103 104 104 105 104 105 104 104 105 103 102 101 104 106 106 107 108 104 99 94 89 83 76 71 67 65 64 63 64 64 64 62 64 63 63 62 62 63 63 64 66 66 65 64 64 64 65 66 67 67 67 66 66 65 65 65 63 64 65 66 66 66 66 66 
54 54 54 54 54 54 54 54 54 54 54 54 54 54 54 54 54 54 54 53 53 52 52 52 52 52 52 52 52 52 52 52 52 52 52 52 52 52 52 52 53 53 53 53 53 53 53 53 50 50 51 49 49 49 49 48 48 55 54 51 53 54 64 86 124 145 154 141 126 126 128 127 103 75 39 18 11 6 6 4 7 8 11 16 20 22 21 19 11 11 7 5 6 14 26 36 59 69 81 91 99 105 111 116 121 123 125 128 131 134 134 135 136 138 140 138 133 127 122 119 110 107 104 108 114 122 133 142 147 147 146 144 141 143 150 155 152 151 150 152 154 155 154 152 149 148 148 148 150 152 154 156 157 155 154 154 156 158 157 156 155 154 154 156 158 158 156 154 154 154 153 152 151 149 147 146 146 150 153 155 154 152 152 152 155 156 157 157 156 154 153 151 153 152 151 149 146 143 141 140 140 141 141 140 137 133 131 128 122 123 124 124 124 123 121 120 118 119 121 123 123 121 119 118 117 115 113 112 110 108 105 102 99 97 94 93 124 156 90 89 88 82 73 69 64 61 56 51 44 42 41 41 41 39 36 33 36 35 35 37 38 37 34 33 31 31 30 30 30 30 31 6 30 32 33 33 34 35 35 35 37 38 39 42 44 45 47 48 50 52 54 54 54 54 56 58 59 57 57 58 62 65 66 66 60 48 35 28 30 43 70 91 113 115 113 107 97 91 91 95 100 102 104 105 106 106 107 108 108 107 106 105 105 105 105 105 105 106 107 108 107 105 105 104 104 102 100 100 100 101 101 100 104 103 101 98 95 90 84 79 72 69 65 63 63 64 64 63 64 64 63 63 63 63 64 64 67 66 65 64 64 64 65 65 66 67 67 66 66 65 65 65 62 63 64 65 66 66 66 66 
55 55 55 55 55 55 55 55 53 53 53 53 53 53 53 53 54 54 54 54 53 53 52 51 51 51 51 51 51 51 51 51 51 51 51 51 51 51 51 51 51 51 51 51 51 51 51 51 49 49 50 48 48 49 49 49 46 56 55 50 50 55 75 107 137 150 152 141 136 138 132 120 89 62 30 13 7 4 4 5 4 6 11 19 28 33 32 31 21 17 10 5 6 12 22 28 52 62 75 86 95 101 108 113 120 120 122 124 127 130 132 134 140 141 141 139 134 129 127 126 124 113 105 103 104 108 116 126 133 137 140 140 138 138 142 146 148 143 140 144 151 155 153 149 145 144 144 144 145 147 149 150 151 150 150 151 153 154 153 151 148 147 147 149 152 153 153 152 149 149 149 148 146 144 142 141 141 145 148 150 150 148 147 147 151 151 152 151 149 147 145 143 148 148 146 144 141 137 135 134 134 135 135 135 132 128 124 121 118 117 117 116 115 114 113 112 114 116 118 120 120 118 116 114 111 109 107 106 106 104 100 97 92 90 88 87 156 190 83 80 78 71 63 56 55 53 48 44 37 37 37 39 40 39 36 34 37 37 37 39 40 39 35 33 32 32 31 45 95 31 32 44 32 34 34 34 34 34 34 34 37 38 40 42 44 46 48 49 51 54 56 56 56 56 58 59 60 58 56 56 58 60 60 60 49 37 24 20 27 47 75 99 115 114 109 101 91 88 91 96 96 96 96 97 100 103 107 110 109 108 106 105 105 105 106 107 105 106 108 109 107 105 103 101 104 102 100 99 100 99 96 94 96 96 97 97 97 94 89 85 76 72 66 63 63 64 65 65 65 65 64 64 64 64 65 65 67 66 65 64 64 64 64 65 66 67 67 66 66 65 65 65 62 63 64 65 66 67 67 66 
55 55 55 55 55 55 55 55 53 53 53 53 53 53 53 53 53 54 54 54 54 53 52 51 51 51 51 51 51 51 51 51 51 51 51 51 51 51 51 51 50 50 50 50 50 50 50 50 48 48 49 49 48 49 49 49 45 55 54 47 47 54 84 121 145 153 152 142 143 147 135 115 78 52 24 12 7 5 8 13 1 4 11 21 32 40 41 40 28 21 12 5 5 11 17 22 47 57 70 82 91 98 104 110 120 120 120 122 124 127 129 131 140 140 140 137 133 131 131 132 139 124 110 103 99 96 101 108 120 127 134 136 134 132 133 135 145 138 133 138 148 154 152 148 143 141 141 140 141 143 145 146 146 145 146 148 150 150 148 146 143 142 142 144 147 150 152 151 146 146 146 144 143 141 139 138 136 140 145 146 146 144 144 143 147 147 147 146 145 142 139 137 145 144 142 140 137 134 131 129 130 131 131 131 128 124 119 116 116 115 112 110 108 107 106 106 111 113 116 118 118 116 114 112 108 106 104 103 103 101 98 95 88 86 17 84 85 83 79 74 72 64 56 50 49 47 43 39 35 35 37 39 40 40 38 36 39 39 39 40 41 40 36 34 33 32 32 41 55 32 32 32 34 34 33 33 33 33 33 33 37 38 40 42 44 47 49 50 53 55 57 57 57 58 59 61 62 58 55 54 54 55 55 53 40 28 18 15 25 48 79 104 116 114 107 96 87 87 92 96 91 91 91 92 95 101 106 111 108 107 106 105 105 105 106 107 103 104 106 108 107 104 102 99 103 103 101 100 99 97 94 90 88 89 91 94 96 94 90 86 79 73 67 63 62 63 65 66 66 65 65 64 64 65 65 66 67 67 65 64 64 64 64 64 67 67 67 66 66 65 65 65 62 63 64 65 66 67 67 67 
53 53 53 53 53 53 53 53 52 52 52 52 52 52 52 52 52 52 52 52 52 52 52 52 52 51 50 49 49 49 49 50 50 50 50 49 49 48 48 48 48 48 48 49 49 50 50 50 48 49 51 53 53 51 50 49 51 48 52 40 60 78 120 139 158 149 156 153 158 153 119 102 57 42 21 7 4 5 6 7 4 9 13 19 29 38 39 35 26 17 10 5 4 6 13 22 40 49 62 72 82 90 99 104 117 119 122 122 122 125 127 129 136 137 139 140 139 137 135 134 131 128 126 121 114 102 90 82 98 102 112 124 133 135 135 132 138 135 134 135 139 143 146 147 137 137 138 139 141 143 145 146 148 144 141 141 142 143 141 139 140 138 137 139 142 147 148 149 146 146 146 144 142 140 137 135 132 136 140 142 141 141 140 142 144 144 141 139 136 136 135 135 138 138 137 134 130 126 125 125 130 128 125 124 122 120 116 113 110 108 106 103 101 99 98 98 99 101 105 108 109 108 106 104 101 99 98 97 97 94 90 86 82 30 158 81 76 69 64 58 53 52 49 44 40 37 37 38 38 38 38 39 39 40 40 39 39 40 41 42 41 39 36 35 27 33 31 30 31 31 32 32 34 33 35 35 35 36 36 37 42 43 44 47 49 52 53 55 61 61 61 62 61 61 60 59 58 58 58 56 52 48 46 45 22 20 18 22 35 61 90 111 118 111 99 87 80 81 89 96 95 88 83 85 93 101 105 105 103 103 103 103 102 102 104 105 101 101 102 104 106 106 103 101 99 98 96 96 95 96 93 91 85 84 83 87 93 96 92 88 82 78 71 65 62 63 66 68 66 64 62 62 63 64 63 62 68 66 65 63 63 65 65 67 71 69 68 68 67 66 65 65 64 63 62 62 63 64 66 67 
53 53 53 53 53 53 53 53 52 52 52 52 52 52 52 52 52 52 52 52 52 52 52 52 52 51 50 50 49 49 50 50 50 50 50 49 49 49 48 48 49 49 50 50 51 51 51 51 49 50 52 53 54 53 50 49 50 46 51 44 73 97 140 157 162 153 161 158 155 141 98 75 44 33 19 10 8 8 7 5 9 14 19 23 31 37 37 32 21 13 6 4 4 5 11 19 37 46 58 69 78 85 95 101 113 115 120 121 122 124 126 128 132 134 136 138 139 139 138 137 133 132 129 127 122 113 104 98 92 91 94 101 113 124 132 137 129 127 127 128 132 135 136 137 134 135 135 136 138 140 142 143 141 139 138 139 141 142 140 138 133 132 131 134 138 141 141 141 144 145 147 146 144 141 138 136 126 129 132 136 137 138 137 138 138 137 134 133 132 134 135 138 134 134 132 130 128 124 122 121 119 115 112 110 109 108 106 104 103 102 99 98 96 94 94 93 98 99 101 101 99 98 93 92 98 97 93 91 89 86 82 80 80 79 77 73 67 61 54 50 46 46 45 41 38 36 37 39 38 38 39 39 39 40 40 39 38 39 40 40 40 38 35 34 33 75 31 31 32 32 33 32 35 35 36 37 38 38 38 39 44 45 47 49 50 53 55 58 59 60 62 63 63 63 63 62 59 59 58 55 50 45 40 38 18 16 17 25 42 68 92 110 113 105 90 77 71 75 87 95 89 83 78 80 89 99 104 105 105 105 105 105 103 102 102 103 97 98 98 102 103 103 101 100 98 98 95 96 95 95 92 91 82 80 80 84 91 95 95 92 88 83 76 70 66 65 66 67 65 63 61 61 63 63 63 62 65 65 65 66 67 69 70 71 69 69 68 67 66 65 65 65 63 63 62 62 62 63 65 66 
53 53 53 53 53 53 53 53 52 52 52 52 52 52 52 52 52 52 52 52 52 52 52 52 52 52 51 50 49 49 50 50 50 50 50 50 49 49 49 48 51 51 51 51 52 52 53 53 49 50 52 53 54 53 50 49 52 44 48 48 89 120 160 170 157 149 160 157 149 123 69 41 29 23 16 13 11 10 7 3 11 17 22 24 29 33 30 25 15 8 4 4 4 5 8 16 34 43 54 65 73 81 89 95 107 111 117 120 121 123 125 126 128 130 133 136 139 140 141 141 135 134 132 131 129 125 120 116 98 91 84 83 90 103 117 125 121 121 121 123 125 126 125 125 128 128 129 130 131 133 134 136 134 134 133 136 138 139 137 135 130 129 129 133 136 138 138 136 137 139 141 142 142 140 135 133 125 126 128 132 136 139 138 137 130 129 127 127 128 131 134 135 127 125 124 124 124 122 117 111 105 102 98 96 96 96 95 94 98 97 95 93 92 91 91 91 92 93 93 92 90 87 84 82 88 85 81 78 77 75 6 30 74 72 68 62 54 48 42 39 37 38 38 37 35 35 36 38 39 39 39 40 40 40 41 40 38 38 39 39 38 37 35 34 33 33 33 33 33 33 34 35 37 37 39 40 41 41 41 42 46 48 49 50 52 55 57 59 59 61 64 66 66 66 66 65 62 61 59 55 48 40 33 28 12 11 15 28 51 77 98 110 110 99 81 68 64 71 83 92 85 78 73 75 86 97 104 106 107 107 107 107 105 102 100 98 92 92 93 96 100 101 99 97 98 97 95 95 95 94 92 89 80 77 76 80 87 94 98 97 95 91 84 76 70 67 66 66 64 62 60 60 62 63 63 62 61 62 65 67 69 70 71 71 68 68 67 67 66 65 65 64 63 63 62 62 63 63 64 65 
54 54 53 53 53 53 52 52 52 52 52 52 52 52 52 52 52 52 52 52 52 52 52 52 53 52 51 50 50 50 50 51 51 51 50 50 50 49 49 49 50 51 51 51 52 52 52 53 49 50 51 51 52 52 50 49 54 44 47 51 101 135 167 167 144 138 151 152 143 113 54 25 18 16 13 12 11 9 6 4 8 14 19 20 22 24 21 16 12 6 4 5 5 4 7 14 31 39 51 61 69 76 84 90 101 107 114 119 121 123 124 125 126 128 131 134 137 139 140 141 135 134 132 132 133 131 128 127 115 106 93 85 83 88 93 97 111 111 113 116 120 122 121 119 120 120 120 121 123 124 126 127 127 128 130 132 133 133 131 129 125 125 127 131 134 134 132 130 129 130 131 131 132 131 130 128 123 122 123 127 131 133 132 130 121 121 122 124 125 126 127 128 118 114 112 114 117 115 109 102 94 92 91 91 91 91 89 87 89 88 87 85 85 85 85 85 85 85 85 83 82 80 78 77 72 70 66 65 66 67 44 65 65 62 57 51 45 40 35 33 33 35 36 35 34 34 36 36 40 39 40 39 41 40 41 41 39 39 40 40 39 37 36 35 34 34 34 34 35 35 36 37 37 38 40 42 43 44 43 43 48 49 50 51 53 56 58 60 61 63 66 68 68 68 67 65 65 63 59 53 46 36 27 19 7 6 13 30 59 86 104 111 109 97 79 67 67 75 86 94 86 79 73 76 86 98 105 107 109 108 107 107 105 101 96 93 87 87 89 92 96 98 97 96 97 96 95 95 95 94 91 88 80 77 75 78 85 92 97 100 101 97 91 83 76 71 67 65 64 62 60 60 62 63 62 61 57 58 62 64 66 67 66 66 67 67 66 66 65 65 64 64 64 64 64 64 64 64 65 65 
54 54 54 53 53 52 52 52 52 52 52 52 52 52 52 52 52 52 52 52 52 52 52 52 53 52 51 51 50 50 51 51 51 51 51 50 50 50 49 49 49 50 50 50 51 51 51 52 49 49 50 50 51 51 49 49 54 44 49 58 114 149 169 157 128 120 137 144 139 111 56 30 16 14 11 10 8 7 5 5 4 11 15 16 16 18 16 12 11 6 5 7 7 5 7 13 28 37 48 58 66 73 81 87 99 104 111 117 120 122 123 125 125 126 129 131 134 136 137 138 136 135 134 134 135 134 132 131 127 121 112 104 96 91 85 81 92 92 95 101 107 112 115 115 114 114 114 114 114 116 117 118 120 122 124 126 125 123 122 121 119 119 120 121 124 124 122 120 124 122 122 121 120 120 121 121 114 114 113 114 115 115 114 113 112 114 117 119 119 118 115 114 107 104 102 104 108 106 99 6 30 86 87 89 90 88 84 81 78 77 76 75 75 75 75 75 83 81 79 77 74 73 72 71 64 63 58 18 39 59 57 57 52 51 47 43 39 36 34 34 34 35 36 36 35 34 35 36 39 40 40 40 41 41 41 41 41 41 41 41 40 39 38 37 36 36 36 36 36 37 38 39 38 39 42 44 45 45 46 45 49 48 49 51 54 57 59 60 64 65 67 68 68 66 65 63 66 62 56 50 42 32 22 13 6 6 15 36 66 93 108 114 109 96 81 74 77 85 92 96 90 84 78 81 91 101 107 109 109 107 106 105 104 101 95 91 87 86 87 91 95 97 97 96 96 95 95 96 96 94 91 88 83 81 77 78 83 90 97 101 106 102 97 91 83 76 70 68 65 63 61 61 62 63 62 61 59 61 62 64 64 64 62 62 65 65 65 65 64 64 64 64 66 66 66 66 66 66 65 65 
55 55 54 53 53 52 51 51 52 52 52 52 52 52 52 52 52 52 52 52 52 52 52 52 53 53 52 51 51 51 51 51 52 51 51 51 50 50 50 50 49 49 50 50 51 51 51 51 50 50 50 50 51 51 50 50 52 46 55 70 130 162 171 147 105 97 115 127 127 102 52 31 16 14 11 9 6 6 6 7 4 12 15 13 13 14 14 11 12 8 6 8 8 5 7 12 25 33 45 55 63 71 79 85 97 101 108 113 116 118 121 122 124 124 126 128 130 132 133 134 138 136 136 136 137 136 134 132 127 125 124 122 117 108 98 91 80 79 79 83 90 97 102 104 107 107 107 107 108 109 110 110 111 113 115 116 114 113 113 113 115 114 115 115 118 118 117 115 118 116 114 113 110 111 110 111 109 111 111 109 105 103 104 105 104 106 109 110 109 106 102 99 95 93 93 93 96 95 90 44 79 79 81 83 84 82 78 75 75 74 73 72 72 71 72 72 80 77 72 68 64 61 60 60 63 60 56 33 71 51 49 47 41 40 39 38 37 36 36 37 35 37 39 39 37 36 36 37 40 40 41 41 41 42 42 42 43 43 42 41 40 40 39 39 37 37 37 37 38 39 40 41 39 40 44 47 49 49 48 47 49 50 51 53 56 58 60 61 66 65 66 66 66 64 63 63 63 58 50 42 36 27 18 9 8 12 23 48 77 100 113 114 107 95 81 77 83 91 96 97 92 87 82 86 96 105 110 111 110 107 104 104 105 103 97 93 90 90 89 93 96 99 99 99 96 97 96 98 97 96 91 89 86 84 80 80 84 90 97 102 108 106 102 98 91 84 79 74 68 67 63 63 62 62 61 60 63 64 64 64 64 63 62 61 64 64 64 64 64 64 64 64 66 66 67 67 66 66 65 64 
55 55 54 53 53 52 51 51 52 52 52 52 52 52 52 52 52 52 52 52 52 52 52 52 54 53 52 51 51 51 51 52 52 52 51 51 51 50 50 50 51 51 51 51 52 52 53 53 53 52 52 52 53 53 52 53 52 49 64 82 143 169 168 134 92 83 102 116 116 92 43 24 14 13 12 10 8 8 8 9 7 12 15 11 8 10 11 10 13 9 6 7 6 4 5 10 20 29 41 52 61 69 78 84 94 98 103 107 110 113 117 119 120 121 122 124 127 130 132 133 135 134 134 136 137 136 133 130 128 128 128 129 128 123 116 111 91 87 80 76 77 81 85 87 96 96 96 96 97 98 99 100 101 103 105 105 104 103 104 107 113 111 110 110 112 113 113 112 108 109 108 107 104 101 98 96 102 106 108 104 97 93 96 100 95 94 95 93 93 91 89 87 85 85 86 86 85 84 83 82 78 76 18 39 75 76 74 73 72 71 70 68 67 67 67 67 70 67 61 56 52 50 50 51 56 53 50 49 46 44 40 37 33 33 34 35 35 36 37 37 35 37 40 41 40 39 39 40 41 41 41 42 42 42 43 43 43 42 41 40 39 39 40 40 38 38 38 38 39 40 42 43 41 43 47 49 51 51 49 49 52 52 53 55 58 60 62 63 65 64 63 63 62 63 64 65 58 50 41 34 29 22 13 5 8 17 37 64 90 108 115 114 104 89 75 72 80 90 95 94 89 85 83 88 99 109 113 113 112 108 104 104 106 106 102 98 95 94 94 96 99 102 103 102 98 98 98 99 100 97 93 89 85 84 83 83 86 93 100 106 109 109 108 105 99 94 86 83 72 69 66 64 63 63 62 60 64 64 62 61 62 61 62 62 64 64 64 64 64 64 64 64 65 65 66 66 66 65 63 62 
55 55 54 53 53 52 51 51 52 52 52 52 52 52 52 52 52 52 52 52 52 52 52 52 54 53 52 51 51 51 51 52 52 52 52 51 51 50 50 50 52 52 52 53 53 54 54 54 55 55 54 53 54 55 55 55 53 53 70 90 148 170 161 122 95 85 103 118 117 91 41 22 11 12 13 12 11 10 10 10 9 13 14 8 4 5 7 6 14 9 5 5 4 2 3 9 17 26 38 50 59 67 76 82 93 96 100 103 106 109 113 116 117 118 120 122 126 129 132 134 130 130 131 133 135 134 131 128 134 132 130 129 129 128 125 123 114 105 90 79 73 72 73 73 87 86 86 86 87 88 89 90 92 95 97 97 96 97 100 105 107 104 103 101 104 105 105 105 100 102 104 104 100 94 87 82 93 99 102 97 88 84 89 95 89 88 85 82 80 80 81 82 80 81 82 81 79 78 79 80 80 76 33 71 69 72 73 73 63 61 60 59 57 57 56 56 58 55 51 47 44 44 45 46 44 25 21 41 41 39 35 30 28 29 31 33 35 36 36 37 34 36 39 41 41 41 41 42 41 41 41 42 42 43 43 43 42 41 40 39 38 39 39 39 38 38 38 39 40 41 43 43 42 45 49 53 54 54 53 52 54 54 55 57 60 61 65 66 62 61 60 60 60 62 65 67 53 45 35 28 24 18 11 5 8 23 47 76 100 114 114 112 99 85 69 66 75 86 91 91 84 81 81 88 100 110 114 113 114 109 104 105 108 109 106 102 98 97 97 98 101 104 104 104 98 98 99 100 101 98 93 90 85 85 84 85 88 95 103 108 110 111 111 110 106 100 93 90 75 71 67 65 64 63 60 59 62 61 59 57 58 59 60 61 64 64 64 64 64 64 64 64 63 63 64 65 64 63 61 60 
54 54 54 53 53 52 52 52 54 54 54 54 54 54 54 54 52 53 53 54 54 53 53 52 50 51 51 52 52 53 53 54 53 53 54 54 54 53 52 52 54 54 54 54 54 54 54 54 57 55 53 53 56 58 57 57 50 53 73 92 148 171 168 133 101 99 114 136 111 84 31 27 17 12 8 10 11 9 9 11 10 10 9 8 7 6 5 5 9 9 9 7 6 5 3 3 15 21 30 40 51 62 71 78 90 94 100 103 104 106 110 114 114 116 120 124 128 130 131 132 128 129 131 133 133 133 132 131 137 136 135 133 130 127 123 121 134 125 111 100 95 89 81 76 74 74 73 73 75 77 79 81 87 88 90 92 94 95 96 96 97 95 94 93 93 94 95 96 91 90 91 95 96 92 81 72 83 87 88 87 81 79 81 85 78 78 79 80 80 80 79 79 81 78 75 73 73 74 73 72 69 66 63 62 64 7 21 65 60 57 52 48 45 44 45 46 43 43 43 43 42 41 40 39 40 7 4 30 31 32 32 30 31 33 34 36 37 37 37 36 39 39 41 42 42 42 42 42 41 42 42 43 43 42 42 41 40 40 39 38 38 40 40 41 41 40 39 39 41 41 43 44 46 48 51 53 55 56 56 56 56 56 56 57 58 59 61 62 56 56 59 63 67 68 66 62 51 38 26 21 16 10 6 4 14 35 65 93 111 115 108 96 89 72 63 71 81 83 86 92 81 78 78 83 93 102 107 108 108 107 106 107 108 108 106 104 99 99 100 103 106 107 106 104 102 101 101 101 101 97 92 87 84 83 81 83 89 96 102 107 104 112 116 114 111 109 105 100 87 81 73 68 64 62 60 58 58 60 61 61 58 58 60 61 60 61 62 63 63 63 63 62 61 62 64 65 66 65 64 63 
54 54 54 53 53 52 52 52 54 54 54 54 54 54 54 54 53 54 55 55 55 55 54 53 51 52 52 52 52 52 53 53 52 53 53 54 54 54 53 53 54 54 54 54 54 54 54 54 52 51 49 50 53 54 53 52 52 54 72 91 149 172 170 136 109 114 126 133 100 76 26 21 13 8 6 9 10 8 8 9 9 9 8 7 8 7 6 6 9 9 9 9 6 5 3 3 12 19 28 38 48 57 65 71 85 90 95 99 100 103 107 111 112 114 118 122 125 127 128 128 127 128 129 131 132 132 131 131 129 129 129 130 129 129 129 129 124 121 119 118 115 109 98 90 75 74 72 71 70 69 69 68 73 74 77 80 82 85 87 88 86 87 88 88 87 86 85 84 85 84 84 87 88 83 74 67 75 79 81 78 74 71 73 77 74 74 75 75 76 76 76 75 77 74 70 68 68 67 66 65 60 59 58 58 59 7 20 55 58 55 51 46 43 41 41 42 40 40 39 39 38 37 37 36 33 31 28 28 30 32 32 32 34 35 36 38 39 39 38 38 39 40 40 41 45 95 41 40 41 41 42 42 42 42 41 41 41 41 40 40 40 40 41 42 41 41 41 41 42 43 45 46 48 49 52 54 56 56 56 56 53 53 54 55 57 58 60 60 61 62 64 67 68 66 62 58 42 31 21 15 14 8 5 6 23 49 81 102 113 112 103 92 79 65 61 72 83 85 88 93 82 80 80 86 95 103 107 108 105 104 104 106 108 109 108 107 102 101 100 102 104 105 105 104 104 103 102 102 101 97 92 88 81 80 78 80 87 94 101 106 107 112 115 114 111 111 110 107 95 91 84 76 71 67 62 59 60 59 59 59 59 60 62 63 61 61 62 63 63 63 62 62 62 63 64 65 66 65 64 64 
54 54 54 53 53 52 52 52 54 54 54 54 54 54 54 54 54 55 56 56 56 56 55 54 53 53 53 53 52 52 52 52 51 52 53 54 55 55 55 55 55 55 55 55 55 55 55 55 53 52 52 53 56 57 54 53 55 54 70 90 148 173 173 142 110 120 132 131 91 66 17 11 9 5 4 7 9 7 6 7 7 7 7 7 8 8 8 8 10 10 10 9 7 5 3 3 9 17 25 35 44 51 58 63 78 84 90 94 95 98 103 108 110 112 115 119 121 123 123 123 126 127 127 128 129 130 129 129 125 124 125 126 128 130 132 133 122 122 124 127 128 123 114 108 102 99 93 85 78 69 63 60 60 60 61 62 63 65 67 68 72 74 76 78 78 76 74 73 77 76 76 78 79 78 72 67 69 71 73 72 68 67 69 72 71 72 72 72 73 73 73 73 72 69 66 63 63 62 60 58 58 57 58 59 59 57 53 50 53 124 46 42 38 37 36 36 37 36 34 32 31 31 25 21 28 27 26 27 31 35 37 37 38 39 40 40 40 40 39 39 39 40 40 40 41 55 39 38 40 40 41 41 41 41 40 40 40 40 40 41 43 43 42 42 42 42 42 43 44 46 48 49 51 53 54 56 57 57 56 55 53 54 55 57 58 60 61 62 65 65 66 67 66 61 54 49 34 25 17 14 11 7 9 13 37 66 97 114 114 105 94 84 65 57 58 71 82 85 88 94 86 84 85 91 100 107 109 109 103 102 103 105 109 111 111 111 105 103 100 100 101 103 104 104 106 105 104 103 102 98 93 89 79 78 76 78 84 90 98 102 106 111 112 110 109 113 115 113 106 102 96 90 83 75 69 64 64 60 55 56 59 63 64 64 62 62 63 63 63 62 61 61 62 63 64 65 65 65 65 64 
54 54 54 53 53 52 52 52 54 54 54 54 54 54 54 54 54 54 55 56 56 55 54 54 54 54 54 53 52 52 51 51 51 52 53 55 56 56 56 56 56 56 56 56 56 56 56 56 53 53 53 55 58 58 55 53 58 54 69 88 146 172 176 151 113 115 128 139 105 72 15 7 7 3 3 7 9 7 6 8 6 6 6 7 8 9 9 9 10 10 10 9 7 5 4 3 4 12 22 32 40 48 54 59 72 78 85 89 91 95 100 105 109 110 113 116 119 120 120 120 124 124 125 126 127 127 128 128 128 127 126 126 127 129 131 132 131 128 124 122 123 122 121 119 124 121 116 108 98 88 81 76 71 69 67 64 61 59 58 58 60 60 62 63 64 65 65 64 65 64 64 66 69 69 67 64 62 64 66 66 66 66 67 70 70 69 69 69 69 70 70 71 66 63 61 60 60 59 57 56 56 55 54 54 54 52 49 46 44 156 39 36 124 156 33 33 34 32 30 27 28 28 29 30 29 29 29 32 35 39 41 42 41 41 41 41 40 40 39 39 40 40 40 40 39 38 37 36 39 40 40 41 41 40 40 39 38 39 40 41 43 43 42 41 42 42 43 45 47 49 50 51 54 55 56 58 58 57 56 55 56 57 59 61 63 64 65 65 63 63 63 63 60 53 45 40 32 25 18 13 10 9 13 20 57 81 108 119 114 101 85 74 57 53 56 68 77 81 83 88 88 87 90 97 106 112 113 112 104 103 103 106 109 112 113 113 109 105 100 97 98 101 103 103 109 108 106 105 103 100 95 91 83 81 79 79 83 88 94 98 101 107 110 109 109 113 116 115 114 110 106 101 95 88 78 73 70 64 56 56 60 64 64 64 62 62 63 63 63 62 61 60 63 63 64 64 65 65 65 65 
54 54 54 53 53 52 52 52 54 54 54 54 54 54 54 54 52 53 54 54 54 54 53 52 55 55 54 54 53 52 52 52 52 53 54 56 57 57 57 57 56 56 56 56 56 56 56 56 50 49 50 52 55 55 52 49 58 54 68 87 143 168 179 160 126 112 123 151 130 92 21 8 9 4 3 7 10 8 8 9 5 5 6 7 8 9 10 10 11 11 10 10 8 6 4 3 3 9 19 29 38 46 53 59 70 74 81 86 88 92 98 102 107 110 111 115 117 118 118 118 122 122 123 124 125 126 127 128 132 131 130 129 129 130 132 133 135 131 125 120 119 120 121 121 120 119 118 117 114 111 107 105 101 98 94 88 83 78 76 73 62 60 57 56 54 55 57 58 57 56 55 55 55 55 54 53 52 54 56 57 58 59 61 63 64 63 62 61 60 60 61 61 56 56 55 56 56 57 55 54 48 45 42 41 41 41 40 39 35 33 32 31 156 190 33 6 30 32 29 27 75 27 28 30 30 32 33 34 36 38 40 42 42 42 41 40 39 39 38 38 40 7 21 40 40 38 38 36 40 40 41 41 42 40 41 40 37 38 40 42 43 43 42 41 43 43 45 47 49 50 51 52 56 57 58 59 60 59 56 56 56 58 60 62 64 65 65 65 60 60 59 58 55 48 41 35 31 25 18 13 7 8 17 27 79 96 114 120 114 100 81 67 56 56 60 67 72 73 75 78 85 86 90 99 109 115 115 113 106 105 104 106 109 112 113 113 111 106 100 96 96 99 102 103 110 109 106 105 104 102 97 94 89 87 83 81 82 86 91 94 98 105 111 111 112 116 116 114 114 113 112 109 107 100 92 86 81 73 62 60 62 64 63 62 61 62 62 63 63 62 61 61 63 63 63 63 64 64 65 65 
54 54 54 53 53 52 52 52 54 54 54 54 54 54 54 54 52 52 53 54 54 53 52 52 54 54 54 54 53 53 53 53 54 54 56 57 57 57 57 57 57 57 57 57 57 57 57 57 53 52 52 53 56 57 55 53 57 53 69 86 138 162 180 170 143 118 116 146 139 110 35 11 12 7 4 7 9 8 8 11 6 6 6 7 8 9 9 9 11 11 11 10 9 7 5 4 3 7 16 25 34 43 52 57 66 72 78 84 85 89 95 99 103 106 109 112 114 116 116 116 121 121 122 122 124 125 127 129 130 130 130 130 131 132 133 134 129 129 127 126 124 123 122 121 120 120 120 120 119 118 118 117 118 117 115 111 107 103 99 97 86 82 76 72 67 66 68 69 69 68 65 62 58 56 54 52 52 51 52 52 53 54 55 55 58 56 54 51 50 50 50 51 49 49 49 51 52 53 51 50 44 41 37 36 35 36 37 36 31 31 31 31 32 34 34 44 36 34 33 31 30 30 31 31 30 32 34 35 35 35 37 39 42 41 40 39 38 38 39 39 40 7 20 41 41 40 40 39 41 41 42 42 42 42 41 41 38 39 40 42 43 43 44 44 46 47 49 51 52 53 53 53 57 58 60 61 61 60 58 57 57 58 60 62 64 64 63 62 60 60 57 54 51 45 39 34 28 22 16 10 5 10 24 39 99 110 119 118 108 94 78 65 59 63 69 72 71 68 65 66 74 77 84 95 106 113 113 110 104 103 102 103 107 111 113 113 111 105 100 96 96 99 101 103 111 110 107 106 105 103 101 97 96 92 88 84 84 86 89 92 99 106 112 112 113 116 116 114 112 113 114 116 115 113 107 102 96 88 77 69 66 64 61 60 60 61 62 63 63 63 63 62 64 63 63 63 63 64 65 66 
54 54 54 53 53 52 52 52 54 54 54 54 54 54 54 54 53 53 54 55 55 54 53 53 53 53 54 54 54 54 54 55 56 56 57 58 58 57 57 56 58 58 58 58 58 58 58 58 58 57 55 56 59 60 59 58 54 52 70 85 133 157 180 178 160 135 118 129 131 130 63 28 15 8 4 5 6 6 8 11 6 7 7 7 8 8 8 9 11 11 11 10 9 7 5 4 3 8 14 21 29 38 48 54 64 69 76 81 82 85 91 95 99 102 105 109 111 113 114 114 121 121 121 122 123 125 127 129 128 128 129 130 130 130 130 130 125 126 127 127 125 124 123 122 127 126 124 121 118 116 115 115 117 118 119 120 119 116 112 110 109 106 101 97 92 90 91 91 92 91 88 84 81 76 74 73 69 68 66 65 65 64 63 61 62 60 56 53 50 50 50 50 48 48 48 50 52 52 49 47 44 42 41 40 41 42 41 39 34 33 33 34 35 36 36 37 39 38 38 37 36 35 35 35 32 35 37 37 35 35 37 39 42 41 40 39 39 39 18 39 40 41 41 42 42 42 42 41 42 42 43 43 43 43 42 42 41 41 42 43 44 46 46 47 51 52 54 55 56 56 56 56 57 59 60 62 62 62 61 60 59 60 63 64 65 64 63 61 60 57 53 49 46 41 35 31 24 18 14 9 8 17 38 58 109 118 122 111 94 80 69 63 61 70 80 82 76 68 59 55 58 63 72 86 99 106 106 104 98 97 96 99 104 109 112 113 109 104 98 95 95 98 100 101 112 110 108 107 107 105 103 101 98 94 89 86 85 87 90 92 100 106 108 107 106 110 111 111 112 113 116 120 122 123 119 116 111 104 94 81 72 65 60 59 58 59 61 62 63 64 64 64 64 64 63 62 63 64 65 66 
54 54 54 53 53 52 52 52 54 54 54 54 54 54 54 54 54 55 55 56 56 55 55 54 52 53 53 54 54 55 55 56 57 57 58 58 58 57 56 56 58 58 58 58 58 58 58 58 57 55 52 52 55 57 57 57 52 52 72 85 131 153 180 182 177 156 127 120 127 151 96 54 16 9 3 3 4 4 7 11 7 7 7 7 8 8 8 8 11 11 11 10 9 7 5 4 5 7 13 18 25 34 44 51 62 68 74 78 80 82 87 92 95 98 102 107 110 111 112 113 121 121 121 121 123 125 128 129 129 130 130 131 129 129 126 125 129 129 126 124 121 122 123 125 123 121 120 117 115 114 115 115 114 117 120 123 123 120 117 115 114 113 112 109 107 106 104 104 102 103 103 101 97 95 94 93 94 91 88 85 83 80 76 74 72 69 65 60 57 56 56 56 52 51 51 52 53 52 50 47 43 42 43 44 46 45 42 39 38 38 38 38 38 38 38 38 41 41 41 41 40 39 38 37 33 36 39 40 38 38 40 43 42 42 41 40 40 41 33 71 40 40 42 43 43 43 43 43 42 43 43 44 44 43 43 42 44 44 44 44 45 47 49 50 54 55 57 58 58 59 57 57 57 59 61 62 63 63 62 62 64 64 66 68 68 66 64 63 58 54 49 45 40 35 29 26 21 16 12 10 12 25 51 74 110 121 122 105 81 65 60 59 63 75 88 90 83 70 56 49 48 53 64 79 93 101 101 98 93 92 92 95 101 107 112 113 108 104 98 95 96 98 100 101 112 110 108 107 107 107 105 103 97 94 89 86 85 87 91 94 99 103 103 99 99 103 107 107 113 114 118 123 127 127 126 123 120 115 105 91 76 66 61 60 57 58 60 62 64 65 65 65 65 64 63 62 63 64 66 67 
53 53 52 52 52 53 54 54 54 54 54 54 54 54 54 54 53 54 54 55 55 54 54 53 54 54 54 54 54 55 57 57 58 57 58 58 58 58 58 58 61 60 58 57 56 57 57 57 58 58 56 53 51 51 55 58 54 56 71 101 129 150 164 177 177 172 150 127 129 144 134 107 50 18 0 8 13 3 2 12 8 10 10 8 7 7 9 11 13 13 13 14 15 12 8 5 4 6 9 14 20 29 39 45 62 66 72 77 79 81 83 85 90 92 96 100 105 109 111 112 118 119 120 123 125 128 129 130 131 129 128 126 125 124 124 124 124 123 123 121 122 121 123 123 126 124 121 119 117 116 115 115 117 115 113 113 114 116 117 116 112 111 111 110 109 108 108 107 109 109 109 109 109 109 109 110 104 104 103 101 99 97 94 93 87 83 77 74 72 71 69 68 62 61 60 60 60 58 55 52 50 49 49 50 51 50 47 44 41 41 41 42 42 42 42 41 43 43 42 42 42 41 41 42 39 40 40 41 41 42 42 42 43 42 41 40 25 21 40 41 41 40 41 40 41 41 41 41 41 41 41 41 41 42 43 44 42 43 45 46 49 51 53 54 56 56 56 57 58 59 59 59 58 61 63 65 67 67 65 65 67 66 67 69 69 66 61 56 52 50 46 42 38 31 25 20 16 14 11 11 20 43 72 92 126 126 119 101 78 61 55 56 65 80 94 94 81 65 55 53 47 52 61 75 87 95 96 95 95 92 91 94 102 109 113 114 112 108 102 98 98 101 104 105 111 112 111 107 108 111 110 106 97 95 90 87 85 87 89 91 98 96 93 91 93 97 102 105 109 111 114 117 120 124 131 134 127 122 111 101 89 77 66 59 57 60 63 66 66 66 66 66 65 64 64 63 63 64 64 66 
53 53 52 52 52 53 53 54 54 54 54 54 54 54 54 54 54 54 55 55 55 55 54 54 55 54 54 54 54 55 56 57 57 57 57 57 58 58 58 58 59 59 58 58 58 59 59 59 56 56 54 51 49 51 55 58 64 66 81 108 133 147 153 157 174 179 167 143 135 145 144 129 84 44 11 7 11 6 4 9 6 8 11 11 11 10 10 11 15 14 14 14 15 13 9 4 1 3 6 9 16 24 34 41 57 62 68 74 77 79 82 84 87 88 92 97 102 105 108 109 114 116 118 120 123 126 129 129 129 128 127 126 125 124 124 124 123 123 122 121 121 121 121 121 124 124 123 121 120 118 117 116 119 117 114 114 115 117 116 115 114 113 111 111 108 108 106 106 106 108 107 108 107 108 106 106 104 104 103 102 100 98 95 94 89 86 81 77 75 74 72 70 66 65 64 64 64 63 59 56 52 51 50 50 50 50 46 44 44 44 44 44 45 45 45 45 46 46 45 44 44 43 43 43 40 40 41 41 42 42 43 43 45 95 41 41 7 4 41 41 41 40 40 40 41 40 40 40 41 41 41 42 43 44 45 46 45 46 47 49 51 53 54 55 55 55 56 57 58 59 60 60 58 60 63 66 69 70 69 69 69 68 69 69 69 66 60 55 49 47 43 39 34 29 22 18 17 17 17 21 33 56 86 106 124 125 118 103 81 64 57 58 63 73 83 80 67 54 49 49 51 58 69 82 92 96 96 94 96 94 91 94 99 105 108 109 108 104 99 96 97 100 104 107 111 111 108 102 101 104 104 101 95 92 88 85 84 85 88 90 96 94 91 90 91 95 100 103 108 110 112 115 117 122 127 132 131 127 118 110 98 86 74 67 62 65 68 70 69 68 67 68 67 67 65 65 66 66 67 67 
53 52 52 51 51 51 52 52 53 53 53 53 53 53 53 54 55 55 55 55 55 55 55 55 55 55 54 54 54 55 56 57 59 59 59 59 59 59 58 58 54 55 57 58 58 58 57 57 56 55 55 54 55 59 65 69 83 86 100 124 143 147 139 131 162 181 184 162 142 143 148 146 105 64 21 5 6 8 11 14 3 7 12 14 14 13 12 12 17 16 15 15 14 12 8 4 1 2 4 7 14 22 31 37 51 56 63 69 73 76 80 81 83 86 89 93 97 101 104 105 112 113 114 117 120 122 125 126 127 126 126 125 125 124 124 124 123 122 121 121 120 120 121 121 122 122 123 123 122 120 119 117 117 115 113 112 113 113 113 111 110 110 110 110 110 110 110 110 108 109 110 110 110 108 106 105 106 106 105 104 101 99 97 96 93 90 87 84 82 79 76 73 68 67 66 67 67 66 63 60 55 53 52 52 52 51 48 46 48 48 48 48 48 48 48 47 47 48 47 47 47 45 45 45 42 42 42 42 42 42 42 42 41 55 42 41 41 41 41 42 42 41 41 41 40 40 39 39 42 42 42 43 45 47 48 49 49 49 50 52 53 54 55 56 54 55 56 57 59 60 61 62 62 63 65 68 71 71 71 70 69 68 67 67 66 62 56 51 45 42 38 34 30 25 19 14 11 13 18 26 44 70 100 119 124 124 116 102 82 68 62 62 64 67 68 61 49 42 42 45 56 65 78 89 96 97 96 94 97 95 93 94 96 99 101 101 99 98 95 94 96 100 105 108 111 110 104 95 92 95 97 95 93 90 86 84 83 85 88 90 95 93 91 89 90 94 98 101 107 108 110 112 114 118 123 128 133 131 124 118 108 96 84 76 66 67 66 66 66 66 66 66 66 66 66 66 67 67 65 65 
54 53 52 52 51 51 52 52 54 54 54 54 54 54 54 54 55 56 55 55 55 55 56 56 56 55 54 54 54 55 56 56 59 59 59 59 59 59 58 58 56 57 59 59 58 57 55 54 56 58 60 63 68 76 85 92 107 110 122 140 152 147 126 109 141 169 186 174 152 144 146 147 124 94 55 25 10 6 12 19 7 10 13 15 14 12 12 12 18 17 15 14 13 11 7 4 3 4 6 9 14 22 31 37 46 51 60 67 71 74 77 81 80 83 87 91 95 98 100 101 107 109 110 113 116 119 121 123 124 124 125 125 125 125 124 124 122 122 121 120 120 120 120 120 120 121 123 124 124 122 120 118 115 113 111 110 111 110 109 107 104 105 107 109 112 114 116 116 114 114 115 115 114 112 110 108 107 107 107 106 104 102 101 100 100 97 93 91 86 83 77 74 68 67 66 67 68 67 63 61 56 54 53 53 54 54 52 50 51 51 51 51 50 50 50 50 49 48 47 48 48 47 47 47 43 43 43 43 43 6 30 43 43 43 42 42 42 42 42 42 42 41 42 41 40 39 39 39 43 43 44 45 47 48 51 51 51 51 52 53 54 55 56 56 56 57 58 60 62 64 65 66 69 69 70 70 71 70 68 69 67 66 64 63 61 56 50 45 42 38 34 30 26 22 17 12 7 12 20 34 56 84 114 131 125 121 110 95 79 71 68 69 70 66 59 47 37 34 40 46 60 69 81 90 95 95 96 97 98 97 95 95 94 94 93 93 91 91 92 93 95 99 105 109 111 111 103 92 87 89 92 92 92 90 86 85 84 87 90 93 96 95 92 91 91 94 97 99 107 108 109 110 112 116 121 126 132 130 128 123 116 105 93 85 75 72 66 63 62 63 64 66 64 65 65 66 66 66 64 63 
56 55 54 53 52 52 53 53 54 54 54 54 54 54 54 54 55 54 53 53 53 53 54 55 55 55 54 53 53 53 54 56 58 58 58 58 58 58 57 57 61 61 61 60 60 59 58 57 61 65 72 80 89 100 111 118 132 135 143 153 159 149 123 100 118 147 175 181 170 159 153 150 155 142 114 75 33 7 5 14 13 14 14 13 11 10 11 13 18 16 14 13 12 10 7 4 4 5 7 9 14 21 29 35 42 49 56 63 68 73 76 79 79 81 85 89 93 96 98 99 104 105 107 110 113 116 118 120 121 122 123 124 125 125 125 124 123 122 121 121 120 119 119 119 119 120 122 124 123 122 120 118 116 114 113 113 113 113 110 108 105 106 107 110 113 115 116 118 116 117 117 117 115 115 113 112 109 109 109 109 108 106 105 104 106 103 98 94 90 85 79 75 72 72 71 71 71 70 67 64 57 57 56 55 57 58 58 56 53 53 52 52 51 51 51 50 49 49 49 47 47 48 47 47 45 45 45 45 45 44 45 45 44 44 43 42 42 42 42 42 43 42 42 42 41 41 40 40 44 44 45 46 48 50 51 52 52 52 53 54 55 56 57 57 60 60 62 64 66 67 68 69 71 71 71 71 71 70 68 68 68 66 63 61 58 53 46 42 39 36 31 27 24 20 16 13 13 19 30 49 73 101 126 142 127 116 101 85 75 72 75 79 78 69 56 43 34 35 42 48 62 70 79 86 89 91 94 97 97 97 96 95 92 90 88 88 84 87 90 92 94 98 104 109 113 113 107 96 89 90 92 93 94 92 89 87 88 91 95 98 100 98 96 94 95 96 99 101 108 108 109 109 111 116 122 126 133 132 132 129 124 115 104 96 89 81 71 63 62 64 66 68 64 65 66 67 67 66 65 64 
75 57 56 55 54 54 54 54 55 55 55 55 55 55 55 55 55 54 52 51 51 52 54 55 56 55 54 53 53 53 54 54 56 56 56 56 56 56 55 55 56 56 57 58 60 62 65 66 78 83 93 103 114 125 135 141 151 153 157 160 161 150 127 105 105 127 157 178 184 180 171 164 166 164 153 122 69 21 6 12 16 16 14 12 9 8 10 12 16 14 12 10 10 9 7 4 3 3 5 6 10 17 24 30 39 44 52 59 65 69 73 75 79 80 84 88 91 94 96 97 101 102 105 108 111 114 117 119 119 120 122 124 125 126 125 125 124 123 122 121 120 120 119 119 119 120 121 122 121 120 119 118 119 118 117 117 118 118 115 113 112 112 112 112 112 112 112 112 116 116 115 114 114 113 113 113 112 112 112 112 112 111 110 109 111 107 102 98 94 89 85 81 81 80 79 79 79 77 73 70 63 60 58 58 60 62 62 61 55 55 55 54 53 52 51 51 50 50 50 49 49 48 48 47 48 47 25 21 46 46 46 46 45 44 43 43 42 42 43 44 43 43 43 43 43 43 43 43 45 45 46 47 48 50 51 53 52 53 54 55 56 57 59 59 63 64 66 67 68 69 70 71 70 69 69 70 70 69 70 70 68 66 62 59 56 51 45 42 37 33 28 24 22 19 14 12 16 26 43 65 90 113 130 140 125 113 93 77 73 76 83 89 88 77 63 50 43 44 49 54 62 68 74 80 84 87 89 91 93 94 95 93 89 85 83 83 81 85 90 92 94 97 102 107 113 115 112 103 95 95 96 96 96 95 92 91 92 96 100 103 104 103 101 99 99 100 102 103 107 108 108 109 111 116 123 128 136 136 137 137 134 125 116 110 99 89 76 67 64 64 65 64 67 68 68 69 69 68 68 67 
60 59 58 57 56 55 56 56 55 55 55 55 55 55 55 55 54 53 51 49 49 51 53 54 56 55 54 53 53 53 53 54 55 55 55 55 55 55 55 55 55 56 58 63 71 79 87 91 104 110 120 130 139 147 154 158 163 165 165 161 158 150 132 115 102 115 138 163 181 186 180 175 159 157 159 148 104 46 15 13 12 13 14 13 11 9 10 11 14 12 9 8 8 8 6 5 3 2 3 4 7 14 21 27 35 41 50 56 60 65 68 72 77 79 83 86 89 92 94 95 99 100 103 107 110 114 116 118 116 118 121 123 125 126 125 125 126 125 123 121 121 120 120 120 120 120 120 119 118 118 117 117 118 118 118 119 120 120 118 115 116 115 114 113 111 110 109 108 116 114 113 111 111 112 114 115 114 115 115 115 115 114 114 113 112 109 104 100 98 97 94 92 89 88 86 85 85 82 78 75 69 67 64 63 64 63 62 61 58 56 56 55 55 54 54 52 52 52 52 51 51 51 50 50 49 49 7 4 47 47 47 47 47 46 45 44 44 44 44 45 42 43 43 44 45 45 46 46 46 46 46 47 48 49 51 51 53 54 55 56 59 61 62 63 66 66 66 67 68 69 70 71 70 70 69 68 67 68 68 68 64 62 58 55 51 47 42 38 33 30 25 22 19 17 13 11 19 34 58 86 109 124 130 131 123 109 90 76 74 82 90 95 102 92 77 66 60 60 61 64 63 66 71 77 81 83 82 80 86 89 90 89 84 79 77 77 80 85 91 93 93 95 101 106 111 117 117 110 102 100 100 98 98 96 94 93 95 99 103 107 106 106 103 102 101 102 102 104 105 106 106 107 110 116 124 130 139 140 140 140 138 134 126 120 109 100 88 80 76 72 68 63 67 66 66 65 65 66 66 67 
62 61 59 58 57 57 56 57 55 55 55 55 55 55 55 55 53 52 50 48 48 50 52 53 56 56 54 53 53 53 53 53 54 54 54 54 54 54 54 54 65 67 71 79 91 104 116 122 126 133 142 151 157 162 166 168 168 170 167 160 155 150 137 123 104 109 124 149 170 179 178 176 160 154 159 162 127 64 20 9 6 10 13 15 13 11 10 10 12 10 8 7 7 7 6 5 4 3 5 5 7 14 21 26 33 38 46 53 58 61 66 67 75 77 81 84 87 90 92 93 98 100 102 106 110 113 115 118 115 117 121 123 125 126 125 125 126 125 124 122 121 121 120 120 121 120 119 117 116 116 116 116 115 115 115 117 119 119 116 114 115 114 114 113 111 110 110 109 117 115 112 111 111 113 116 118 116 116 117 117 117 117 116 115 113 110 105 101 101 101 100 101 92 91 89 88 87 84 79 76 74 72 67 65 65 64 62 61 60 59 59 58 57 55 55 55 54 54 54 53 53 53 52 52 51 49 49 48 48 47 47 47 47 46 45 44 44 44 45 45 42 43 44 45 46 47 47 47 46 46 47 47 47 49 50 50 54 55 56 58 61 63 65 66 66 66 66 67 68 68 69 70 74 73 70 67 66 65 63 62 59 56 52 50 46 42 37 33 31 27 23 19 17 14 12 10 26 44 74 105 128 136 134 128 121 107 88 78 79 86 94 98 114 105 91 80 76 75 73 73 64 66 70 77 82 82 77 71 82 85 87 86 81 76 75 75 80 86 92 94 93 94 99 104 110 117 120 114 107 104 103 100 98 97 95 94 96 101 105 108 107 106 104 102 102 102 103 103 104 104 105 106 109 115 124 130 140 139 140 140 139 135 128 125 123 115 106 99 94 87 78 71 63 62 61 60 60 61 62 63 
55 55 54 53 53 53 53 54 54 53 53 53 52 52 52 52 51 52 54 56 56 55 54 53 55 55 55 56 56 55 52 50 47 51 54 54 54 56 61 65 73 84 99 112 121 129 139 146 153 155 159 162 165 166 166 166 170 171 169 163 155 148 145 144 129 127 129 144 165 179 179 173 166 153 161 149 115 68 19 9 13 12 11 12 14 15 14 13 8 8 10 10 10 9 8 7 7 4 3 2 5 11 17 21 28 33 41 47 50 54 58 63 68 72 77 81 84 87 91 93 96 99 104 107 110 113 116 120 117 117 119 120 121 123 124 124 125 125 124 123 121 121 120 120 126 124 120 117 114 114 114 114 119 118 117 116 116 116 116 117 117 118 118 116 114 112 112 113 115 113 110 108 107 109 111 113 111 114 118 119 118 117 116 116 111 110 109 107 105 104 104 103 95 95 94 92 89 85 82 80 75 73 71 69 67 66 63 60 63 64 63 62 61 60 58 57 58 58 57 56 54 53 52 51 50 50 50 50 50 48 47 46 49 48 46 45 44 43 43 43 45 46 47 46 44 43 43 45 44 44 44 46 48 52 55 56 56 59 61 64 67 69 69 69 67 67 69 70 71 71 71 70 74 72 70 68 65 63 61 59 51 50 49 47 44 39 35 33 27 24 24 22 16 10 11 17 41 70 103 125 138 144 137 124 109 101 87 77 76 84 95 104 108 103 96 89 84 80 76 74 67 70 73 74 72 70 70 70 70 72 74 75 76 74 71 70 72 80 87 90 88 89 96 102 110 115 116 111 108 108 108 106 101 98 95 95 98 102 106 108 108 105 102 98 96 97 100 101 102 102 101 102 105 110 115 118 130 132 133 133 132 130 126 123 120 121 122 120 113 101 90 83 65 60 53 46 43 43 45 47 
53 53 52 51 51 51 52 52 55 55 55 55 56 56 56 56 56 57 57 58 57 57 56 56 55 57 56 57 55 53 49 47 46 48 50 52 57 66 79 89 104 113 125 135 141 148 155 161 164 165 167 167 166 163 159 157 159 160 161 159 156 155 157 160 154 152 150 156 168 179 183 181 159 142 149 145 117 68 16 6 12 11 9 10 12 14 14 13 11 12 13 13 12 11 9 8 7 5 3 2 4 9 16 21 28 33 41 45 48 50 54 59 63 68 73 77 81 84 89 92 95 98 102 106 108 111 115 118 116 116 117 119 120 121 122 122 123 123 123 123 122 122 122 122 126 124 120 117 115 114 114 115 119 118 117 116 116 116 116 117 117 118 118 116 114 112 112 113 116 114 111 109 109 110 112 114 112 114 118 118 117 115 115 115 112 111 110 109 107 106 104 103 96 96 95 93 90 86 83 82 78 76 73 72 72 71 69 67 66 66 66 65 63 62 60 59 60 59 58 57 56 54 54 53 52 51 51 51 50 49 48 48 49 48 47 45 44 44 44 44 45 47 47 46 44 43 44 45 47 47 48 49 52 55 57 59 61 62 65 67 69 69 70 70 69 70 72 72 72 72 73 72 75 72 70 67 64 60 57 56 51 51 49 47 43 39 35 32 27 22 20 20 18 16 18 23 61 88 118 136 144 145 133 118 97 90 81 74 74 81 91 98 105 99 90 82 77 76 77 78 76 77 78 75 71 67 64 65 64 64 64 65 67 69 71 73 72 79 87 89 88 88 93 99 107 112 115 111 109 109 109 105 99 97 94 95 99 103 106 107 107 104 101 97 96 98 101 103 105 104 104 105 108 111 115 117 125 128 130 132 131 128 123 120 121 124 129 130 126 117 107 100 89 80 65 50 38 31 28 27 
52 52 51 51 51 51 52 52 54 55 55 56 56 57 57 58 58 58 56 56 54 55 54 55 50 51 49 49 46 44 41 40 42 44 48 53 64 81 101 115 139 145 154 160 163 165 169 172 175 175 175 172 167 160 153 149 150 151 151 152 155 160 167 172 170 169 164 161 167 177 183 184 155 127 129 131 110 64 15 8 11 9 6 6 9 12 13 14 15 16 16 16 15 13 11 10 6 5 3 2 4 10 15 18 26 32 39 43 44 47 50 55 59 63 69 74 77 82 86 89 93 96 100 103 106 109 112 116 115 116 116 117 118 119 120 121 122 122 123 123 124 124 125 125 125 124 121 118 116 115 116 116 119 118 117 116 116 116 116 117 117 118 118 116 114 112 112 113 117 115 113 111 111 112 114 115 113 115 117 118 116 114 113 114 114 114 114 113 110 107 105 104 98 98 97 95 93 89 86 84 81 79 77 76 76 76 74 72 70 70 69 68 66 64 62 61 61 60 59 58 57 56 55 55 54 53 52 51 50 49 49 49 48 48 46 45 45 45 45 45 46 47 48 47 45 45 45 47 52 52 53 55 57 60 62 64 66 67 69 69 70 71 71 71 72 72 74 75 75 75 75 73 73 71 68 65 60 57 54 52 51 51 49 46 43 38 35 32 27 22 19 20 22 25 30 38 87 110 134 144 147 142 125 108 88 84 79 77 78 83 89 93 95 89 80 72 70 73 79 84 90 88 85 79 71 65 61 61 58 56 54 53 57 64 71 75 72 79 87 89 87 87 90 94 103 110 113 112 111 111 110 105 97 95 95 97 101 104 106 107 107 103 99 95 95 98 102 104 107 107 107 108 109 111 113 114 118 122 127 131 131 127 122 117 118 123 130 137 138 134 127 122 113 102 81 58 37 23 15 10 
54 55 53 53 53 54 54 55 53 54 53 54 53 54 53 54 55 54 51 49 48 47 48 48 45 44 42 39 38 39 42 44 52 57 65 75 88 105 124 137 157 161 166 169 170 170 171 173 175 176 176 174 168 161 153 149 150 148 147 147 151 158 166 171 166 165 161 158 165 176 179 175 139 103 99 105 92 55 13 12 10 7 4 4 7 10 13 14 17 18 18 18 16 14 11 10 6 4 3 3 4 9 14 16 23 30 36 41 44 46 50 54 60 63 69 74 76 80 84 87 91 94 98 101 103 106 110 113 115 116 116 117 118 119 120 120 123 123 124 124 124 125 125 125 124 123 121 119 118 117 117 117 119 118 117 116 116 116 116 117 117 118 118 116 114 112 112 113 117 116 114 113 113 114 115 116 114 116 117 117 115 113 113 113 116 117 117 117 114 111 107 104 100 101 100 98 95 92 89 87 83 81 79 78 77 76 74 72 72 72 71 69 67 64 62 60 60 59 59 58 57 56 55 55 55 54 52 50 49 49 49 49 47 46 46 45 45 45 45 46 48 49 50 49 48 47 48 49 56 56 57 58 62 64 66 67 69 69 70 71 71 71 71 70 72 73 75 75 75 75 74 73 69 67 65 62 58 56 52 52 51 49 48 45 42 37 33 31 27 24 22 23 25 30 45 60 106 125 141 146 145 136 117 98 79 79 80 79 80 80 80 80 78 75 71 67 68 74 82 87 99 96 90 81 72 65 62 62 55 53 50 49 54 61 69 73 73 79 86 88 87 87 89 92 100 108 112 113 114 115 111 106 97 96 97 99 103 106 108 108 107 103 98 94 94 97 102 104 107 108 108 109 109 110 110 110 113 118 125 130 131 126 120 116 113 118 125 133 138 140 139 138 132 123 105 85 63 45 33 27 
57 56 55 55 54 54 55 55 53 53 52 50 49 47 46 46 49 47 44 42 40 40 40 41 40 39 36 34 36 44 55 64 81 90 103 115 126 136 147 154 165 167 169 171 170 169 170 170 170 171 173 173 170 165 160 157 154 151 148 148 151 158 164 168 161 162 161 161 171 180 172 156 104 73 76 87 82 52 15 15 11 8 5 4 7 10 12 13 17 18 18 17 16 14 11 10 5 4 3 3 4 7 12 14 20 27 34 40 43 47 52 56 61 66 70 74 78 80 83 86 90 92 96 99 101 104 107 110 115 116 117 118 119 120 121 121 125 125 125 124 124 124 123 123 123 123 122 120 119 119 118 118 119 118 117 116 116 116 116 117 117 118 118 116 114 112 112 113 117 116 115 114 114 115 116 117 115 116 118 117 114 113 113 114 118 119 120 119 117 113 110 107 104 104 103 101 99 95 90 88 88 84 81 80 78 75 73 70 71 70 69 68 65 63 60 59 58 58 58 57 56 56 55 55 55 54 52 51 50 49 48 48 46 46 45 45 45 46 47 47 50 51 53 52 51 50 51 53 57 58 61 63 65 66 68 68 69 71 71 72 72 71 71 70 71 71 73 73 73 72 71 71 65 63 61 59 57 56 53 53 48 48 46 44 40 36 32 29 23 23 24 24 24 35 59 82 120 133 143 142 138 130 113 95 74 77 79 79 77 71 65 60 59 62 65 68 71 77 84 89 96 94 86 77 69 63 62 64 58 56 53 52 55 59 64 68 72 76 82 85 86 87 89 91 100 107 112 114 116 118 114 107 99 99 99 101 105 109 110 110 107 104 99 96 95 98 102 106 108 109 109 109 108 108 108 108 114 119 127 132 133 129 122 117 112 114 118 124 131 138 144 147 152 148 137 125 109 92 77 69 
54 53 52 50 49 48 48 48 49 48 46 44 42 40 38 37 40 39 38 36 35 34 33 33 29 29 30 33 40 56 75 88 111 121 136 148 154 157 160 163 171 171 172 172 171 170 170 169 167 168 169 170 169 167 165 164 157 155 152 153 157 162 166 168 165 171 172 173 179 179 157 130 76 60 74 87 85 61 24 20 13 10 7 7 9 11 12 12 16 17 17 17 16 14 12 11 4 3 2 3 3 6 11 13 18 23 32 38 42 46 52 57 60 65 69 73 77 79 83 85 89 92 95 98 99 102 106 108 114 114 116 117 119 120 121 121 125 125 124 124 123 123 122 122 123 122 122 122 121 120 120 120 119 118 117 116 116 116 116 117 117 118 118 116 114 112 112 113 116 115 115 115 115 116 117 117 116 117 118 117 115 114 115 117 119 120 120 119 118 115 113 111 109 109 107 104 101 97 91 89 90 87 84 82 79 76 73 71 68 67 67 66 64 61 59 58 58 57 57 57 56 56 55 55 55 55 55 54 52 50 48 47 47 47 47 47 48 49 50 51 53 54 55 55 54 54 55 57 60 61 64 66 68 69 69 69 70 71 71 72 72 71 71 70 70 70 70 71 70 69 69 68 62 60 59 57 57 54 54 53 46 45 44 42 38 33 31 28 20 20 20 21 28 46 76 103 133 141 143 136 130 125 110 94 79 83 85 87 80 69 57 50 48 55 65 72 76 80 84 88 88 85 77 69 63 60 62 65 63 61 57 54 55 57 61 63 67 71 76 79 82 85 89 91 100 106 111 112 116 118 114 108 102 100 99 101 104 108 110 110 106 104 101 100 101 104 108 111 113 113 112 111 111 111 111 112 119 124 132 137 137 133 127 122 118 118 117 120 125 134 143 148 159 159 158 153 143 129 116 109 
46 45 43 41 38 37 36 36 37 36 35 33 31 29 28 27 29 29 29 28 27 26 25 24 21 26 33 43 57 77 100 116 135 144 156 164 166 167 168 170 174 173 171 170 170 169 167 166 164 163 163 162 161 159 158 157 157 155 154 156 160 163 164 163 164 177 182 178 174 164 133 101 69 63 79 82 74 56 24 19 15 13 11 10 12 12 12 11 16 16 17 18 17 16 14 13 3 3 2 3 3 6 9 11 16 22 30 36 39 43 48 53 54 58 64 69 73 78 82 85 89 91 95 97 99 101 105 107 110 111 113 115 118 120 121 122 122 122 122 122 123 123 123 123 122 122 122 122 122 122 121 121 119 118 117 116 116 116 116 117 116 117 117 115 114 112 112 113 114 114 114 114 114 115 115 117 116 117 118 117 116 116 118 120 119 119 118 117 116 116 115 114 114 113 111 107 102 97 92 89 87 85 81 79 78 76 73 70 65 65 65 64 63 61 60 58 58 58 58 58 57 57 57 57 56 56 58 58 56 54 50 48 51 50 51 51 52 53 55 55 55 56 57 57 57 57 58 60 64 65 67 69 70 71 71 71 71 71 72 73 73 72 71 71 68 69 69 69 69 68 67 66 63 61 59 57 55 53 52 51 44 43 42 39 36 32 27 25 24 18 16 22 39 65 98 124 145 147 141 128 120 116 104 90 88 91 95 96 87 73 57 47 47 55 67 76 79 80 82 85 83 80 73 64 60 60 64 69 67 63 58 53 52 54 58 60 62 64 67 71 76 82 87 91 99 104 107 110 113 116 112 106 104 101 98 98 101 105 107 108 103 103 104 106 109 114 118 121 121 120 118 116 116 117 118 120 127 131 138 142 142 138 132 128 124 122 120 120 125 131 139 142 153 156 160 161 157 150 141 136 
39 38 35 32 30 28 27 26 26 25 24 23 22 21 20 19 20 21 21 22 21 19 17 16 24 32 46 61 78 101 125 141 154 160 168 172 174 175 177 180 174 172 169 167 167 165 163 161 161 160 157 154 151 149 147 148 156 154 153 155 159 160 157 154 157 174 183 175 163 146 113 79 71 66 76 64 50 37 11 10 16 15 13 13 14 14 12 10 16 17 18 19 19 17 16 15 3 2 2 2 3 5 8 10 16 22 30 34 37 40 45 49 47 52 59 66 70 77 82 85 89 92 95 97 99 101 104 107 108 109 111 113 116 119 121 121 120 120 121 121 123 124 125 125 122 122 123 123 123 122 122 121 119 118 117 116 116 115 116 117 116 117 117 115 114 112 112 113 114 114 114 114 114 115 115 115 116 117 118 118 117 117 120 122 119 118 117 116 116 116 117 117 117 115 113 109 103 97 92 89 82 80 78 76 75 74 71 69 65 65 65 64 63 62 60 59 60 59 59 59 59 58 59 57 57 58 61 61 59 56 52 49 53 53 54 54 55 56 57 58 57 57 60 60 59 59 60 62 66 67 69 71 73 73 73 72 70 72 72 74 73 73 72 72 68 69 69 69 68 67 66 65 65 62 60 58 54 52 50 48 42 43 41 38 34 30 27 24 30 19 14 25 50 83 116 139 151 150 138 122 112 108 98 85 88 93 97 96 88 72 54 43 48 58 70 77 79 78 81 83 83 80 73 65 61 62 68 73 69 64 56 50 48 51 56 60 57 59 61 66 72 79 86 91 99 102 105 106 111 114 110 104 104 100 97 95 98 102 105 106 100 102 105 110 116 121 126 129 127 126 122 121 120 122 125 126 133 136 142 145 145 141 136 132 126 124 122 121 123 127 132 136 149 153 158 163 164 162 158 155 
32 31 29 26 24 23 22 22 15 15 15 15 15 15 15 15 13 18 22 21 17 16 18 22 22 42 66 84 101 123 145 157 173 173 174 176 176 176 175 174 173 172 170 168 167 166 166 165 163 160 154 148 142 137 135 134 138 148 153 149 143 145 150 153 168 173 169 153 132 116 99 87 79 73 62 48 34 22 13 10 7 10 11 10 8 7 8 10 14 14 16 18 20 19 15 12 2 1 2 3 3 4 5 7 15 20 26 33 37 40 44 46 48 52 59 65 71 77 82 85 90 92 94 97 101 104 107 108 107 109 112 115 117 119 120 121 125 125 125 125 125 125 124 124 121 122 123 123 124 124 123 123 122 120 117 116 116 117 115 113 121 120 119 118 116 115 114 113 114 114 114 115 115 116 116 116 117 116 115 115 116 118 119 121 121 121 121 120 121 119 119 117 117 114 110 106 102 98 92 88 85 82 79 77 75 73 69 68 69 67 66 66 65 64 63 63 62 62 61 61 61 60 60 60 56 56 57 57 56 55 53 52 50 53 55 56 56 56 57 59 62 64 65 64 62 61 62 63 64 65 66 69 70 70 70 70 73 72 73 74 76 75 72 71 71 71 69 70 69 68 64 61 58 56 55 54 54 52 49 45 43 40 38 38 33 25 21 21 24 23 28 46 75 106 131 143 149 139 127 119 109 101 99 100 101 94 85 77 70 62 53 47 52 61 72 79 80 81 84 88 81 76 70 64 63 63 63 63 65 60 55 52 52 53 54 54 56 57 61 69 79 86 86 86 92 99 104 107 108 112 110 106 104 103 99 99 101 103 103 103 99 100 105 113 118 120 125 131 129 127 123 120 120 122 125 127 135 136 139 141 141 140 138 137 132 130 126 122 121 123 129 133 144 148 153 159 162 162 161 159 
18 17 15 13 11 10 9 9 10 10 10 11 11 11 12 12 16 19 21 20 17 19 24 30 47 67 91 108 124 143 162 171 178 178 177 176 174 172 171 170 171 170 169 167 166 165 165 164 160 156 151 144 137 133 130 129 133 144 153 148 141 142 149 155 157 163 153 123 94 86 96 107 89 74 53 36 25 20 13 9 8 10 11 11 9 8 10 11 14 14 16 18 20 19 15 12 2 1 2 2 3 4 5 7 13 18 25 31 35 39 42 45 46 51 58 64 70 75 80 84 88 89 92 96 99 103 106 107 108 110 112 115 117 119 120 120 124 124 125 125 125 125 125 125 122 122 123 124 124 124 124 124 123 121 118 117 119 118 117 116 120 120 119 117 116 115 114 114 114 114 114 115 115 116 116 116 116 116 115 115 115 117 118 119 119 119 120 120 120 119 119 118 114 111 108 105 102 99 93 90 85 82 79 77 76 74 71 67 69 68 67 66 65 64 63 63 63 62 62 62 61 61 61 60 58 58 59 59 58 56 55 54 52 54 56 56 56 56 57 59 63 65 65 65 64 64 65 65 65 66 68 70 71 71 71 72 74 74 74 75 76 76 72 70 68 67 67 67 67 66 63 60 57 54 53 52 52 50 46 43 42 37 34 35 32 27 24 24 25 29 41 66 97 127 148 159 150 137 121 109 101 100 107 117 110 100 86 72 61 54 50 47 59 65 73 79 82 83 84 85 76 74 71 68 68 66 62 61 63 60 56 54 54 54 52 51 54 56 62 71 81 86 86 84 86 93 100 103 106 110 110 106 103 100 97 97 98 101 102 102 101 101 105 112 117 119 123 129 127 125 122 121 121 124 127 130 136 137 138 140 140 139 138 138 133 131 128 124 123 125 130 134 144 147 152 156 159 159 158 158 
14 13 11 9 7 7 6 6 10 10 11 12 13 14 15 16 18 18 18 17 18 25 36 44 73 93 116 132 145 159 172 178 180 179 176 173 170 169 169 168 169 168 167 165 164 163 163 162 159 156 150 143 136 131 128 126 133 146 156 150 140 140 148 154 156 149 125 91 68 73 98 120 91 74 51 36 29 24 17 10 8 11 12 11 10 9 10 12 14 14 15 17 19 18 15 12 2 2 2 2 3 4 5 7 11 16 22 28 32 36 39 42 44 49 56 62 67 73 78 82 85 87 90 94 98 102 105 107 109 110 112 115 116 118 118 118 124 124 125 125 125 125 125 125 123 123 124 124 126 126 125 125 124 122 119 118 119 119 118 117 120 119 118 117 116 115 114 114 114 114 114 115 115 115 115 116 116 115 115 115 115 115 116 117 116 117 118 118 118 118 118 117 111 108 105 103 102 99 94 90 84 82 79 77 76 75 72 68 70 69 68 67 66 66 65 64 64 64 64 63 63 62 62 61 61 60 61 61 60 59 57 56 56 57 60 60 59 58 59 61 64 66 68 69 68 68 69 70 68 69 71 72 73 73 73 73 75 75 75 76 77 76 72 69 65 64 65 65 66 65 61 59 55 52 51 50 50 48 44 41 40 33 29 31 31 28 25 25 21 32 54 85 116 141 155 161 148 133 117 103 96 96 110 124 125 113 94 73 59 53 54 57 67 69 73 78 82 83 81 78 75 75 75 77 78 75 69 66 61 59 56 55 56 54 52 50 54 58 66 76 84 87 85 82 81 88 96 99 104 109 109 106 101 97 93 91 93 97 98 99 98 96 100 107 112 114 119 124 125 123 121 121 122 125 129 131 135 135 136 136 137 137 137 137 133 132 130 127 125 126 130 133 142 144 147 150 152 153 153 153 
16 15 14 12 11 11 11 11 11 12 13 14 16 17 18 19 21 19 19 22 29 44 61 73 98 116 137 151 160 169 176 179 178 175 172 169 167 168 169 171 167 166 164 163 162 162 162 161 163 159 153 146 139 135 132 130 138 151 161 155 144 142 148 153 156 127 88 63 63 79 95 103 83 73 62 53 46 35 21 10 7 10 11 11 9 9 10 12 15 15 15 17 18 17 14 11 2 2 2 2 2 3 4 5 9 14 19 24 28 32 36 39 43 47 53 60 65 71 76 80 84 86 90 93 98 103 106 108 110 110 112 114 116 117 117 117 123 124 124 125 125 126 126 127 124 124 125 126 127 127 127 126 125 122 120 119 119 119 119 117 119 119 119 118 117 116 115 115 115 115 115 115 115 115 115 116 116 115 115 115 114 114 115 115 114 114 115 116 116 116 116 115 110 107 104 102 101 97 92 89 84 82 79 77 77 76 73 70 74 72 71 70 69 68 68 67 66 65 65 64 65 64 64 64 62 62 63 63 62 60 58 57 60 62 64 64 63 62 63 65 64 66 69 71 71 71 71 72 72 72 72 73 74 75 75 75 77 76 76 76 77 75 71 68 63 63 64 65 65 65 62 58 55 52 51 50 50 48 44 42 39 32 28 30 31 28 23 22 22 40 68 101 128 144 148 147 136 125 112 102 93 93 105 118 131 120 100 78 63 59 64 71 77 74 73 76 80 80 75 70 68 70 72 76 79 78 74 71 61 58 55 54 55 55 55 53 60 65 74 82 87 88 84 81 83 90 97 101 105 110 110 106 100 96 90 87 88 90 92 93 89 87 90 98 105 109 114 119 124 122 120 119 120 122 125 127 131 131 131 130 131 132 133 133 130 130 130 128 126 126 128 130 136 137 139 142 144 145 146 147 
13 12 11 10 10 10 10 10 11 11 12 13 14 15 15 16 20 20 24 32 48 70 92 106 18 39 157 166 172 177 180 179 177 174 170 166 164 165 167 168 165 164 163 162 161 161 161 160 164 161 155 149 143 140 136 135 141 152 161 160 154 153 154 154 139 101 59 43 56 75 84 84 80 77 71 62 49 33 19 10 6 9 10 10 9 9 10 12 16 15 15 16 17 16 13 11 3 3 2 2 2 3 4 5 7 11 18 21 26 29 33 37 41 45 52 58 64 69 74 78 84 86 90 94 99 103 106 108 109 110 111 113 115 116 117 117 122 123 123 124 126 127 127 127 125 126 127 127 129 129 128 128 125 123 120 119 119 119 119 118 119 119 118 118 117 116 116 116 116 116 116 116 115 115 115 115 115 115 115 114 114 114 113 113 112 112 113 114 114 113 113 112 110 107 104 101 99 94 89 86 84 82 80 79 79 77 76 73 76 77 76 74 72 71 70 70 68 68 67 66 66 65 65 66 63 63 64 64 64 62 60 59 62 64 66 66 65 64 64 65 63 67 71 72 72 72 72 73 73 74 74 74 75 76 77 77 78 77 77 77 77 75 71 68 64 64 64 65 66 66 63 59 56 54 52 52 51 49 45 42 39 33 30 31 32 27 24 23 37 57 88 119 140 146 142 136 122 111 100 93 88 90 103 115 124 116 102 85 73 71 78 85 87 82 77 77 79 77 71 64 58 59 61 64 69 71 69 68 62 57 53 51 53 57 61 61 69 75 82 88 90 88 84 82 90 97 103 106 109 113 112 108 102 97 90 86 85 87 88 89 84 81 83 93 103 110 115 120 124 123 120 118 117 117 118 119 125 124 124 124 124 125 126 127 125 126 127 127 125 125 126 127 130 131 133 136 138 140 141 142 
12 11 11 10 10 10 11 11 16 16 16 15 15 15 15 15 11 15 23 40 63 89 113 127 33 71 168 172 174 176 177 175 178 175 170 165 162 161 162 163 164 163 162 161 161 161 161 160 161 159 154 150 146 143 141 140 140 147 155 159 164 166 160 152 116 87 56 48 59 74 85 91 87 79 65 48 31 19 13 10 6 9 11 11 10 10 12 14 17 15 14 15 16 15 13 11 5 3 3 2 2 3 4 4 7 11 16 19 23 28 32 35 40 44 51 57 63 68 74 77 85 87 90 94 98 102 105 107 108 109 110 112 115 116 117 117 121 122 123 124 126 127 127 128 127 127 128 129 130 130 130 130 127 124 122 121 121 121 120 119 121 120 120 120 119 119 118 118 118 118 118 117 117 117 117 116 116 116 116 116 115 114 113 112 111 111 111 112 111 110 109 108 109 106 102 100 97 93 88 84 86 84 82 81 81 80 78 76 78 6 30 76 74 73 72 72 69 69 69 68 68 67 67 67 64 65 66 66 65 63 61 60 60 62 64 64 63 63 64 65 65 69 72 74 74 73 73 74 75 75 75 75 75 76 77 78 79 78 78 77 77 75 70 67 66 65 66 66 66 66 63 59 57 55 54 53 51 51 46 44 39 34 32 33 32 30 32 37 61 79 108 134 147 145 135 128 108 96 83 79 80 89 105 117 116 110 102 93 88 90 96 101 97 91 83 79 78 74 67 61 56 56 57 60 64 66 66 66 60 55 50 50 54 62 68 70 76 82 87 90 90 88 86 86 96 103 109 110 113 115 114 109 105 100 93 89 88 89 89 89 87 83 85 96 108 116 122 127 125 123 120 117 115 113 113 113 117 118 118 119 119 119 119 120 118 121 125 126 125 124 124 125 127 129 133 136 139 141 142 142 
15 14 14 14 14 14 15 16 21 20 19 18 16 15 14 13 10 17 31 54 82 110 133 145 160 168 174 27 172 173 173 171 174 172 168 165 162 161 161 161 164 163 162 161 161 161 161 161 159 157 154 151 150 148 147 147 144 145 148 157 169 172 157 139 100 83 69 74 89 100 105 107 89 72 48 25 13 9 9 11 9 11 13 13 13 13 15 16 17 16 14 14 15 14 12 10 4 3 3 2 2 3 3 4 7 10 15 19 21 26 31 34 39 45 51 57 62 68 73 77 85 86 89 93 96 99 103 104 106 108 110 113 114 116 118 118 120 121 122 124 125 127 128 129 128 128 129 130 132 131 131 131 130 127 125 124 124 124 123 121 122 122 122 121 121 121 120 120 120 120 120 119 119 118 118 118 118 118 118 118 116 114 113 112 111 111 111 110 109 107 106 105 105 103 101 98 96 93 88 85 87 85 83 83 83 83 81 79 77 44 77 76 75 73 73 72 71 71 71 71 69 69 69 68 66 66 67 67 66 66 64 62 60 62 65 66 65 65 66 67 68 72 76 77 77 76 76 76 77 76 76 76 76 76 77 78 80 79 78 78 77 75 70 67 67 66 66 66 66 65 61 57 57 56 54 53 51 50 46 44 39 35 32 32 31 36 49 63 92 107 129 146 150 141 126 117 96 84 74 75 82 91 100 109 105 101 94 91 94 99 106 109 100 94 86 79 73 67 61 56 59 59 60 62 64 64 61 60 54 52 50 52 58 66 73 76 80 84 87 88 88 88 90 92 97 104 110 111 114 117 115 110 106 103 98 96 96 96 96 95 94 89 89 100 112 121 126 131 125 123 121 117 115 113 112 111 112 113 115 116 117 116 115 114 114 118 123 126 126 125 125 125 128 132 137 142 146 147 147 147 
16 15 15 15 15 16 17 17 19 18 16 14 12 9 8 7 20 28 46 72 102 131 152 163 171 177 179 175 75 174 173 171 168 167 165 164 163 163 164 164 163 163 162 161 161 161 162 162 160 158 156 154 153 153 152 153 150 146 145 155 170 171 149 124 93 79 75 96 122 130 122 111 84 62 33 12 6 8 11 12 11 13 15 16 15 15 17 19 18 16 14 14 14 14 12 10 4 4 3 2 2 2 3 3 6 10 15 19 21 25 30 34 39 44 51 57 63 68 73 77 84 85 88 91 95 98 99 102 105 107 109 112 114 116 118 119 120 121 122 124 125 127 128 129 128 129 130 131 132 132 132 131 132 130 127 126 127 127 125 124 123 123 123 122 122 122 122 122 122 121 121 121 120 119 119 119 118 119 119 119 117 115 113 112 111 111 110 109 108 106 104 103 102 101 99 97 96 94 90 87 88 86 84 84 85 84 83 80 77 77 76 75 73 72 71 71 72 72 72 71 71 70 69 69 68 68 69 69 68 67 66 65 63 65 67 68 68 68 70 71 71 75 78 80 79 77 76 76 77 76 76 75 76 76 77 78 81 79 78 78 77 75 70 66 67 66 66 66 66 63 60 56 57 55 53 52 51 49 46 43 38 35 31 30 31 42 64 84 121 133 149 158 155 140 123 111 87 78 74 81 90 93 93 93 92 86 80 80 86 95 102 105 98 93 84 75 67 60 54 51 58 58 59 61 61 58 54 50 50 49 50 55 62 70 76 77 80 83 85 86 86 88 92 97 96 102 109 111 113 117 115 111 107 104 102 101 102 103 102 102 98 92 91 102 114 122 127 131 126 123 121 118 116 114 113 113 110 111 114 116 116 115 113 112 112 117 123 126 127 126 126 126 131 135 141 148 152 153 153 152 
17 17 17 16 16 15 15 15 18 14 12 13 11 9 12 19 37 54 79 105 128 147 162 171 178 177 176 174 173 173 6 30 166 165 164 164 164 167 169 171 173 170 164 159 156 156 157 158 158 159 158 156 158 163 164 160 153 147 150 165 176 167 143 124 104 97 94 106 127 134 116 92 72 55 32 14 9 9 11 12 9 13 17 17 15 14 16 19 20 20 20 19 16 13 10 8 5 3 1 1 2 3 3 3 6 7 11 14 17 21 29 33 41 45 52 58 62 66 70 72 81 83 86 89 93 97 100 101 105 108 112 114 115 115 116 117 121 121 122 124 125 126 128 128 131 130 129 128 130 131 132 133 134 134 134 133 133 132 132 132 129 129 127 126 124 122 121 120 121 120 119 119 119 120 120 121 119 119 117 116 114 113 111 111 110 108 106 105 105 104 101 99 101 99 96 95 95 93 90 88 88 88 87 86 85 85 84 6 30 80 79 77 76 74 73 73 74 74 74 75 74 74 74 73 73 72 71 69 68 66 64 64 65 67 69 71 73 74 73 73 75 75 76 77 78 79 79 79 77 77 77 77 77 77 77 77 79 79 79 78 75 72 68 66 72 69 66 64 63 61 59 56 55 53 51 51 52 50 45 40 36 30 29 34 41 56 81 104 130 146 158 158 150 137 120 104 77 73 74 86 97 98 84 69 61 66 71 76 86 97 101 99 93 88 78 68 59 54 52 50 57 59 61 61 57 52 50 49 55 54 55 58 63 70 76 80 80 81 83 86 89 92 93 94 94 97 102 106 107 108 110 111 110 106 102 102 103 103 101 98 92 91 93 100 110 119 123 124 125 122 118 114 113 115 118 120 117 118 118 117 119 121 117 109 108 112 117 120 122 122 123 124 136 142 150 154 155 155 157 159 
15 15 15 16 16 16 17 17 18 15 13 13 12 14 24 36 67 83 106 128 146 160 171 177 182 181 180 178 176 175 44 172 167 165 163 162 163 166 170 173 175 172 167 162 158 157 157 158 160 161 161 159 162 168 169 166 161 158 160 167 169 157 141 130 115 112 109 110 113 108 87 66 59 45 27 16 14 14 16 15 11 13 16 16 14 14 15 17 20 20 20 19 17 14 12 10 5 3 1 1 2 3 3 3 5 8 11 14 17 21 28 32 40 45 51 57 61 65 69 72 80 82 85 88 92 96 99 101 104 107 111 114 114 115 116 117 120 121 122 124 125 127 129 130 131 130 129 129 130 131 132 133 134 134 134 133 133 132 132 132 131 130 129 128 126 124 123 122 121 120 119 118 118 119 119 119 120 119 118 117 115 114 113 112 111 110 108 107 107 106 103 101 102 99 97 95 95 94 90 89 89 88 88 87 86 85 85 44 81 82 81 80 78 77 77 77 79 79 79 78 78 78 77 77 76 74 74 72 71 69 69 67 69 69 72 73 75 75 75 75 75 76 76 77 78 78 78 78 77 77 77 77 77 77 77 77 78 78 78 77 75 72 68 66 70 67 65 63 62 61 59 57 56 53 48 48 48 47 44 41 35 32 34 41 53 71 97 120 141 150 157 156 150 138 118 101 76 74 78 88 96 90 69 51 44 57 72 82 90 97 99 97 92 85 75 65 59 54 51 49 55 57 59 58 54 51 47 46 52 55 59 63 66 71 76 80 80 82 86 89 91 92 91 90 92 93 96 98 101 104 107 110 112 108 104 103 104 104 101 98 93 91 92 98 106 113 116 116 116 113 110 108 109 112 116 119 120 121 120 118 120 122 117 109 102 106 112 116 119 121 124 127 138 145 154 159 159 157 156 157 
14 14 15 15 16 17 17 17 18 15 12 11 12 22 43 62 104 117 137 154 165 172 177 180 183 183 183 181 179 176 173 171 168 25 21 158 160 165 171 175 178 175 171 166 162 159 158 158 159 161 160 160 163 171 173 170 169 169 171 169 161 145 137 135 136 137 134 124 112 97 77 61 48 37 25 18 17 18 18 16 12 13 15 14 13 13 14 15 19 20 20 20 18 16 14 12 6 4 1 1 2 3 3 3 5 8 10 12 16 21 26 31 39 43 50 55 59 63 67 70 78 80 83 87 91 95 98 100 103 106 110 112 113 115 117 119 120 120 123 125 127 129 131 132 130 130 129 129 131 132 133 134 134 134 134 134 133 133 133 133 133 132 131 130 128 127 126 125 122 121 120 119 118 118 119 119 120 119 119 118 117 116 115 114 114 111 110 109 109 109 106 104 102 101 98 97 96 95 91 90 91 90 90 89 88 87 87 87 84 84 84 84 83 83 81 81 79 79 79 78 78 77 77 77 78 78 76 76 74 74 73 73 74 74 74 76 76 77 75 75 76 76 77 78 78 78 77 77 78 78 78 78 78 78 78 78 77 77 76 75 74 71 68 67 67 64 62 61 60 60 58 56 55 52 46 44 43 42 42 41 37 36 41 51 67 90 117 139 150 154 154 150 143 129 108 90 76 80 88 95 96 80 55 37 34 55 79 93 98 101 100 98 87 79 68 62 60 57 52 48 53 55 57 56 52 47 44 42 50 56 63 67 67 69 75 80 81 85 91 95 97 95 91 89 95 93 93 94 98 103 110 114 113 109 104 103 103 103 100 96 91 89 88 93 100 104 105 105 102 101 100 100 103 108 114 118 123 124 122 120 121 122 116 108 97 100 106 110 115 119 124 128 140 147 156 160 158 154 152 151 
15 15 15 15 15 15 15 15 14 11 9 9 13 31 61 88 129 141 157 170 175 176 176 176 181 182 183 183 181 178 174 172 168 7 4 155 156 162 169 174 179 178 175 171 167 163 160 159 157 159 159 158 161 169 172 170 170 172 173 170 154 136 124 156 138 140 137 126 113 100 85 74 48 38 25 18 17 16 15 13 13 13 13 13 12 12 13 14 19 20 20 20 19 17 15 14 7 4 1 1 4 3 3 3 5 7 10 12 15 20 25 30 37 41 48 54 58 62 65 68 76 78 81 85 89 93 95 97 101 104 108 110 112 114 117 119 122 123 125 126 127 128 129 129 129 129 130 130 132 133 133 134 134 134 134 134 134 134 134 134 133 133 132 131 129 128 127 126 125 124 123 122 121 121 121 121 121 120 119 118 117 117 116 116 115 113 111 111 111 111 109 107 105 103 101 100 99 98 94 92 93 93 92 92 91 91 90 90 86 86 86 86 86 85 85 85 81 81 81 80 79 79 78 78 80 79 79 78 78 77 77 77 77 77 77 77 77 77 77 76 77 77 78 78 78 77 76 76 79 79 79 79 79 79 79 79 76 76 75 74 72 71 69 68 64 63 60 59 59 58 57 56 52 50 46 44 42 41 39 38 39 41 46 59 78 105 133 152 157 156 153 144 130 111 91 78 84 94 106 108 95 74 52 39 40 58 80 92 98 99 97 93 78 70 62 59 61 61 55 49 51 53 55 54 50 45 42 41 48 56 63 65 63 65 72 80 82 88 97 104 106 103 97 93 94 90 87 87 92 101 110 115 111 106 101 99 100 98 95 91 84 82 82 86 93 97 97 95 91 91 91 94 98 106 113 117 124 124 122 119 120 120 114 106 95 98 102 106 110 116 121 126 138 143 148 149 145 141 139 139 
19 18 17 16 14 13 12 11 9 6 5 8 17 41 78 108 140 151 165 175 177 175 173 172 176 178 179 180 180 178 175 173 167 163 158 154 155 45 95 171 178 178 177 175 171 167 163 161 158 159 157 155 158 166 168 166 170 172 173 49 63 125 156 190 106 109 106 98 92 88 80 72 52 40 25 16 13 13 14 12 14 13 11 11 12 13 14 14 19 20 20 20 19 17 15 14 8 5 3 2 4 4 3 3 5 6 9 11 14 19 24 29 35 39 46 51 56 60 63 66 73 75 78 83 87 92 95 96 100 102 106 108 110 113 117 119 125 125 125 125 126 126 126 126 129 129 130 131 133 134 134 134 134 134 134 134 134 134 134 134 133 133 132 131 130 129 128 127 129 129 128 127 126 126 126 127 122 122 121 121 120 119 118 118 118 116 114 114 114 114 112 110 109 107 105 103 103 102 99 97 97 97 96 95 95 94 27 94 89 89 89 88 88 88 88 88 89 88 88 87 86 85 84 84 82 82 81 81 80 80 79 79 79 79 78 78 78 78 78 78 77 77 78 78 78 77 76 76 79 79 79 79 79 79 79 79 77 76 75 73 72 71 69 69 63 61 59 57 57 57 56 54 48 48 48 46 42 40 36 35 38 43 52 68 91 120 147 162 159 159 154 140 118 96 83 78 104 117 128 121 96 70 54 48 52 62 72 80 86 90 87 80 70 64 59 60 65 66 60 53 51 53 56 55 51 47 44 43 50 56 60 60 56 59 69 78 82 90 102 111 114 111 104 99 87 82 77 78 85 95 105 110 108 103 98 95 94 93 89 85 77 75 76 81 89 93 94 91 87 87 88 91 96 104 112 117 122 122 120 118 119 119 113 105 98 100 104 107 109 113 118 121 129 131 132 129 124 121 122 124 
20 19 18 16 13 11 9 9 7 4 5 12 27 55 93 123 147 157 170 177 179 176 174 173 174 175 176 177 177 176 174 173 167 165 161 158 158 41 55 168 124 156 177 178 176 172 167 164 162 161 157 153 154 161 163 160 166 169 171 11 11 112 88 77 78 80 78 73 71 70 67 61 54 41 25 14 12 14 15 14 14 12 10 11 13 15 16 16 19 20 20 20 18 16 14 12 8 6 4 3 4 5 3 2 5 6 9 10 12 18 23 27 33 37 44 50 54 58 61 64 71 73 76 81 85 90 93 94 98 100 104 106 109 112 117 119 124 124 124 124 125 125 124 124 128 129 130 132 134 134 134 134 134 134 134 134 135 135 135 135 133 133 132 132 131 130 129 129 132 132 131 131 131 131 132 132 127 127 125 124 122 121 120 120 121 119 118 117 118 118 116 114 115 113 110 109 108 107 104 102 101 101 101 100 99 98 98 75 93 93 92 92 91 91 90 90 91 91 90 89 88 86 86 85 84 84 83 82 81 80 79 79 78 78 78 77 77 78 78 78 76 76 77 78 78 78 77 77 80 80 80 80 80 80 80 80 78 78 76 74 72 71 69 69 63 62 59 57 57 56 55 53 47 49 50 48 43 40 36 34 38 49 66 87 113 140 159 167 156 152 144 127 105 88 85 91 124 134 139 127 97 71 58 56 65 70 73 76 81 85 82 75 67 64 65 69 72 72 65 59 52 55 58 58 55 51 49 48 54 57 59 59 57 61 70 77 81 90 103 113 117 114 107 101 85 80 76 77 86 97 106 110 107 102 96 93 92 89 85 81 73 73 75 81 89 94 95 92 89 88 89 91 96 103 110 115 119 120 119 117 119 120 115 107 102 104 107 109 111 112 115 118 120 121 121 118 114 113 116 119 
19 18 17 15 13 11 10 9 9 6 8 19 40 70 106 134 153 162 173 179 180 178 176 176 175 175 175 174 174 173 173 172 169 168 166 165 164 164 165 165 156 190 177 179 178 41 171 168 45 95 156 18 39 153 154 27 154 161 168 164 137 102 76 65 76 81 83 79 73 70 66 60 57 43 27 16 13 14 13 12 14 12 9 10 14 18 19 19 20 20 20 19 17 14 12 10 9 7 4 4 4 5 3 2 4 6 8 10 12 16 22 26 31 36 42 48 52 56 60 63 69 71 74 79 84 89 92 94 97 99 102 105 107 112 117 120 121 121 121 122 123 124 125 126 127 129 131 133 134 134 134 134 134 134 134 135 135 136 136 136 135 135 134 134 133 132 132 131 133 133 132 133 133 134 136 136 134 133 131 129 127 124 123 122 124 123 121 121 122 121 121 119 120 118 115 114 113 112 110 107 105 105 104 104 103 102 102 101 98 98 97 96 95 94 93 93 91 91 90 89 87 86 85 85 85 85 83 82 81 79 78 78 78 77 76 75 76 77 78 78 75 76 77 77 78 78 78 78 81 81 81 81 81 81 81 81 81 79 77 74 72 71 69 69 65 63 59 57 57 56 53 53 50 52 51 47 42 39 37 38 48 66 91 115 139 158 165 163 142 130 114 99 85 79 89 102 131 134 133 122 100 78 64 59 67 74 81 82 83 83 81 76 71 73 76 79 80 76 69 63 54 57 61 62 60 57 55 55 59 61 62 63 64 67 73 77 79 88 101 111 115 111 102 96 86 82 79 82 92 103 110 112 110 105 98 95 93 90 85 81 75 75 78 84 93 98 98 95 93 92 91 92 95 101 107 111 117 118 118 117 120 123 118 111 104 107 111 113 114 114 115 117 117 120 122 122 121 121 125 129 
17 17 16 15 13 12 11 11 11 8 11 26 49 80 114 140 156 164 174 180 180 178 178 178 178 177 175 174 172 171 171 172 171 171 171 170 169 167 165 164 167 171 176 179 180 177 173 170 41 55 153 33 71 145 145 141 75 152 165 162 133 97 74 67 85 95 102 96 86 78 73 70 60 46 30 20 15 13 9 6 14 11 9 10 15 19 21 21 20 20 20 19 16 13 10 8 10 7 5 3 5 4 3 2 4 6 7 9 11 17 21 26 30 35 42 47 52 55 59 62 68 70 73 78 83 88 92 93 96 98 101 104 107 111 117 120 118 118 119 121 123 125 127 128 127 128 131 133 134 135 134 134 134 134 134 135 135 136 136 136 137 137 136 136 135 134 134 134 132 132 132 133 134 136 137 138 139 138 136 133 130 128 126 124 127 126 124 124 125 125 123 122 123 121 118 117 116 115 113 110 108 107 107 106 105 17 104 103 102 102 100 99 98 96 95 95 96 95 94 93 92 91 90 89 86 85 84 82 80 78 78 77 76 75 74 74 74 76 77 78 75 75 77 77 78 79 79 79 81 81 81 81 81 81 81 81 83 81 78 75 72 70 69 69 66 64 60 58 57 55 53 51 54 53 51 47 41 39 39 42 61 83 112 137 158 168 165 155 126 107 85 71 66 71 89 106 127 125 122 113 102 86 71 61 57 71 83 85 82 79 77 74 75 79 85 88 87 79 71 65 56 59 63 65 63 61 59 59 62 64 65 68 71 74 76 76 77 86 99 109 111 107 98 91 83 79 76 82 93 103 108 109 113 108 101 97 95 92 87 83 79 79 81 88 96 101 101 98 96 95 93 93 95 99 104 108 115 118 118 118 122 125 121 114 103 108 113 116 116 115 116 116 119 124 130 133 134 135 139 143 
10 9 8 7 8 9 11 12 11 9 15 32 57 87 117 138 159 163 168 171 173 174 176 178 178 177 177 176 177 179 180 182 177 175 173 172 170 170 171 171 168 169 170 173 174 172 166 162 153 147 144 148 148 142 139 137 127 135 147 150 128 94 68 59 76 89 94 89 95 106 95 73 42 31 19 15 16 13 11 12 10 11 11 14 15 18 19 20 22 22 20 21 21 20 15 13 7 4 1 1 1 2 2 2 3 4 5 8 10 15 21 26 28 33 39 44 49 54 59 62 67 68 70 75 79 85 90 92 96 99 102 104 106 108 112 114 116 117 119 121 124 127 128 129 123 124 127 130 132 133 132 131 135 135 135 135 136 137 138 139 139 139 139 140 140 141 141 142 139 138 137 138 139 139 137 135 136 135 134 133 131 129 128 128 127 126 126 124 123 122 121 121 121 121 120 121 122 122 120 118 116 115 114 113 30 158 109 108 102 101 101 100 100 99 98 98 98 97 96 95 96 95 92 90 87 87 86 85 83 81 79 77 76 76 76 77 77 76 75 75 72 73 75 77 79 80 80 80 80 80 79 79 79 78 78 78 78 75 73 72 72 70 67 66 64 63 60 56 53 51 50 48 47 46 46 47 44 40 43 48 70 100 132 150 160 165 159 148 125 103 73 60 67 84 98 106 116 115 109 102 92 84 75 71 65 73 81 83 81 78 75 72 76 80 83 83 78 73 69 70 61 65 70 66 60 55 58 61 74 78 81 80 81 83 81 77 85 95 104 108 105 98 92 90 82 81 82 84 90 99 111 119 114 110 103 97 92 88 84 82 80 82 88 95 101 103 101 99 100 99 98 97 96 100 105 108 114 115 117 118 116 112 107 104 100 101 106 112 114 112 113 118 126 132 142 151 156 157 156 155 
14 13 11 8 6 6 5 5 6 6 15 35 62 90 118 138 158 162 167 170 172 173 175 177 179 179 178 177 177 178 179 180 176 175 175 174 173 172 172 172 170 171 172 174 174 170 163 158 149 144 142 144 143 138 134 133 121 130 142 143 123 91 69 61 70 79 86 95 111 120 103 76 37 26 18 15 16 12 10 10 7 8 10 12 15 17 19 20 20 19 19 21 22 21 18 17 8 4 1 1 1 1 2 2 3 5 7 8 10 16 21 26 29 33 39 45 49 54 59 62 67 68 71 75 79 85 90 92 95 98 101 104 105 108 111 114 115 116 118 120 124 126 128 129 124 125 128 131 132 133 132 131 135 134 134 135 135 137 138 139 138 138 139 139 140 140 140 141 138 137 137 138 140 140 139 137 137 137 136 135 134 133 132 131 128 127 126 125 124 123 122 121 122 122 121 122 123 123 121 119 115 25 21 113 112 111 110 110 102 102 102 101 100 99 99 99 99 98 96 96 97 96 93 91 90 90 89 88 86 84 82 81 77 77 78 78 77 76 75 74 77 78 79 81 81 81 81 81 81 81 80 80 80 79 79 79 78 75 72 71 71 69 66 64 62 61 58 55 52 51 50 48 43 42 44 47 46 45 52 59 87 114 143 158 164 165 156 143 118 100 80 74 80 92 96 97 94 93 90 87 83 79 75 73 77 81 85 85 81 78 75 74 77 79 80 78 73 68 66 66 63 66 69 65 58 55 57 62 74 81 86 88 89 90 86 80 85 93 103 107 103 96 91 88 83 82 80 80 84 92 101 108 108 105 101 97 93 89 86 84 83 85 89 95 100 102 101 99 99 98 98 98 98 100 105 108 112 114 116 117 115 111 106 102 97 98 104 112 114 111 112 116 124 132 145 156 164 167 168 168 
12 11 8 6 4 2 0 0 5 7 19 42 69 96 122 140 157 161 166 169 171 172 174 176 181 180 178 177 176 176 176 176 174 175 176 176 175 174 173 172 172 173 173 174 173 168 161 155 146 141 140 142 139 132 128 127 123 132 141 138 116 89 71 66 69 77 92 114 132 127 95 62 30 21 17 16 17 12 9 9 7 8 10 12 15 17 19 20 19 18 19 21 23 23 21 20 10 7 3 2 1 2 3 3 4 5 8 9 11 16 21 25 29 33 40 45 50 54 59 63 67 69 71 76 80 85 89 92 94 97 100 103 105 107 111 113 115 115 117 120 123 125 127 128 124 126 128 131 132 133 132 132 134 134 134 134 135 136 138 138 137 137 138 138 138 139 139 139 141 140 139 139 140 140 138 136 136 136 136 135 135 134 134 134 129 128 127 126 125 124 123 123 124 124 123 124 125 124 122 120 115 7 4 114 113 112 112 112 104 104 103 102 101 100 100 99 100 99 98 98 98 97 94 92 92 91 91 89 87 85 84 83 80 80 80 79 78 76 75 74 80 81 81 81 81 81 80 80 80 80 80 79 79 78 78 78 78 75 72 70 67 65 63 60 59 58 55 53 51 49 49 48 44 42 44 46 49 53 64 75 106 130 154 165 165 159 144 130 106 97 90 93 98 98 86 76 62 63 65 68 72 75 76 77 85 85 84 82 79 76 76 78 81 81 78 74 68 63 62 62 65 67 69 65 59 57 61 66 79 87 94 97 98 98 93 86 86 93 102 105 100 94 89 88 86 84 79 76 77 81 88 94 99 99 98 96 94 92 90 88 87 88 91 95 99 101 100 99 96 96 98 99 99 101 105 108 111 113 116 117 115 110 104 101 93 95 101 109 111 110 111 116 128 137 151 163 170 173 173 173 
12 11 9 8 6 4 3 2 7 10 23 47 74 101 127 145 157 161 165 169 171 172 174 176 181 180 178 176 174 173 171 171 171 172 175 176 176 175 174 172 172 172 172 172 171 167 160 155 147 143 142 142 137 128 123 122 135 143 148 138 114 91 80 78 83 95 117 137 138 110 66 33 24 19 17 19 20 14 11 10 9 10 11 13 14 16 17 18 20 20 20 22 24 23 21 20 12 10 7 4 3 3 4 5 4 6 8 10 13 16 21 25 29 33 39 45 50 54 59 63 67 69 72 77 81 85 89 91 92 95 99 102 104 106 110 113 113 114 116 118 122 124 126 127 125 126 128 130 131 132 132 132 134 134 134 134 135 136 137 138 137 137 137 137 137 137 137 137 144 142 141 140 140 139 136 133 133 133 133 133 134 134 134 134 130 130 129 128 127 125 125 124 126 126 25 21 126 125 49 63 115 115 115 114 114 114 114 114 106 106 105 104 103 102 101 100 101 100 99 99 99 98 95 93 90 90 89 88 87 84 83 82 82 82 82 81 79 77 76 75 77 78 78 79 79 78 78 77 78 78 78 77 77 77 76 76 77 74 71 69 65 63 60 57 56 55 53 52 50 49 48 48 47 43 42 45 49 59 77 92 123 142 160 166 160 147 126 107 87 92 101 112 114 99 72 49 33 38 47 58 68 75 79 81 81 78 76 76 76 76 80 84 90 86 79 71 64 60 58 58 67 68 69 67 64 65 70 76 86 93 99 101 102 102 98 91 89 95 102 103 98 93 89 88 89 86 80 75 71 73 78 83 91 93 95 95 94 92 92 91 91 91 92 95 97 99 99 97 92 94 97 99 100 101 105 107 112 114 117 118 116 110 104 100 94 93 97 103 106 107 111 118 139 148 160 168 171 169 167 166 
14 13 12 10 8 7 6 5 3 6 20 45 74 103 130 150 158 162 167 170 172 173 175 177 180 179 178 176 173 170 168 167 168 170 172 174 175 174 174 173 172 171 169 169 169 166 161 157 152 148 146 143 135 123 117 116 140 151 156 142 119 101 95 97 108 122 139 142 121 83 43 19 21 19 20 23 23 16 13 11 13 13 14 14 14 15 15 15 24 23 22 23 23 21 18 16 10 9 6 5 2 2 2 3 4 6 9 11 14 17 20 24 28 32 39 44 49 54 58 62 66 68 72 77 80 84 87 89 91 94 97 100 103 105 109 112 112 113 115 117 121 123 125 126 125 126 127 129 130 131 131 131 134 133 133 134 134 136 137 138 137 137 137 137 137 136 136 136 141 140 139 139 140 140 137 135 133 134 134 134 134 135 135 135 132 131 131 129 128 127 126 126 127 126 7 4 126 126 11 11 116 116 116 116 116 115 115 115 108 108 107 106 104 103 102 101 102 100 99 99 99 98 96 93 90 90 90 89 87 86 84 84 84 84 83 82 81 79 77 76 75 75 77 78 79 79 79 79 80 79 79 79 78 78 78 78 77 74 71 67 65 62 58 55 55 54 52 50 49 48 48 48 45 40 38 42 52 70 94 116 144 155 164 162 149 127 103 85 71 85 107 124 122 97 62 34 21 29 43 59 72 79 82 83 74 69 68 74 78 80 85 92 96 90 80 70 63 59 57 57 67 68 70 70 70 73 79 84 93 98 101 100 101 102 99 94 93 98 103 103 97 92 90 90 92 88 81 75 71 71 76 80 87 90 93 94 92 90 91 92 91 91 91 93 96 97 96 95 89 91 94 97 98 101 105 108 113 116 119 120 117 111 105 100 96 93 94 98 100 103 111 120 147 155 166 171 169 165 163 162 
10 8 6 3 2 2 2 3 4 8 22 48 78 107 134 153 161 164 169 173 174 176 178 180 181 181 179 177 174 171 168 167 167 168 170 173 174 174 175 175 174 172 168 166 165 164 161 159 157 153 150 144 132 117 109 107 129 146 156 145 124 109 105 108 124 135 139 126 100 73 45 28 21 20 22 27 25 19 13 13 15 15 15 16 16 16 16 16 26 25 23 23 22 19 15 11 6 7 7 6 3 1 2 2 5 7 9 12 14 17 20 23 28 31 37 43 47 52 57 60 65 67 71 76 79 83 85 86 89 93 96 99 101 105 109 112 111 112 114 116 119 122 124 124 125 125 126 127 128 129 129 130 133 133 133 133 134 135 137 137 138 138 137 137 137 136 136 136 135 135 135 137 140 141 140 139 137 137 137 137 137 138 138 138 133 133 132 131 130 129 128 127 128 126 126 126 126 126 123 121 118 118 118 117 116 116 116 115 110 110 109 107 106 104 103 102 101 100 99 99 99 98 95 93 92 92 92 91 90 88 87 86 84 84 84 84 83 81 80 79 77 78 80 81 82 82 82 82 82 82 82 82 81 81 80 80 76 73 70 67 65 62 58 55 55 54 52 50 49 48 48 47 38 36 39 50 66 89 119 142 165 165 162 151 133 111 88 75 71 89 115 129 121 95 59 36 26 35 49 64 75 81 83 83 72 67 69 79 85 84 87 93 94 87 76 67 61 59 58 58 65 66 68 70 73 77 82 86 93 98 100 99 100 102 100 97 96 99 103 101 95 91 90 91 92 88 82 75 73 74 79 83 89 92 94 92 88 86 87 89 89 88 89 92 94 94 93 90 86 88 91 93 95 99 104 108 114 116 120 121 118 112 104 100 97 94 93 96 98 102 110 120 142 152 163 169 168 167 167 170 
4 2 1 1 3 7 11 14 25 29 44 68 94 118 140 156 163 167 172 175 177 179 181 182 184 183 182 180 178 174 171 169 168 169 170 172 174 175 178 178 179 174 167 163 161 161 160 159 159 156 150 142 128 108 98 96 108 133 151 144 124 108 103 102 119 126 124 110 98 87 63 38 20 20 23 27 25 18 14 14 14 15 15 17 18 19 20 20 26 24 23 22 21 18 13 10 8 11 13 13 10 4 2 2 5 7 11 13 14 16 20 22 26 29 36 41 46 51 55 59 63 67 70 75 78 81 84 84 88 91 95 98 101 104 108 111 111 111 113 115 118 120 122 123 124 124 124 125 126 127 128 128 133 133 133 133 134 135 136 137 139 139 138 138 137 137 137 136 136 135 135 136 139 139 138 136 138 138 25 21 138 138 137 137 135 134 133 132 131 130 129 128 128 126 126 126 126 125 122 120 120 120 119 118 117 116 115 115 112 111 110 108 107 105 104 103 100 99 98 98 98 97 95 92 92 92 91 91 90 88 87 86 84 84 84 84 84 83 82 81 81 82 82 83 84 84 83 83 81 81 81 81 80 80 79 79 75 72 69 67 64 62 59 56 56 55 53 51 49 47 47 46 41 42 52 70 90 116 144 166 174 163 148 131 115 98 87 81 93 110 128 133 117 87 59 42 41 47 57 67 75 80 82 83 78 72 74 86 90 84 80 83 84 76 67 61 59 59 60 59 60 63 66 69 72 75 78 80 88 95 100 101 103 105 102 98 97 99 102 99 93 89 89 90 89 86 81 76 75 78 84 90 93 95 95 91 85 81 83 86 85 86 87 90 93 92 89 86 84 85 87 89 92 97 104 108 113 116 119 121 118 111 103 98 96 94 95 98 100 102 108 116 129 140 153 161 164 167 173 179 
5 4 5 8 14 23 31 37 51 56 70 92 113 130 146 158 165 169 174 177 179 180 183 184 186 186 185 183 181 177 174 172 170 170 171 172 174 177 180 181 183 177 168 161 159 158 158 158 160 156 150 140 123 103 90 88 94 123 148 143 122 102 93 89 106 113 111 105 109 108 77 39 19 20 22 27 23 17 13 14 12 13 15 17 19 22 23 24 24 23 21 21 20 18 14 10 12 17 20 21 17 12 7 6 5 9 12 13 15 17 20 22 25 28 35 40 45 50 54 58 62 66 69 74 77 80 83 82 87 90 94 98 100 104 108 111 111 111 112 115 117 119 121 122 124 124 124 124 124 125 127 127 133 133 132 133 134 135 136 137 140 139 139 138 138 137 137 137 141 139 137 137 136 135 132 129 137 137 7 4 136 135 135 135 135 135 134 133 132 130 130 129 128 126 126 126 126 125 122 119 122 121 120 119 117 116 115 114 113 112 111 109 107 106 104 104 99 99 98 98 98 97 94 92 89 89 89 88 87 86 84 84 84 84 84 84 84 84 83 83 84 84 84 83 83 82 81 80 78 78 77 77 77 76 76 76 74 72 69 67 64 63 59 57 57 56 54 51 48 48 47 46 49 55 69 89 112 134 160 179 170 155 133 114 100 92 91 95 118 131 143 135 111 80 56 45 54 56 61 67 73 77 81 82 83 76 79 90 91 79 71 71 74 67 60 56 57 59 60 60 58 61 63 66 69 71 72 73 82 91 99 103 106 108 104 98 96 99 100 97 90 87 87 89 86 84 79 76 77 81 88 94 96 98 96 90 82 78 80 83 82 84 86 89 92 91 87 84 83 84 85 87 90 96 104 109 111 114 118 120 117 110 101 96 94 93 96 102 103 102 106 112 118 129 144 154 159 165 175 182 
3 1 4 17 31 47 68 86 89 96 106 116 128 141 155 164 171 173 176 179 182 184 185 186 190 189 187 185 183 181 179 179 174 173 173 174 175 178 181 183 180 175 168 161 158 159 161 163 160 160 152 134 115 97 80 68 77 100 132 146 131 102 81 74 80 85 101 127 145 133 90 50 25 27 29 33 28 20 13 13 13 12 14 21 29 33 31 27 18 17 16 15 15 14 12 10 6 13 22 29 31 27 20 17 9 9 8 9 12 16 20 23 27 29 36 43 49 53 55 56 60 65 69 74 76 78 82 84 87 91 95 98 100 102 104 106 112 112 114 114 117 117 119 119 125 125 125 126 126 127 127 128 132 6 30 133 133 134 134 134 134 136 140 142 142 140 136 134 138 136 135 45 95 136 132 27 133 134 134 134 134 134 134 135 133 133 132 132 131 130 129 129 128 127 126 124 123 123 124 125 126 124 122 121 121 119 116 113 111 111 111 111 109 106 104 102 102 99 97 96 96 95 92 90 91 89 88 88 88 87 84 83 87 86 84 84 83 82 82 82 82 82 82 82 83 83 83 83 78 77 77 77 77 76 76 76 73 71 67 66 63 62 59 56 62 55 54 56 54 49 53 61 61 72 93 119 141 157 168 174 154 135 111 92 79 77 92 109 141 140 135 122 98 70 53 47 62 62 67 76 84 86 82 76 77 80 84 85 82 74 65 59 55 55 53 52 52 54 58 61 60 59 58 59 63 67 69 70 76 85 95 102 103 103 103 104 99 98 95 90 85 84 86 88 90 83 77 76 77 77 82 89 94 96 97 94 87 83 82 83 79 82 86 89 90 89 87 85 79 82 87 90 92 96 103 108 113 115 117 116 111 104 97 92 95 98 102 104 105 106 107 109 122 131 143 151 154 157 162 166 
4 3 11 29 50 72 96 114 122 126 131 135 141 147 156 163 170 171 173 176 179 181 183 184 185 185 185 184 184 183 182 181 178 177 176 175 175 176 178 179 176 171 164 158 156 156 159 161 158 158 149 132 113 97 81 70 67 86 117 142 142 118 88 70 71 88 119 150 162 142 97 60 43 41 38 37 29 20 13 13 21 19 20 25 32 36 35 32 23 22 20 19 17 15 13 11 6 11 21 31 37 38 33 29 14 11 9 9 14 19 23 25 29 31 36 42 47 51 53 54 61 17 69 74 76 77 81 82 86 89 94 97 100 102 104 107 113 113 114 114 117 117 118 119 124 124 124 125 126 44 0 128 132 44 132 132 133 133 134 134 135 136 139 140 140 139 136 135 137 135 134 41 55 138 135 132 75 134 134 134 134 134 134 134 134 134 133 132 131 131 130 130 127 126 125 124 123 123 124 124 124 122 121 120 120 119 116 114 111 111 111 110 108 106 104 102 102 100 97 96 96 95 93 91 89 88 86 86 86 85 84 82 85 85 84 83 83 82 82 83 82 82 82 82 83 83 83 83 83 82 82 81 80 79 79 78 71 69 66 64 63 61 58 56 60 54 52 53 51 47 54 66 84 95 114 136 154 165 171 175 145 123 97 81 76 82 100 117 137 134 127 115 94 71 59 57 66 68 73 79 83 82 77 73 67 71 76 78 77 71 64 59 54 52 52 55 60 63 62 60 65 66 65 66 67 69 72 74 85 89 94 96 95 94 97 100 103 102 100 98 94 92 90 89 85 79 73 72 71 70 74 80 86 90 95 94 89 84 81 81 79 81 85 89 90 90 88 86 83 85 89 91 92 96 104 110 116 118 120 120 116 110 104 101 103 105 107 108 108 109 111 113 125 135 148 158 161 163 166 168 
6 10 23 48 76 103 126 141 149 148 148 147 147 149 152 156 166 167 168 170 173 177 179 181 178 179 181 183 184 184 183 183 182 181 179 176 175 173 174 174 170 166 160 155 153 153 156 158 156 154 145 128 111 98 85 73 60 69 96 131 148 132 96 68 74 91 118 144 152 134 102 77 54 47 39 34 25 17 13 15 31 28 26 29 33 36 36 34 30 28 26 23 19 15 13 11 4 9 20 34 46 54 53 50 27 21 15 13 16 22 26 28 32 34 37 40 44 48 51 52 30 158 69 73 18 39 80 82 85 87 92 96 99 102 105 107 114 114 114 115 117 117 7 21 122 123 27 124 126 127 128 129 131 131 131 132 132 132 133 133 135 136 137 137 137 137 136 135 135 135 135 136 138 139 137 135 136 136 135 135 134 133 133 133 134 134 133 132 132 131 130 130 126 126 125 124 123 123 123 123 121 120 119 119 120 119 116 114 111 111 110 109 108 106 104 103 102 99 97 95 95 95 93 92 88 86 85 84 84 84 83 81 84 84 83 83 82 83 84 84 83 83 83 83 84 84 84 84 86 85 84 83 81 79 78 78 69 67 65 63 62 61 58 56 59 54 52 52 49 48 61 77 102 114 133 151 163 168 166 163 135 111 84 73 78 94 111 124 130 124 115 105 87 70 62 63 68 72 77 79 76 71 67 64 62 66 72 76 77 74 70 66 54 52 52 57 65 68 64 58 62 65 68 69 69 71 76 80 93 94 93 89 86 87 92 97 105 104 105 107 106 102 95 89 81 75 70 69 68 65 68 73 77 84 91 93 90 84 81 80 80 82 85 89 91 90 89 87 86 88 90 90 91 95 104 110 118 121 123 123 120 116 113 112 114 115 116 114 111 109 109 110 127 137 150 160 164 164 165 166 
11 20 41 70 101 126 143 152 156 155 152 149 147 147 149 150 160 161 163 165 169 173 176 178 175 177 179 182 183 182 181 181 181 179 178 176 173 172 171 171 167 163 157 153 151 152 155 156 155 152 142 126 111 99 88 77 60 59 76 110 137 134 105 80 77 83 101 124 133 119 89 67 44 34 24 20 16 16 17 22 38 35 31 30 32 34 34 34 35 34 30 24 18 13 10 10 4 8 19 36 54 67 72 73 51 40 25 18 18 23 28 30 36 36 38 40 43 46 49 51 59 63 67 72 33 71 81 45 95 85 91 95 17 101 104 0 113 114 27 114 116 117 7 20 120 121 122 75 125 126 128 128 130 130 130 130 131 131 132 132 135 135 135 134 134 135 135 135 136 136 136 136 137 137 136 136 136 136 135 134 133 132 132 131 132 132 131 131 130 129 129 128 126 125 124 124 123 122 122 122 118 117 116 117 118 118 116 114 110 110 109 108 107 105 104 103 102 99 96 95 95 95 94 93 90 87 85 84 84 84 84 82 83 83 82 82 83 84 84 85 84 84 84 84 84 84 84 84 86 85 83 81 78 76 74 74 68 67 65 63 63 62 60 57 57 54 53 54 51 52 72 93 114 129 149 163 169 165 153 142 113 93 72 65 79 95 108 115 115 109 102 91 79 65 59 60 67 72 77 74 66 58 54 53 59 62 66 70 72 72 70 69 57 55 55 57 61 62 59 56 58 64 71 75 75 78 85 91 98 97 93 88 84 85 92 98 102 102 105 110 113 109 98 88 80 75 71 71 70 67 68 72 75 82 88 90 87 82 79 78 84 86 88 90 91 90 88 87 88 89 90 89 89 93 102 109 118 121 124 124 121 119 119 120 124 125 126 122 115 107 101 98 105 114 128 141 150 157 162 165 
20 37 65 96 124 144 152 154 159 157 153 150 148 147 148 148 154 156 159 162 167 171 175 177 177 178 179 179 179 178 177 176 176 175 175 174 173 171 171 171 166 163 158 154 152 153 154 156 153 149 139 124 111 100 88 76 59 52 59 87 118 129 120 109 83 82 95 121 133 113 73 41 27 17 8 9 13 21 29 38 46 43 38 36 35 35 35 35 37 36 32 24 15 9 7 7 3 7 19 37 57 74 85 89 76 62 43 27 22 22 25 28 37 38 39 41 44 47 50 51 56 60 65 71 74 77 82 41 55 85 89 30 158 100 104 106 111 111 112 75 115 116 117 117 119 119 121 122 124 125 126 127 128 128 129 129 130 130 130 130 134 134 133 132 132 133 134 134 137 137 136 135 133 133 133 133 135 135 134 133 132 131 130 130 130 129 129 128 127 127 126 126 124 124 124 123 122 122 121 120 116 115 114 115 117 117 115 113 110 109 108 107 106 105 105 104 102 99 95 94 94 95 95 94 92 90 87 86 86 86 85 84 83 83 83 83 84 84 85 86 86 86 86 86 86 86 86 86 86 85 83 80 77 74 73 72 71 67 66 65 65 63 61 59 53 51 52 56 58 64 84 108 132 150 168 176 172 158 135 114 79 68 58 62 76 90 94 93 91 86 82 78 70 61 57 58 68 73 76 71 61 53 50 50 54 54 55 56 57 58 59 59 61 62 60 56 52 50 52 56 62 69 77 81 82 84 90 96 98 96 92 86 81 81 86 91 96 96 101 108 111 107 97 87 79 75 74 75 74 70 69 72 77 82 87 87 83 78 77 77 88 89 90 91 91 89 87 86 90 91 92 91 91 95 103 110 119 123 125 124 121 120 123 126 133 136 136 131 120 106 94 87 72 79 92 107 122 135 146 152 
37 60 93 122 144 159 162 160 159 155 150 146 144 143 142 141 147 151 156 162 167 172 175 176 180 179 178 177 175 174 173 172 172 173 173 174 174 173 173 173 167 165 159 155 153 153 154 155 151 146 136 122 109 98 84 71 53 46 49 73 104 126 135 139 116 105 105 120 128 108 74 49 27 16 9 12 21 31 43 52 56 53 49 45 42 41 40 41 38 37 32 23 12 5 3 4 2 8 20 36 54 73 89 99 97 86 68 48 34 27 25 25 36 38 40 43 46 49 52 53 56 60 64 70 73 77 81 84 81 85 89 93 95 98 102 105 107 108 109 111 114 115 116 117 118 119 120 121 123 124 124 125 127 127 128 128 128 129 129 129 132 132 131 131 131 131 132 132 135 135 134 132 129 128 129 130 132 132 132 131 130 130 129 129 128 128 127 126 126 126 125 125 123 123 123 123 122 121 120 119 115 114 113 114 115 115 113 111 110 109 107 106 105 105 105 105 102 99 95 94 94 95 95 95 95 92 89 87 87 88 87 86 84 84 84 84 84 85 86 87 87 87 87 87 87 87 87 87 88 87 85 82 79 76 74 74 71 69 67 66 65 63 61 58 51 49 53 62 69 79 101 124 151 166 178 176 161 139 107 81 57 59 63 70 81 87 82 75 63 60 60 63 63 59 58 60 70 73 74 69 61 55 55 58 56 53 50 47 47 49 52 55 66 66 63 55 47 46 52 59 64 70 76 80 81 81 83 86 93 91 87 80 75 75 80 85 94 95 99 103 104 101 93 86 80 77 75 77 76 71 69 70 79 84 88 87 82 78 76 77 88 88 89 89 89 87 86 84 91 93 94 94 94 98 106 112 119 123 125 122 118 117 122 128 138 141 142 137 125 109 95 87 71 74 80 89 98 108 116 120 
60 87 119 142 155 164 166 164 157 152 146 142 141 140 138 136 142 147 154 162 169 174 176 177 182 180 177 174 172 171 171 172 172 173 175 176 176 175 175 175 168 166 160 156 153 153 153 153 147 143 132 118 106 93 77 62 48 43 49 73 104 129 144 151 144 131 123 123 116 96 78 72 46 34 25 26 33 41 50 57 62 60 57 52 48 45 45 45 38 37 33 22 11 3 2 4 1 9 22 35 49 68 88 101 115 110 98 79 57 40 32 29 34 37 41 46 50 53 55 55 58 62 65 70 72 75 78 81 82 85 89 92 94 97 100 102 104 105 106 109 112 114 116 117 119 119 120 121 122 123 123 124 126 126 127 127 128 128 128 128 130 130 131 131 131 131 130 130 130 131 131 129 126 126 127 130 129 129 129 129 129 129 129 128 128 128 127 127 126 126 125 125 122 122 123 123 122 121 119 118 114 113 112 113 114 113 111 109 109 108 107 105 104 104 105 106 102 99 94 94 93 95 96 96 96 93 89 87 87 88 88 87 86 86 86 85 86 86 87 88 88 88 88 88 88 88 88 88 89 88 86 83 80 78 76 76 71 69 67 65 64 62 59 56 54 53 59 74 88 101 122 143 161 174 176 163 143 117 84 56 55 67 81 86 87 83 71 58 46 43 45 51 55 56 57 61 71 71 71 67 62 61 63 66 63 58 51 45 44 48 54 59 68 66 62 56 52 52 59 65 67 70 75 79 81 81 81 80 84 83 79 73 71 75 85 93 98 99 100 99 96 92 88 86 86 83 82 83 80 72 68 68 77 83 89 90 86 80 77 76 82 83 84 85 86 85 85 84 87 90 93 94 94 97 104 110 115 118 119 115 109 109 115 122 135 137 138 134 124 112 102 97 95 95 97 100 103 106 107 108 
79 106 135 152 158 164 165 164 158 152 147 144 144 144 142 141 139 144 153 162 170 174 176 177 181 178 174 170 169 169 170 171 174 175 178 179 179 178 177 176 167 165 161 156 153 152 152 152 144 140 129 116 104 91 72 56 48 45 53 79 109 132 145 150 139 138 141 139 117 88 72 73 65 52 40 38 41 46 50 54 63 62 60 55 50 47 46 46 39 38 33 23 10 2 2 4 1 10 22 33 45 63 85 101 126 127 120 103 77 54 40 35 33 36 41 47 52 55 56 57 60 64 67 70 71 73 75 77 82 85 89 92 94 96 99 101 102 104 106 108 111 114 115 117 119 120 120 121 121 122 122 122 126 126 126 127 127 127 128 128 129 129 130 131 131 130 129 129 126 127 128 126 125 124 127 131 127 127 127 128 128 128 128 128 129 129 128 127 126 126 126 126 121 122 122 123 121 120 117 117 113 113 111 112 112 112 110 108 109 108 106 105 104 104 105 106 102 98 94 93 93 95 96 96 96 93 89 87 87 88 88 87 88 88 87 86 86 87 87 88 88 88 88 88 88 88 88 88 87 86 85 82 80 77 75 75 71 68 66 64 62 60 57 54 59 58 66 86 103 118 138 157 167 176 174 155 132 109 78 51 59 78 92 95 88 75 57 42 43 38 38 44 49 52 55 60 70 69 67 64 62 64 68 71 66 59 50 43 42 48 55 61 68 65 60 58 59 62 66 69 72 74 79 85 90 91 89 87 77 75 72 69 71 80 95 106 104 104 101 98 91 87 86 86 93 90 88 89 84 74 68 67 74 81 90 94 89 83 78 75 78 79 81 83 84 84 85 85 82 85 89 91 91 94 101 105 110 112 113 107 101 100 107 114 128 130 130 127 120 113 107 105 107 109 113 118 124 127 128 127 
106 125 145 155 158 161 160 159 154 153 149 144 140 137 135 135 140 144 151 158 165 169 172 173 172 172 171 169 166 165 167 169 173 175 178 181 181 180 177 176 172 169 165 164 164 161 155 150 145 133 122 108 92 86 73 50 43 49 63 88 114 134 140 138 135 137 140 138 125 101 74 56 67 67 85 84 77 66 46 47 58 54 55 60 62 56 49 46 50 48 42 30 15 4 1 3 3 14 26 37 45 60 82 99 124 135 141 135 120 96 69 49 43 41 44 51 56 57 59 62 61 66 71 72 72 72 74 76 80 81 84 88 92 95 97 98 101 102 104 107 110 114 117 118 117 119 119 120 120 121 121 122 126 126 126 126 126 126 126 126 127 127 127 127 127 127 128 128 125 125 125 125 126 127 128 128 127 127 127 126 126 126 125 125 125 125 125 124 124 123 122 121 122 122 121 121 119 119 116 116 115 114 113 113 114 114 112 109 111 110 108 106 104 103 102 102 102 100 98 95 95 95 98 98 94 92 92 89 88 86 87 86 86 85 86 85 87 88 91 90 91 91 90 90 89 88 88 87 90 88 86 83 80 78 76 74 71 66 64 64 62 57 56 58 64 67 84 108 123 133 153 175 181 166 158 143 106 76 66 65 93 102 109 103 86 62 44 34 34 39 46 49 51 54 61 66 69 69 67 63 57 55 56 59 56 53 50 51 54 57 59 59 65 58 51 53 63 72 76 76 77 77 80 90 101 106 103 98 87 77 70 73 81 89 99 106 113 106 97 94 96 98 97 95 96 95 92 86 79 73 70 69 77 83 90 92 87 80 75 73 78 79 79 80 81 81 81 81 78 81 85 87 88 91 98 103 107 108 106 103 99 99 103 108 127 130 130 123 111 102 100 100 106 112 119 124 127 132 139 144 
128 143 157 162 162 161 161 159 152 149 144 139 135 131 129 128 132 136 142 149 156 161 164 165 164 164 163 161 159 159 162 164 169 172 175 178 179 178 176 174 172 169 167 167 167 164 157 151 143 131 122 110 95 88 74 51 45 50 64 88 115 134 140 139 128 127 126 124 118 105 89 78 78 77 98 105 102 88 54 44 47 49 55 61 59 51 46 47 53 53 49 37 21 9 4 4 5 14 26 37 49 66 86 102 125 134 143 145 139 121 92 70 53 47 44 49 54 55 55 57 64 68 72 74 75 75 77 79 80 81 84 88 91 94 96 96 100 101 103 105 109 112 115 117 117 118 119 120 120 121 122 122 126 126 126 126 126 126 126 125 127 127 127 127 127 127 126 126 126 126 126 125 126 126 127 128 124 124 124 124 124 124 124 124 124 124 124 124 124 122 121 120 123 122 121 121 120 119 118 117 115 114 113 113 114 113 111 109 111 110 108 106 105 103 103 103 102 102 100 98 97 97 98 98 94 93 91 90 89 88 88 88 87 87 87 88 89 90 91 91 91 91 90 89 88 87 87 86 88 87 85 82 79 77 75 74 70 67 66 65 62 58 60 65 73 81 97 115 129 144 166 185 185 167 152 126 84 62 71 85 114 120 118 105 80 58 46 44 41 41 43 50 59 65 67 67 72 75 75 70 62 55 51 50 52 52 53 54 57 59 60 60 59 55 53 56 63 70 73 73 79 80 84 92 100 103 101 96 89 83 79 82 86 90 97 105 103 98 94 95 99 102 102 100 99 95 88 78 70 65 65 67 78 85 92 94 89 81 76 74 79 80 81 82 83 84 84 84 81 82 84 85 87 92 101 107 106 106 104 99 96 97 103 109 122 125 126 120 110 103 102 103 108 113 120 124 127 131 138 143 
147 158 167 166 163 161 162 159 153 149 144 137 131 126 123 121 125 128 133 140 147 152 156 158 158 157 156 154 153 155 159 163 165 167 170 173 174 173 171 169 169 167 166 168 169 166 160 154 141 130 122 112 98 88 73 51 42 48 62 87 115 133 138 137 122 117 112 109 109 107 103 99 86 80 101 115 121 105 58 35 35 44 59 68 63 52 47 49 57 60 58 47 29 14 6 5 10 18 28 40 54 70 88 100 122 132 144 155 159 148 124 102 72 58 47 48 54 57 57 58 69 72 75 77 78 79 81 82 82 83 86 88 91 93 94 94 99 100 101 104 107 110 113 114 115 117 118 119 121 122 123 124 126 126 126 126 126 126 126 126 128 128 127 127 126 125 125 124 126 125 124 123 123 123 124 124 122 122 122 122 123 123 123 123 123 123 124 123 123 121 120 119 123 121 121 120 120 119 119 118 116 114 113 112 113 113 111 109 112 110 109 107 105 104 104 104 104 103 102 102 100 99 98 97 93 92 90 89 89 89 89 89 89 89 88 89 89 90 91 92 93 93 92 91 89 88 87 86 85 84 82 80 77 74 73 72 70 69 68 68 64 63 69 78 93 107 120 126 137 156 178 192 180 162 142 107 61 48 74 99 130 133 127 109 82 61 52 51 54 48 47 56 69 76 73 66 71 76 80 78 69 58 50 46 50 53 56 58 59 59 60 60 58 58 59 61 63 66 68 70 77 81 87 93 95 94 91 89 84 83 83 87 89 88 92 98 93 90 89 92 99 104 106 105 103 96 85 71 62 59 63 67 78 85 93 95 90 83 77 74 80 81 82 84 85 86 86 86 85 85 85 86 89 96 106 112 109 108 104 98 94 97 105 112 123 126 127 122 113 107 106 109 117 121 127 130 132 135 141 145 
157 165 168 166 161 161 162 162 156 152 146 138 132 126 122 120 124 125 129 134 140 145 149 152 153 153 152 151 151 154 159 163 161 163 166 168 168 166 163 161 160 158 157 159 163 163 160 158 138 126 119 112 97 87 72 50 37 45 60 86 112 131 135 133 123 115 106 101 102 104 102 100 84 74 93 111 126 114 63 35 27 38 55 66 64 53 47 48 62 65 64 52 33 16 5 2 16 22 31 43 57 73 87 96 116 129 145 157 165 163 149 133 100 79 56 49 54 61 65 70 73 74 76 78 80 82 83 84 84 85 87 89 91 92 92 93 98 99 100 102 105 109 111 112 114 116 117 119 121 123 124 125 126 126 126 126 126 126 126 126 128 128 127 126 125 124 123 123 124 123 122 121 120 120 120 120 121 121 121 121 122 122 122 122 122 122 122 122 122 121 120 119 120 119 118 118 118 118 118 118 116 115 112 111 112 112 110 109 112 111 109 107 106 105 105 105 104 104 103 102 101 99 97 96 93 92 92 91 91 91 92 92 92 91 91 91 91 92 92 93 94 94 93 91 90 88 87 86 81 81 79 77 75 73 72 71 70 71 72 72 69 69 79 92 114 131 142 139 145 164 181 187 166 147 124 91 53 49 78 101 127 128 124 112 92 75 63 58 69 63 59 64 74 77 71 63 67 74 80 80 74 66 59 56 54 56 58 59 57 56 58 59 62 64 65 64 63 63 67 70 81 87 94 97 94 89 87 86 82 81 84 92 97 95 93 94 87 85 84 87 93 99 103 105 103 96 83 69 60 59 63 68 75 83 90 93 88 81 76 73 79 81 82 84 86 87 87 88 87 87 88 91 96 103 111 116 117 114 107 98 94 96 105 112 128 131 132 127 119 114 114 117 130 134 140 142 142 144 148 152 
164 169 171 164 161 162 163 162 156 152 146 138 132 126 122 121 123 123 125 128 132 137 141 144 147 148 148 148 148 151 157 160 159 160 162 163 162 159 155 153 146 143 142 144 150 154 154 154 137 122 115 109 95 82 67 48 38 44 62 90 116 133 135 132 127 118 107 100 99 97 92 86 78 72 95 120 141 133 86 60 39 39 44 51 52 49 49 53 66 67 64 52 35 18 5 1 16 22 33 46 60 75 88 96 113 129 146 157 162 166 165 162 136 109 77 59 55 59 68 75 75 75 76 78 81 84 84 85 87 88 89 91 92 93 93 93 99 99 100 103 105 108 111 112 114 116 117 119 121 123 124 125 126 126 126 126 126 126 126 126 127 127 126 125 124 123 122 122 125 124 123 122 121 121 121 121 122 122 122 122 122 122 122 122 121 121 121 122 121 121 120 119 117 117 116 115 116 117 118 118 118 115 112 111 111 111 110 108 112 111 110 108 107 106 106 106 104 103 103 102 101 98 96 95 95 95 94 93 93 93 94 94 94 94 93 92 92 92 93 93 91 90 90 88 87 86 85 84 80 79 78 77 74 74 72 72 69 70 72 74 72 73 86 99 124 142 153 150 154 169 177 174 146 121 97 74 57 67 92 106 114 109 104 101 96 89 80 72 81 77 74 74 75 73 69 63 71 76 79 79 74 70 68 68 63 62 60 57 55 55 56 58 60 62 63 62 61 64 71 77 92 98 103 104 98 92 89 89 84 82 86 98 106 104 98 94 85 84 82 84 87 92 95 98 94 89 80 69 61 59 63 66 72 78 85 87 83 77 72 71 77 78 80 82 84 86 87 87 87 88 92 98 105 111 116 117 122 117 108 97 90 91 99 106 124 128 130 128 122 119 122 127 139 145 151 154 153 153 155 157 
172 176 173 167 162 161 160 158 150 147 141 135 129 126 123 122 121 121 120 121 122 126 129 132 137 139 140 142 142 145 148 152 156 157 158 159 157 154 150 148 136 134 132 135 141 146 147 148 133 116 109 104 89 74 61 44 39 49 69 98 125 140 140 135 128 117 104 97 96 93 86 80 77 79 111 136 152 147 110 94 72 63 55 51 50 52 61 70 69 66 59 49 37 24 13 5 13 22 36 50 63 77 91 101 115 131 146 154 161 169 177 180 168 143 110 84 65 58 64 71 77 76 76 78 82 85 86 86 89 89 91 93 94 94 94 94 100 101 102 104 107 109 112 112 115 117 118 119 121 122 123 124 126 126 126 126 126 126 126 126 126 125 125 124 123 123 122 122 127 126 125 125 124 125 125 125 124 124 123 123 122 122 122 121 120 121 121 122 122 121 120 120 115 114 113 113 114 115 117 118 118 115 112 110 110 110 109 108 112 111 110 109 108 108 108 108 104 103 102 102 100 99 98 97 99 99 98 97 96 96 96 96 96 95 94 93 92 92 92 92 87 87 86 85 85 84 83 83 82 81 80 79 77 76 75 76 71 71 73 76 75 79 91 103 123 141 156 160 166 174 171 161 126 96 72 66 72 94 111 110 99 89 81 82 92 97 94 88 85 83 81 79 77 75 74 73 85 85 82 77 71 68 70 73 73 68 62 58 58 58 58 57 53 56 58 60 62 69 78 85 93 97 100 99 94 88 86 85 82 80 85 95 101 96 88 84 83 84 85 87 89 91 93 93 85 82 75 67 61 58 60 62 69 74 80 80 76 71 69 69 75 76 78 81 83 85 87 87 87 88 93 101 109 115 118 118 120 115 104 92 84 84 91 98 112 117 121 120 118 119 124 130 143 150 158 162 161 158 158 158 
171 174 173 167 163 161 158 153 145 142 138 133 129 126 125 125 123 121 118 116 116 117 120 122 130 133 136 138 139 140 143 145 150 152 154 155 155 153 150 148 138 137 137 142 147 149 147 143 131 111 103 98 82 67 53 38 40 51 74 105 133 145 143 136 122 109 94 89 92 95 94 90 83 89 116 128 130 126 106 106 99 94 87 79 70 65 70 80 70 63 54 47 42 35 25 17 18 29 44 56 65 76 90 101 117 130 142 151 161 173 182 186 186 172 148 118 88 66 61 66 79 78 77 79 83 87 88 87 90 91 93 94 96 96 97 97 103 103 104 106 108 110 112 114 117 118 119 120 120 121 122 122 125 125 125 125 125 125 125 125 124 124 123 123 123 123 123 123 125 125 124 124 124 125 126 126 124 124 124 123 121 120 119 119 121 121 122 122 122 122 121 121 115 114 113 112 113 116 118 120 119 115 111 109 109 109 109 108 112 112 111 109 109 108 108 109 106 104 102 101 101 100 101 101 103 102 101 99 98 98 98 98 96 96 94 93 92 91 91 92 88 88 88 88 88 88 88 88 86 86 85 84 83 82 81 81 79 77 78 82 85 89 97 106 123 138 157 171 179 176 161 144 111 82 67 75 95 116 118 100 80 73 70 77 89 98 97 92 82 80 79 80 83 86 89 90 97 95 87 77 69 66 69 73 78 71 65 63 66 66 62 57 54 57 61 65 70 76 83 87 87 88 89 87 84 80 77 76 78 80 86 90 84 74 68 69 77 83 91 98 99 97 95 93 83 80 75 67 61 58 60 62 68 72 75 75 71 68 68 69 74 75 77 81 84 86 87 88 87 87 90 98 107 115 119 120 117 112 102 90 81 81 87 94 106 110 114 113 110 111 117 123 144 152 163 168 167 163 160 159 
165 169 170 165 162 161 157 152 143 141 138 134 131 129 129 128 127 124 119 115 114 115 117 119 128 131 135 138 139 139 141 142 145 148 151 153 154 153 151 149 145 145 148 153 157 156 150 144 130 109 99 94 78 62 49 35 38 51 75 108 135 146 142 134 114 100 85 80 88 98 104 104 89 90 106 102 92 90 85 101 104 109 113 107 89 72 69 74 71 61 50 45 46 43 35 26 26 38 53 61 65 73 85 96 117 126 136 147 162 176 183 184 191 186 174 146 108 77 65 67 82 79 78 80 85 89 90 89 91 92 93 95 97 98 98 98 104 105 106 107 110 111 114 116 118 119 119 120 120 121 121 122 124 124 124 124 124 124 124 124 122 122 123 123 123 123 123 123 121 121 121 121 121 123 124 124 124 124 123 122 120 119 118 117 121 121 122 123 123 123 122 122 115 114 113 113 114 117 119 121 119 116 111 109 108 109 108 108 113 112 111 110 109 109 109 109 107 105 103 102 101 102 103 104 105 105 103 101 100 99 99 99 97 96 94 93 92 91 91 91 92 93 93 93 94 94 94 94 90 90 89 88 87 86 86 85 87 83 83 89 94 97 104 112 127 139 159 179 187 176 152 131 99 78 74 93 116 130 115 82 63 65 70 81 92 96 93 87 77 74 73 78 88 97 103 104 103 99 90 78 69 65 68 73 79 72 66 68 74 74 66 58 62 64 68 73 78 82 84 85 86 85 84 82 80 78 75 74 79 86 93 91 75 59 57 62 72 82 96 107 109 106 99 94 86 83 77 69 62 60 62 64 68 71 74 72 68 66 67 69 74 76 78 81 84 87 88 89 87 85 87 94 104 113 119 121 116 111 102 90 82 82 88 95 108 111 113 110 105 104 109 114 145 155 167 173 172 167 163 161 
175 175 174 171 166 161 155 152 147 144 141 138 137 135 131 129 130 126 120 117 116 118 119 119 127 133 136 135 135 139 141 139 144 148 152 154 152 150 151 152 153 153 155 160 163 162 156 150 133 114 96 87 75 56 41 36 41 57 86 118 139 145 141 138 118 103 88 88 99 114 129 140 109 106 96 82 70 70 81 91 103 109 119 119 95 66 55 62 63 52 40 36 42 48 45 38 44 48 53 60 69 78 90 98 118 126 138 152 165 173 178 179 186 190 192 176 149 116 90 76 72 75 82 89 88 86 89 95 95 96 99 100 100 101 103 105 109 110 110 112 114 117 119 120 119 120 122 124 125 126 126 126 126 126 125 123 123 122 122 123 124 123 123 121 120 119 118 118 118 118 118 118 118 118 119 119 117 117 117 117 117 117 118 118 119 119 121 122 122 123 123 122 118 118 117 116 115 115 115 116 114 113 112 112 111 111 112 112 108 108 108 108 108 108 108 108 108 106 104 105 107 109 107 104 105 104 103 101 100 100 100 100 102 101 99 96 93 93 96 99 99 99 99 100 100 99 98 98 97 97 95 94 92 90 89 88 92 88 89 96 105 116 132 144 148 162 177 183 181 163 129 100 81 83 91 111 130 128 99 67 60 61 68 81 91 93 84 74 68 73 80 85 87 90 96 99 88 85 79 75 71 67 62 59 65 66 69 73 75 72 66 60 65 67 72 77 81 82 80 78 75 73 72 73 77 81 83 84 90 92 90 81 71 69 75 84 91 97 101 101 103 108 106 101 93 88 80 72 68 65 63 61 71 72 71 69 68 68 71 73 75 78 82 86 90 92 93 93 88 85 85 91 102 110 114 114 113 106 98 94 91 89 93 100 111 107 106 104 99 95 103 115 138 153 168 174 173 172 170 167 
170 169 168 165 161 157 153 150 149 148 146 145 144 142 139 136 132 127 122 118 118 120 121 121 129 135 138 136 137 140 142 140 145 149 152 153 151 150 150 152 151 150 151 155 157 155 148 142 125 108 92 85 75 58 44 40 42 59 86 116 136 141 136 130 119 103 92 95 108 123 135 145 125 122 115 106 100 102 110 118 127 126 129 123 98 65 47 47 48 45 40 36 37 40 43 43 52 56 61 67 74 83 94 100 119 126 136 147 158 167 175 180 183 186 189 184 170 144 116 99 72 69 72 80 88 89 91 95 97 98 101 102 102 103 104 106 109 110 111 112 115 117 120 121 121 122 123 125 126 126 126 126 128 127 126 125 125 124 124 125 125 124 123 122 121 120 119 118 117 117 117 117 116 116 116 116 116 116 116 116 116 116 117 117 118 118 120 121 121 121 121 121 119 118 117 116 116 116 116 116 114 114 113 112 112 112 112 112 109 109 109 109 108 108 108 108 107 105 103 104 107 107 106 104 106 105 104 103 102 102 102 102 102 102 101 99 97 97 99 102 101 101 102 102 101 100 99 98 96 96 95 93 92 90 89 89 88 86 90 97 105 116 132 145 158 169 179 180 169 145 109 80 73 84 101 124 141 137 108 79 62 62 66 76 85 85 78 68 66 71 77 81 83 85 90 93 92 88 82 77 72 66 61 56 53 58 65 69 68 66 65 65 69 69 71 74 76 77 77 76 72 72 73 76 82 87 88 89 94 96 93 85 76 74 81 89 97 102 105 104 104 105 100 95 89 83 74 67 63 64 65 66 72 70 67 64 63 66 72 76 79 82 85 89 92 94 95 95 93 90 90 96 106 113 116 115 114 108 102 99 96 95 99 106 113 110 107 104 97 92 98 108 124 140 156 163 165 166 166 164 
164 163 160 157 153 150 148 146 148 148 148 149 149 149 145 141 134 129 124 121 121 122 123 124 132 137 140 139 139 142 144 142 147 149 151 151 150 149 149 150 148 147 146 148 149 146 139 133 117 100 88 82 74 58 48 46 47 65 92 119 137 139 131 122 109 97 88 94 108 121 131 139 136 135 133 133 135 139 144 147 149 143 137 128 103 66 38 27 32 37 41 40 36 38 47 55 65 68 73 78 84 91 98 103 120 127 136 143 149 158 171 181 181 183 188 193 192 176 149 128 87 74 65 71 84 92 95 96 99 101 103 105 106 107 107 109 110 110 111 113 116 119 121 123 124 125 126 126 126 126 126 126 130 129 128 127 126 126 126 126 126 125 124 123 122 121 120 120 117 117 116 115 115 114 114 113 115 115 115 115 115 115 115 115 116 117 118 119 119 119 118 118 118 118 117 116 116 116 116 117 114 114 113 112 111 111 112 112 110 109 109 108 108 107 107 107 106 104 103 104 105 106 105 104 105 104 103 103 103 103 104 104 103 104 105 104 102 102 103 104 105 105 105 104 103 101 100 99 96 96 95 94 93 92 91 91 86 86 91 98 106 115 133 151 174 180 182 174 154 125 91 66 67 86 114 139 151 143 118 94 68 66 66 73 80 80 72 63 66 70 74 77 79 80 83 84 92 88 82 77 73 67 60 56 48 56 64 65 61 59 61 65 69 70 70 70 71 71 72 72 68 69 73 79 86 91 92 92 96 96 93 86 79 79 84 91 98 104 107 105 105 104 98 91 85 78 68 61 58 61 67 72 73 70 65 60 60 65 75 82 83 84 86 90 93 96 97 98 97 95 96 101 110 116 118 117 116 110 104 102 100 100 106 114 120 118 115 108 96 87 87 93 109 125 143 152 156 161 163 163 
159 157 155 150 146 143 141 140 142 142 144 147 149 148 144 140 135 130 125 122 122 124 125 125 134 139 142 140 140 144 145 144 147 147 147 147 147 147 147 148 146 144 143 145 145 143 136 130 112 98 85 80 71 57 48 47 57 76 102 127 141 141 130 117 99 88 82 89 105 114 120 123 126 126 129 135 141 143 142 139 133 127 123 119 103 72 38 19 28 33 39 42 41 44 57 69 76 80 84 88 92 98 103 107 119 128 137 143 146 155 168 179 182 183 189 198 201 193 173 156 123 97 72 68 79 90 95 96 101 103 108 110 112 112 112 114 111 111 113 115 118 121 123 124 126 126 127 128 128 128 127 127 132 131 129 128 127 127 127 127 127 127 126 125 124 122 122 121 118 118 117 116 115 114 114 113 115 115 114 114 114 114 113 113 115 116 116 117 116 116 115 114 116 115 114 114 114 114 115 115 113 112 111 110 110 110 110 111 109 109 108 107 107 106 105 105 105 105 104 105 105 105 105 104 104 103 103 102 103 103 104 105 106 108 110 110 107 105 105 105 107 107 107 106 104 102 101 100 99 98 98 97 97 96 96 95 89 90 94 100 108 121 142 161 182 182 176 159 134 106 81 67 73 96 126 145 149 140 121 104 82 77 74 77 83 83 76 68 71 72 75 77 78 78 79 79 85 82 78 75 73 69 65 62 61 66 69 68 63 59 59 60 66 68 70 71 70 69 69 69 65 68 74 82 90 93 93 91 93 92 88 83 79 80 84 91 94 100 104 104 105 104 99 94 83 77 70 61 58 60 65 71 74 70 65 61 61 67 76 83 82 83 84 87 91 94 96 98 97 97 100 107 115 120 123 122 120 113 106 102 99 100 110 121 136 136 134 124 107 92 85 85 104 120 137 146 151 157 161 162 
157 155 151 148 143 139 137 136 138 138 140 143 146 144 141 137 134 129 124 121 121 123 125 125 133 138 142 141 141 145 147 147 146 144 143 143 144 145 146 146 146 144 143 144 145 143 137 132 113 98 83 76 66 52 44 45 62 84 111 132 143 143 127 111 94 82 77 86 102 110 114 115 110 110 111 115 117 114 105 98 85 84 90 100 101 86 63 45 34 30 30 36 42 49 62 74 85 87 90 93 96 101 106 111 119 129 139 146 149 155 166 175 181 185 192 199 202 199 191 184 165 132 94 77 78 83 88 91 100 104 110 114 116 117 117 118 115 115 117 118 121 123 125 126 128 128 129 130 130 130 129 129 132 131 130 129 128 128 128 128 128 128 128 126 125 124 123 123 121 120 119 118 117 116 116 115 115 115 114 114 113 113 113 112 115 115 115 115 115 113 112 112 112 112 111 111 111 111 112 113 111 110 109 108 108 108 108 109 108 108 107 107 106 106 105 105 106 107 107 107 106 106 106 107 107 106 106 105 106 106 107 108 110 112 114 113 110 107 105 105 108 108 108 107 106 104 102 101 104 104 103 103 102 102 101 100 97 95 98 104 114 129 153 171 186 179 163 139 111 89 78 76 94 113 132 139 136 128 118 110 95 89 84 86 92 93 87 81 79 80 81 82 82 82 81 79 76 74 71 71 73 73 72 71 79 78 77 76 73 68 64 60 64 69 76 78 77 73 71 70 68 71 78 86 93 96 94 92 90 87 83 79 78 81 86 89 92 97 101 100 101 100 96 91 81 78 74 66 61 60 64 67 71 69 66 63 62 66 73 78 78 79 79 82 86 90 94 96 99 101 107 115 123 128 131 131 128 121 111 103 98 99 111 124 142 146 146 137 121 106 96 92 105 120 135 142 147 152 156 157 
156 155 152 149 146 141 139 137 139 139 140 141 143 142 139 136 131 126 120 118 118 121 122 123 130 136 140 139 141 145 148 147 145 142 140 140 142 145 147 147 148 146 144 144 145 143 137 132 114 97 80 70 58 44 38 41 63 86 113 132 143 142 123 105 84 73 68 80 99 111 115 116 116 112 106 101 96 88 78 70 58 60 69 84 99 104 100 95 51 35 25 29 40 50 62 72 87 88 90 92 95 101 107 113 118 128 139 147 152 158 165 171 180 185 192 198 201 203 204 205 194 165 129 102 88 81 81 85 96 102 110 115 118 119 120 120 120 120 122 122 123 125 127 127 129 129 130 131 132 132 132 132 134 133 132 130 130 129 129 129 129 129 128 128 127 126 125 124 122 121 121 120 120 119 118 118 116 116 115 114 114 113 112 112 115 115 115 115 113 112 111 110 109 109 109 108 109 110 110 111 111 110 109 108 108 108 108 108 108 108 108 108 108 108 108 108 108 110 111 110 109 108 109 111 112 111 111 110 110 110 111 111 111 113 114 113 111 108 107 107 110 110 110 110 109 107 106 105 110 110 109 108 106 105 105 104 102 99 101 111 124 141 162 179 189 177 156 128 99 82 84 93 118 125 128 123 116 114 114 112 100 94 90 93 99 102 98 92 89 89 89 89 90 89 87 84 72 70 67 68 72 76 79 80 87 86 84 84 83 79 72 66 68 75 83 86 83 78 75 74 72 76 82 90 97 99 98 95 89 85 79 77 79 83 87 89 92 96 96 93 90 88 85 79 76 76 75 70 63 61 64 68 69 68 66 63 61 63 67 71 75 75 75 77 82 88 93 96 102 106 114 123 131 135 139 140 135 128 118 108 98 96 106 119 124 131 134 126 115 108 103 99 111 124 137 141 144 148 152 152 
154 154 153 152 151 147 145 143 142 141 140 140 141 140 137 135 127 122 117 114 115 117 119 120 126 132 137 137 139 145 148 147 146 142 139 139 143 147 150 150 150 147 144 144 143 140 134 129 112 93 75 62 49 35 32 37 61 87 113 131 141 140 121 101 76 65 62 77 102 120 128 132 133 125 111 98 88 82 78 76 74 71 68 71 82 99 113 120 80 55 34 33 42 52 65 77 86 85 87 88 91 99 107 113 119 126 135 144 152 159 165 170 180 184 189 195 199 203 206 208 206 190 166 140 111 90 83 84 91 98 106 113 117 119 120 120 125 125 125 125 126 127 128 128 129 130 131 133 134 134 134 134 136 135 134 133 132 132 132 132 131 130 129 128 128 127 126 125 121 121 121 121 120 120 120 120 117 117 116 115 114 113 113 112 116 116 115 114 113 111 110 109 109 109 108 108 109 110 111 111 112 112 111 110 109 109 110 110 110 110 110 111 112 113 113 113 111 113 115 114 111 110 112 114 113 113 112 110 110 110 110 110 109 110 112 112 110 109 110 111 112 112 113 113 112 111 111 110 114 114 113 111 110 108 106 106 102 100 104 119 136 153 167 178 179 167 146 119 91 79 90 108 129 126 116 102 96 100 106 108 96 91 88 93 101 106 103 98 98 97 96 96 97 96 93 89 77 73 69 68 72 78 82 84 88 90 92 91 87 81 75 71 73 79 85 86 81 76 74 74 71 74 81 89 96 99 98 97 87 82 76 74 79 84 87 88 90 92 89 82 78 75 72 66 69 70 71 68 63 63 69 75 75 73 70 65 62 63 67 70 73 73 73 76 82 89 95 99 104 109 118 127 133 136 139 140 134 129 121 111 98 90 94 103 101 108 109 101 95 97 100 101 118 130 141 144 144 148 151 152 
152 153 154 154 155 152 150 148 144 141 139 138 138 137 135 133 124 119 114 112 113 115 117 118 124 130 135 136 138 144 148 147 147 143 139 140 144 150 153 153 152 149 144 143 141 137 130 126 110 91 71 56 43 29 28 34 61 88 115 133 143 141 122 99 77 66 64 83 112 135 146 151 141 129 112 94 84 82 86 90 100 88 70 56 58 76 99 113 104 75 48 42 48 56 71 85 84 83 83 84 88 96 106 113 121 125 131 141 150 159 166 169 182 183 186 191 197 201 201 200 208 204 193 169 133 102 88 88 86 93 103 111 116 118 118 119 129 128 127 127 127 127 129 128 129 130 131 133 135 136 136 136 138 137 136 135 134 134 134 134 131 131 130 129 128 127 127 126 120 120 120 120 120 121 121 121 118 117 117 116 115 114 113 113 116 116 116 115 113 111 109 108 109 109 109 109 109 110 111 112 114 113 112 112 111 111 112 112 111 112 113 114 115 116 117 117 112 115 117 116 113 112 114 116 111 111 109 109 108 107 107 107 106 108 109 110 110 111 113 115 115 115 115 115 115 115 115 114 116 116 114 112 111 109 107 106 100 99 105 124 144 160 169 175 160 148 130 106 81 72 88 110 130 120 102 85 81 90 99 103 90 86 84 90 100 105 103 99 103 101 100 100 101 100 97 93 83 78 72 69 72 77 82 85 87 93 98 96 86 76 72 71 74 79 83 81 75 70 69 71 67 70 76 85 93 97 97 95 84 78 72 71 76 83 86 86 85 86 83 76 71 69 65 60 62 64 66 64 62 65 74 82 83 80 75 68 64 65 69 74 74 74 74 77 83 91 98 103 103 109 118 126 130 133 135 135 129 126 121 111 96 83 82 89 93 99 97 87 83 90 99 103 124 135 145 147 147 150 154 154 
